;FLAVOR:Marlin
;TIME:1579
;Filament used: 0.916232m
;Layer height: 0.2
;MINX:47.825
;MINY:102.282
;MINZ:0.2
;MAXX:167.161
;MAXY:171.618
;MAXZ:3
;Generated with Cura_SteamEngine 4.10.0
M140 S60
M105
M190 S60
M104 S200
M105
M109 S200
M82 ;absolute extrusion mode
M201 X500.00 Y500.00 Z100.00 E5000.00 ;Setup machine max acceleration
M203 X500.00 Y500.00 Z10.00 E50.00 ;Setup machine max feedrate
M204 P500.00 R1000.00 T500.00 ;Setup Print/Retract/Travel acceleration
M205 X8.00 Y8.00 Z0.40 E5.00 ;Setup Jerk
M220 S100 ;Reset Feedrate
M221 S100 ;Reset Flowrate

G28 ;Home
G29 ;Auto bed Level

G92 E0 ;Reset Extruder
G1 Z2.0 F3000 ;Move Z Axis up
G1 X10.1 Y20 Z0.28 F5000.0 ;Move to start position
G1 X10.1 Y200.0 Z0.28 F1500.0 E15 ;Draw the first line
G1 X10.4 Y200.0 Z0.28 F5000.0 ;Move to side a little
G1 X10.4 Y20 Z0.28 F1500.0 E30 ;Draw the second line
G92 E0 ;Reset Extruder
G1 Z2.0 F3000 ;Move Z Axis up

G92 E0
G92 E0
G1 F2700 E-5
;LAYER_COUNT:15
;LAYER:0
M107
G0 F6000 X59.089 Y105.585 Z0.2
;TYPE:SKIRT
G1 F2700 E0
G1 F1200 X59.678 Y105.257 E0.02803
G1 X60.294 Y104.924 E0.05714
G1 X61.02 Y104.544 E0.09121
G1 X62.177 Y104.02 E0.14402
G1 X62.565 Y103.874 E0.16125
G1 X63.094 Y103.685 E0.18461
G1 X63.827 Y103.433 E0.21683
G1 X64.584 Y103.184 E0.24996
G1 X65.737 Y102.872 E0.29962
G1 X66.223 Y102.774 E0.32023
G1 X66.882 Y102.657 E0.34806
G1 X67.53 Y102.549 E0.37537
G1 X68.4 Y102.417 E0.41196
G1 X69.644 Y102.299 E0.46391
G1 X70.059 Y102.288 E0.48117
G1 X70.643 Y102.282 E0.50545
G1 X71.337 Y102.282 E0.5343
G1 X72.227 Y102.294 E0.57131
G1 X73.174 Y102.349 E0.61075
G1 X73.737 Y102.419 E0.63433
G1 X74.352 Y102.512 E0.66019
G1 X75.165 Y102.647 E0.69446
G1 X75.994 Y102.796 E0.72947
G1 X77.173 Y103.076 E0.77986
G1 X77.295 Y103.112 E0.78514
G1 X77.636 Y103.219 E0.8
G1 X78.165 Y103.394 E0.82317
G1 X79.012 Y103.686 E0.86042
G1 X79.677 Y103.925 E0.88979
G1 X80.57 Y104.29 E0.9299
G1 X81.534 Y104.734 E0.97403
G1 X82.368 Y105.13 E1.01241
G1 X84.652 Y106.137 E1.11619
G1 X87.027 Y107.107 E1.22285
G1 X89.307 Y107.959 E1.32404
G1 X91.708 Y108.783 E1.42958
G1 X94.116 Y109.534 E1.53445
G1 X96.517 Y110.208 E1.63813
G1 X98.979 Y110.825 E1.74365
G1 X100.122 Y111.08 E1.79234
G1 X100.766 Y111.234 E1.81987
G1 X101.394 Y111.404 E1.84692
G1 X101.733 Y111.511 E1.8617
G1 X102.346 Y111.713 E1.88853
G1 X103.092 Y111.971 E1.92135
G1 X103.766 Y112.212 E1.95111
G1 X104.652 Y112.572 E1.99087
G1 X105.771 Y113.083 E2.04201
G1 X108.174 Y114.143 E2.15121
G1 X110.492 Y115.089 E2.25529
G1 X112.822 Y115.964 E2.35877
G1 X115.208 Y116.782 E2.46364
G1 X117.604 Y117.529 E2.56798
G1 X120.034 Y118.213 E2.67293
G1 X122.513 Y118.836 E2.7792
G1 X124.663 Y119.314 E2.87077
G1 X125.036 Y119.403 E2.88671
G1 X125.183 Y119.441 E2.89303
G1 X125.906 Y119.654 E2.92436
G1 X126.526 Y119.86 E2.95152
G1 X127.265 Y120.115 E2.98403
G1 X128.638 Y120.608 E3.04468
G1 X130.026 Y121.129 E3.10631
G1 X132.404 Y121.945 E3.21084
G1 X134.808 Y122.696 E3.31555
G1 X137.206 Y123.369 E3.4191
G1 X139.653 Y123.985 E3.52401
G1 X142.115 Y124.527 E3.62882
G1 X144.595 Y125.002 E3.7338
G1 X146.478 Y125.314 E3.81315
G1 X147.263 Y125.435 E3.84617
G1 X148.195 Y125.591 E3.88546
G1 X148.874 Y125.714 E3.91415
G1 X150.053 Y125.994 E3.96453
G1 X150.175 Y126.03 E3.96982
G1 X150.516 Y126.137 E3.98468
G1 X151.045 Y126.312 E4.00784
G1 X151.891 Y126.604 E4.04505
G1 X152.559 Y126.844 E4.07456
G1 X153.437 Y127.202 E4.11398
G1 X153.976 Y127.466 E4.13893
G1 X154.665 Y127.828 E4.17129
G1 X155.388 Y128.22 E4.20548
G1 X155.995 Y128.56 E4.23441
G1 X156.802 Y129.058 E4.27384
G1 X157.269 Y129.392 E4.29771
G1 X157.861 Y129.839 E4.32855
G1 X158.532 Y130.364 E4.36397
G1 X159.078 Y130.801 E4.39304
G1 X160.003 Y131.629 E4.44466
G1 X160.112 Y131.738 E4.45107
G1 X160.355 Y131.989 E4.46559
G1 X160.721 Y132.379 E4.48783
G1 X161.294 Y133.002 E4.52302
G1 X161.772 Y133.535 E4.55278
G1 X162.592 Y134.564 E4.60749
G1 X162.791 Y134.852 E4.62204
G1 X163.142 Y135.378 E4.64833
G1 X163.525 Y135.962 E4.67737
G1 X163.99 Y136.696 E4.71349
G1 X164.537 Y137.667 E4.75982
G1 X164.759 Y138.128 E4.7811
G1 X165.04 Y138.75 E4.80947
G1 X165.356 Y139.473 E4.84228
G1 X165.637 Y140.139 E4.87233
G1 X166.055 Y141.304 E4.92379
G1 X166.091 Y141.425 E4.92904
G1 X166.183 Y141.753 E4.9432
G1 X166.319 Y142.267 E4.96531
G1 X166.549 Y143.179 E5.00441
G1 X166.699 Y143.81 E5.03137
G1 X166.891 Y144.821 E5.07416
G1 X166.909 Y144.947 E5.07945
G1 X166.973 Y145.488 E5.1021
G1 X167.028 Y146.082 E5.1269
G1 X167.087 Y146.789 E5.1564
G1 X167.146 Y147.65 E5.19228
G1 X167.161 Y148.907 E5.24454
G1 X167.139 Y149.327 E5.26202
G1 X167.098 Y149.897 E5.28578
G1 X167.028 Y150.732 E5.32062
G1 X166.954 Y151.489 E5.35224
G1 X166.766 Y152.712 E5.40369
G1 X166.67 Y153.14 E5.42192
G1 X166.545 Y153.654 E5.44392
G1 X166.312 Y154.578 E5.48353
G1 X166.134 Y155.237 E5.51191
G1 X165.784 Y156.314 E5.559
G1 X165.599 Y156.775 E5.57965
G1 X165.336 Y157.394 E5.60761
G1 X165.027 Y158.097 E5.63953
G1 X164.718 Y158.776 E5.67055
G1 X164.105 Y159.937 E5.72513
G1 X163.89 Y160.287 E5.74221
G1 X163.607 Y160.73 E5.76407
G1 X163.123 Y161.471 E5.80086
G1 X162.726 Y162.06 E5.83039
G1 X161.932 Y163.102 E5.88486
G1 X161.688 Y163.38 E5.90024
G1 X161.257 Y163.858 E5.927
G1 X160.727 Y164.432 E5.95948
G1 X160.219 Y164.968 E5.99018
G1 X159.316 Y165.821 E6.04182
G1 X159.001 Y166.082 E6.05883
G1 X158.524 Y166.463 E6.08421
G1 X157.828 Y167.003 E6.12084
G1 X157.261 Y167.431 E6.15037
G1 X156.116 Y168.19 E6.20748
G1 X155.843 Y168.347 E6.22058
G1 X155.38 Y168.604 E6.24259
G1 X154.61 Y169.019 E6.27896
G1 X153.962 Y169.358 E6.30936
G1 X152.925 Y169.835 E6.35682
G1 X152.452 Y170.016 E6.37788
G1 X151.798 Y170.248 E6.40673
G1 X151.066 Y170.498 E6.43889
G1 X150.367 Y170.726 E6.46945
G1 X149.172 Y171.045 E6.52088
G1 X148.734 Y171.131 E6.53943
G1 X148.134 Y171.238 E6.56477
G1 X147.465 Y171.35 E6.59297
G1 X146.586 Y171.483 E6.62993
G1 X145.342 Y171.601 E6.68188
G1 X144.927 Y171.612 E6.69914
G1 X144.343 Y171.618 E6.72343
G1 X143.477 Y171.617 E6.75943
G1 X142.759 Y171.606 E6.78928
G1 X141.812 Y171.551 E6.82872
G1 X141.249 Y171.481 E6.85231
G1 X140.634 Y171.388 E6.87817
G1 X139.821 Y171.253 E6.91243
G1 X138.992 Y171.104 E6.94745
G1 X137.801 Y170.82 E6.99835
G1 X137.373 Y170.688 E7.01698
G1 X136.76 Y170.486 E7.04381
G1 X136.001 Y170.224 E7.07719
G1 X134.7 Y169.757 E7.13466
G1 X133.205 Y169.197 E7.20103
G1 X130.807 Y168.376 E7.30641
G1 X128.418 Y167.631 E7.41045
G1 X126.013 Y166.957 E7.51429
G1 X123.554 Y166.341 E7.61968
G1 X121.119 Y165.806 E7.72333
G1 X118.61 Y165.327 E7.82953
G1 X116.849 Y165.035 E7.90374
G1 X115.86 Y164.88 E7.94536
G1 X115.116 Y164.754 E7.97674
G1 X114.383 Y164.621 E8.00771
G1 X113.094 Y164.308 E8.06286
G1 X112.726 Y164.193 E8.07889
G1 X112.177 Y164.01 E8.10295
G1 X111.382 Y163.737 E8.13789
G1 X110.691 Y163.488 E8.16843
G1 X109.821 Y163.132 E8.20751
G1 X108.719 Y162.627 E8.25791
G1 X106.335 Y161.576 E8.36623
G1 X103.972 Y160.611 E8.47235
G1 X101.666 Y159.749 E8.5747
G1 X99.308 Y158.94 E8.67834
G1 X96.88 Y158.182 E8.78409
G1 X94.471 Y157.506 E8.88811
G1 X92.026 Y156.893 E8.99291
G1 X89.775 Y156.391 E9.0888
G1 X88.962 Y156.178 E9.12374
G1 X88.83 Y156.138 E9.12947
G1 X88.171 Y155.923 E9.15829
G1 X87.385 Y155.655 E9.19282
G1 X86.539 Y155.351 E9.23019
G1 X85.661 Y154.993 E9.26961
G1 X84.887 Y154.638 E9.30501
G1 X83.862 Y154.152 E9.35218
G1 X81.564 Y153.14 E9.45657
G1 X79.251 Y152.197 E9.56042
G1 X76.868 Y151.303 E9.66623
G1 X74.5 Y150.491 E9.77031
G1 X72.125 Y149.751 E9.87373
G1 X69.682 Y149.066 E9.97922
G1 X67.24 Y148.452 E10.08391
G1 X66.102 Y148.2 E10.13236
G1 X65.452 Y148.044 E10.16016
G1 X64.943 Y147.909 E10.18205
G1 X64.854 Y147.883 E10.1859
G1 X64.493 Y147.77 E10.20163
G1 X63.875 Y147.566 E10.22869
G1 X63.123 Y147.306 E10.26177
G1 X62.443 Y147.062 E10.2918
G1 X61.378 Y146.617 E10.33979
G1 X61.28 Y146.57 E10.34431
G1 X60.917 Y146.387 E10.36121
G1 X60.323 Y146.075 E10.38911
G1 X59.608 Y145.686 E10.42295
G1 X58.978 Y145.332 E10.45299
G1 X57.933 Y144.666 E10.50451
G1 X57.592 Y144.417 E10.52207
G1 X57.139 Y144.072 E10.54574
G1 X56.398 Y143.493 E10.58484
G1 X55.859 Y143.059 E10.61361
G1 X55.146 Y142.433 E10.65305
G1 X54.747 Y142.032 E10.67657
G1 X54.224 Y141.479 E10.70822
G1 X53.659 Y140.863 E10.74297
G1 X53.207 Y140.358 E10.77114
G1 X52.416 Y139.366 E10.82389
G1 X52.202 Y139.058 E10.83949
G1 X51.836 Y138.51 E10.86688
G1 X51.348 Y137.763 E10.90398
G1 X51.002 Y137.216 E10.93089
G1 X50.353 Y136.039 E10.98677
G1 X50.217 Y135.749 E11.00009
G1 X49.946 Y135.15 E11.02742
G1 X49.634 Y134.437 E11.05978
G1 X49.351 Y133.768 E11.08998
G1 X48.906 Y132.516 E11.14522
G1 X48.813 Y132.183 E11.15959
G1 X48.656 Y131.593 E11.18498
G1 X48.436 Y130.716 E11.22257
G1 X48.286 Y130.087 E11.24945
G1 X48.062 Y128.844 E11.30196
G1 X48.012 Y128.401 E11.3205
G1 X47.957 Y127.815 E11.34497
G1 X47.885 Y126.931 E11.38184
G1 X47.839 Y126.248 E11.4103
G1 X47.825 Y124.989 E11.46265
G1 X47.847 Y124.581 E11.47963
G1 X47.892 Y123.953 E11.50581
G1 X47.959 Y123.161 E11.53886
G1 X48.032 Y122.413 E11.5701
G1 X48.225 Y121.165 E11.6226
G1 X48.307 Y120.798 E11.63824
G1 X48.446 Y120.22 E11.66295
G1 X48.665 Y119.363 E11.69973
G1 X48.851 Y118.671 E11.72952
G1 X49.27 Y117.413 E11.78465
G1 X49.386 Y117.128 E11.79744
G1 X49.648 Y116.511 E11.82531
G1 X49.906 Y115.922 E11.85204
G1 X50.279 Y115.104 E11.88942
G1 X50.877 Y113.971 E11.94268
G1 X51.098 Y113.611 E11.96025
G1 X51.407 Y113.127 E11.98412
G1 X51.863 Y112.43 E12.01875
G1 X52.26 Y111.841 E12.04828
G1 X53.054 Y110.799 E12.10274
G1 X53.303 Y110.515 E12.11845
G1 X53.752 Y110.017 E12.14632
G1 X54.259 Y109.469 E12.17736
G1 X54.767 Y108.933 E12.20806
G1 X55.641 Y108.105 E12.25812
G1 X56.004 Y107.802 E12.27778
G1 X56.469 Y107.432 E12.30248
G1 X57.142 Y106.91 E12.33789
G1 X57.707 Y106.483 E12.36734
G1 X58.629 Y105.855 E12.41372
G1 X58.706 Y105.808 E12.41747
G1 X59.089 Y105.585 E12.43589
G0 F6000 X59.333 Y106.022
G1 F1200 X59.916 Y105.697 E12.46364
G1 X60.663 Y105.295 E12.49891
G1 X61.252 Y104.987 E12.52654
G1 X62.357 Y104.486 E12.57699
G1 X62.733 Y104.344 E12.5937
G1 X63.257 Y104.158 E12.61681
G1 X64.131 Y103.859 E12.65522
G1 X64.74 Y103.659 E12.68187
G1 X65.842 Y103.361 E12.72933
G1 X66.311 Y103.266 E12.74922
G1 X66.964 Y103.15 E12.7768
G1 X67.778 Y103.016 E12.81109
G1 X68.475 Y102.911 E12.8404
G1 X69.663 Y102.799 E12.89001
G1 X70.064 Y102.788 E12.90669
G1 X70.643 Y102.782 E12.93076
G1 X71.337 Y102.782 E12.95961
G1 X72.22 Y102.794 E12.99633
G1 X73.145 Y102.848 E13.03485
G1 X73.662 Y102.914 E13.05652
G1 X74.443 Y103.033 E13.08936
G1 X75.226 Y103.165 E13.12238
G1 X75.905 Y103.288 E13.15107
G1 X77.031 Y103.556 E13.19919
G1 X77.48 Y103.693 E13.2187
G1 X78.002 Y103.867 E13.24158
G1 X78.843 Y104.157 E13.27857
G1 X79.508 Y104.396 E13.30794
G1 X80.361 Y104.744 E13.34625
G1 X81.319 Y105.185 E13.39009
G1 X82.161 Y105.584 E13.42883
G1 X84.471 Y106.604 E13.53381
G1 X86.831 Y107.567 E13.63979
G1 X89.149 Y108.434 E13.74268
G1 X91.577 Y109.266 E13.84938
G1 X93.937 Y110.003 E13.95217
G1 X96.399 Y110.694 E14.05849
G1 X98.87 Y111.313 E14.16439
G1 X100.013 Y111.568 E14.21308
G1 X100.649 Y111.72 E14.24027
G1 X101.249 Y111.883 E14.26612
G1 X101.577 Y111.986 E14.28041
G1 X102.183 Y112.186 E14.30694
G1 X102.923 Y112.442 E14.3395
G1 X103.597 Y112.683 E14.36926
G1 X104.445 Y113.027 E14.4073
G1 X105.587 Y113.549 E14.45951
G1 X107.976 Y114.603 E14.56807
G1 X110.307 Y115.553 E14.67272
G1 X112.652 Y116.434 E14.77687
G1 X115.044 Y117.255 E14.88201
G1 X117.49 Y118.017 E14.98852
G1 X119.89 Y118.693 E15.09218
G1 X122.387 Y119.32 E15.19922
G1 X124.555 Y119.802 E15.29156
G1 X124.91 Y119.887 E15.30673
G1 X125.057 Y119.925 E15.31304
G1 X125.748 Y120.129 E15.343
G1 X126.364 Y120.333 E15.36998
G1 X127.097 Y120.586 E15.40222
G1 X128.463 Y121.076 E15.46255
G1 X129.868 Y121.603 E15.52494
G1 X132.272 Y122.429 E15.63062
G1 X134.629 Y123.165 E15.73328
G1 X137.096 Y123.857 E15.8398
G1 X139.56 Y124.477 E15.94544
G1 X141.984 Y125.011 E16.04863
G1 X144.495 Y125.492 E16.15493
G1 X146.402 Y125.808 E16.23529
G1 X147.319 Y125.951 E16.27388
G1 X148.106 Y126.083 E16.30705
G1 X148.785 Y126.206 E16.33574
G1 X149.911 Y126.474 E16.38386
G1 X150.36 Y126.611 E16.40338
G1 X150.882 Y126.785 E16.42626
G1 X151.722 Y127.074 E16.46319
G1 X152.39 Y127.314 E16.4927
G1 X153.248 Y127.665 E16.53124
G1 X153.744 Y127.909 E16.55422
G1 X154.427 Y128.268 E16.5863
G1 X155.143 Y128.656 E16.62016
G1 X155.75 Y128.996 E16.64908
G1 X156.539 Y129.484 E16.68765
G1 X156.968 Y129.791 E16.70959
G1 X157.553 Y130.234 E16.74009
G1 X158.219 Y130.754 E16.77522
G1 X158.765 Y131.191 E16.8043
G1 X159.649 Y131.983 E16.85364
G1 X159.758 Y132.092 E16.86005
G1 X159.991 Y132.332 E16.87396
G1 X160.353 Y132.718 E16.89596
G1 X160.922 Y133.336 E16.93089
G1 X161.4 Y133.869 E16.96065
G1 X162.183 Y134.852 E17.0129
G1 X162.375 Y135.13 E17.02695
G1 X162.724 Y135.653 E17.05309
G1 X163.21 Y136.397 E17.09003
G1 X163.567 Y136.963 E17.11786
G1 X164.09 Y137.89 E17.16211
G1 X164.304 Y138.335 E17.18264
G1 X164.582 Y138.951 E17.21073
G1 X164.895 Y139.667 E17.24322
G1 X165.176 Y140.333 E17.27327
G1 X165.576 Y141.446 E17.32244
G1 X165.612 Y141.567 E17.32769
G1 X165.7 Y141.881 E17.34125
G1 X165.834 Y142.39 E17.36313
G1 X166.063 Y143.295 E17.40194
G1 X166.213 Y143.926 E17.42891
G1 X166.396 Y144.892 E17.46979
G1 X166.414 Y145.018 E17.47508
G1 X166.475 Y145.535 E17.49672
G1 X166.53 Y146.124 E17.52131
G1 X166.602 Y147.002 E17.55794
G1 X166.648 Y147.684 E17.58636
G1 X166.661 Y148.884 E17.63625
G1 X166.64 Y149.292 E17.65324
G1 X166.6 Y149.856 E17.67674
G1 X166.53 Y150.683 E17.71125
G1 X166.456 Y151.44 E17.74287
G1 X166.276 Y152.609 E17.79205
G1 X166.184 Y153.022 E17.80964
G1 X166.06 Y153.532 E17.83146
G1 X165.829 Y154.447 E17.87069
G1 X165.651 Y155.106 E17.89907
G1 X165.317 Y156.135 E17.94405
G1 X165.139 Y156.58 E17.96398
G1 X164.878 Y157.193 E17.99168
G1 X164.571 Y157.89 E18.02334
G1 X164.262 Y158.569 E18.05436
G1 X163.677 Y159.678 E18.10649
G1 X163.468 Y160.018 E18.12308
G1 X163.188 Y160.457 E18.14473
G1 X162.708 Y161.191 E18.18119
G1 X162.311 Y161.78 E18.21072
G1 X161.552 Y162.776 E18.26278
G1 X161.317 Y163.046 E18.27766
G1 X160.89 Y163.519 E18.30416
G1 X160.364 Y164.088 E18.33637
G1 X159.856 Y164.624 E18.36707
G1 X158.993 Y165.439 E18.41642
G1 X158.688 Y165.692 E18.4329
G1 X158.217 Y166.068 E18.45796
G1 X157.527 Y166.604 E18.49428
G1 X156.96 Y167.032 E18.52382
G1 X155.866 Y167.757 E18.57838
G1 X155.599 Y167.91 E18.59117
G1 X155.142 Y168.164 E18.61291
G1 X154.378 Y168.576 E18.649
G1 X153.73 Y168.915 E18.6794
G1 X152.739 Y169.371 E18.72476
G1 X152.284 Y169.545 E18.74501
G1 X151.636 Y169.776 E18.77361
G1 X150.911 Y170.023 E18.80545
G1 X150.212 Y170.251 E18.83602
G1 X149.071 Y170.555 E18.88511
G1 X148.646 Y170.639 E18.90313
G1 X148.051 Y170.744 E18.92825
G1 X147.208 Y170.884 E18.96377
G1 X146.511 Y170.989 E18.99308
G1 X145.323 Y171.101 E19.04269
G1 X144.922 Y171.112 E19.05937
G1 X144.343 Y171.118 E19.08344
G1 X143.484 Y171.117 E19.11915
G1 X142.766 Y171.106 E19.14901
G1 X141.841 Y171.052 E19.18753
G1 X141.324 Y170.986 E19.2092
G1 X140.543 Y170.867 E19.24204
G1 X139.76 Y170.735 E19.27506
G1 X139.081 Y170.612 E19.30375
G1 X137.943 Y170.341 E19.35238
G1 X137.529 Y170.213 E19.3704
G1 X136.923 Y170.013 E19.39693
G1 X136.17 Y169.753 E19.43005
G1 X134.731 Y169.235 E19.49363
G1 X133.374 Y168.727 E19.55387
G1 X130.948 Y167.896 E19.66049
G1 X128.586 Y167.159 E19.76336
G1 X126.131 Y166.471 E19.86936
G1 X123.644 Y165.848 E19.97595
G1 X121.249 Y165.322 E20.0779
G1 X118.696 Y164.835 E20.18595
G1 X116.911 Y164.538 E20.26118
G1 X115.943 Y164.387 E20.30191
G1 X115.205 Y164.262 E20.33303
G1 X114.472 Y164.129 E20.36401
G1 X113.24 Y163.83 E20.41671
G1 X112.883 Y163.718 E20.43227
G1 X112.339 Y163.537 E20.4561
G1 X111.552 Y163.266 E20.49071
G1 X110.861 Y163.017 E20.52125
G1 X110.029 Y162.678 E20.5586
G1 X108.906 Y162.164 E20.60995
G1 X106.516 Y161.109 E20.71856
G1 X104.168 Y160.151 E20.82399
G1 X101.824 Y159.274 E20.92804
G1 X99.44 Y158.456 E21.03283
G1 X97.059 Y157.713 E21.13653
G1 X94.589 Y157.02 E21.24318
G1 X92.135 Y156.405 E21.34836
G1 X89.884 Y155.903 E21.44425
G1 X89.107 Y155.699 E21.47765
G1 X88.724 Y155.58 E21.49432
G1 X88.209 Y155.409 E21.51688
