;FLAVOR:Marlin
;TIME:26897
;Filament used: 23.7525m
;Layer height: 0.2
;MINX:51.25
;MINY:68.75
;MINZ:0.2
;MAXX:248.75
;MAXY:231.25
;MAXZ:5
;Generated with Cura_SteamEngine 4.10.0
M140 S60
M105
M190 S60
M104 S200
M105
M109 S200
M82 ;absolute extrusion mode
M201 X500.00 Y500.00 Z100.00 E5000.00 ;Setup machine max acceleration
M203 X500.00 Y500.00 Z10.00 E50.00 ;Setup machine max feedrate
M204 P500.00 R1000.00 T500.00 ;Setup Print/Retract/Travel acceleration
M205 X8.00 Y8.00 Z0.40 E5.00 ;Setup Jerk
M220 S100 ;Reset Feedrate
M221 S100 ;Reset Flowrate

G28 ;Home
G29 ;Auto bed Level

G92 E0 ;Reset Extruder
G1 Z2.0 F3000 ;Move Z Axis up
G1 X10.1 Y20 Z0.28 F5000.0 ;Move to start position
G1 X10.1 Y200.0 Z0.28 F1500.0 E15 ;Draw the first line
G1 X10.4 Y200.0 Z0.28 F5000.0 ;Move to side a little
G1 X10.4 Y20 Z0.28 F1500.0 E30 ;Draw the second line
G92 E0 ;Reset Extruder
G1 Z2.0 F3000 ;Move Z Axis up

G92 E0
G92 E0
G1 F2700 E-5
;LAYER_COUNT:25
;LAYER:0
M107
G0 F6000 X56.682 Y71.831 Z0.2
;TYPE:SKIRT
G1 F2700 E0
G1 F1200 X57.687 Y71.099 E0.05169
G1 X57.894 Y70.965 E0.06194
G1 X58.832 Y70.42 E0.10705
G1 X59.081 Y70.291 E0.1187
G1 X60.078 Y69.835 E0.16428
G1 X60.363 Y69.721 E0.17705
G1 X61.372 Y69.372 E0.22143
G1 X61.481 Y69.34 E0.22616
G1 X62.431 Y69.105 E0.26684
G1 X62.923 Y69.006 E0.28771
G1 X63.86 Y68.858 E0.32715
G1 X64.593 Y68.798 E0.35772
G1 X65.187 Y68.769 E0.38245
G1 X65.59 Y68.757 E0.39921
G1 X66.198 Y68.75 E0.42449
G1 X233.807 Y68.75 E7.39286
G1 X234.415 Y68.757 E7.41814
G1 X234.809 Y68.769 E7.43453
G1 X235.392 Y68.797 E7.4588
G1 X236.336 Y68.882 E7.4982
G1 X237.083 Y69.007 E7.52969
G1 X237.597 Y69.111 E7.55149
G1 X238.518 Y69.339 E7.59094
G1 X239.229 Y69.572 E7.62205
G1 X239.549 Y69.689 E7.63621
G1 X240.657 Y70.163 E7.68632
G1 X240.927 Y70.296 E7.69883
G1 X241.922 Y70.85 E7.74618
G1 X242.173 Y71.007 E7.75849
G1 X243.027 Y71.598 E7.80166
G1 X243.25 Y71.768 E7.81332
G1 X243.98 Y72.375 E7.85279
G1 X244.385 Y72.76 E7.87602
G1 X244.671 Y73.046 E7.89284
G1 X245.426 Y73.881 E7.93964
G1 X245.641 Y74.144 E7.95377
G1 X246.304 Y75.042 E8.00017
G1 X246.458 Y75.274 E8.01175
G1 X247.06 Y76.293 E8.06096
G1 X247.193 Y76.548 E8.07291
G1 X247.69 Y77.64 E8.12279
G1 X247.807 Y77.938 E8.1361
G1 X248.168 Y79.014 E8.18329
G1 X248.247 Y79.296 E8.19547
G1 X248.474 Y80.27 E8.23704
G1 X248.523 Y80.533 E8.24817
G1 X248.657 Y81.472 E8.2876
G1 X248.7 Y82.055 E8.31191
G1 X248.73 Y82.681 E8.33796
G1 X248.742 Y83.061 E8.35377
G1 X248.75 Y83.716 E8.381
G1 X248.749 Y216.456 E13.89969
G1 X248.743 Y216.908 E13.91848
G1 X248.731 Y217.291 E13.93441
G1 X248.703 Y217.883 E13.95905
G1 X248.592 Y219.02 E14.00655
G1 X248.553 Y219.28 E14.01748
G1 X248.312 Y220.452 E14.06723
G1 X248.235 Y220.747 E14.0799
G1 X247.873 Y221.885 E14.12955
G1 X247.766 Y222.168 E14.14213
G1 X247.367 Y223.094 E14.18405
G1 X247.242 Y223.352 E14.19597
G1 X246.671 Y224.389 E14.24519
G1 X246.513 Y224.643 E14.25762
G1 X245.863 Y225.579 E14.305
G1 X245.683 Y225.812 E14.31724
G1 X244.766 Y226.858 E14.37507
G1 X244.508 Y227.118 E14.3903
G1 X243.631 Y227.913 E14.43951
G1 X243.382 Y228.116 E14.45287
G1 X242.483 Y228.778 E14.49929
G1 X242.131 Y229.011 E14.51684
G1 X241.019 Y229.658 E14.57033
G1 X240.84 Y229.749 E14.57867
G1 X239.894 Y230.177 E14.62184
G1 X239.617 Y230.287 E14.63423
G1 X238.502 Y230.663 E14.68315
G1 X238.206 Y230.746 E14.69593
G1 X237.207 Y230.978 E14.73857
G1 X236.941 Y231.027 E14.74982
G1 X236.002 Y231.159 E14.78924
G1 X235.44 Y231.2 E14.81267
G1 X234.812 Y231.23 E14.83881
G1 X234.435 Y231.242 E14.85449
G1 X233.784 Y231.25 E14.88156
G1 X66.052 Y231.249 E21.85504
G1 X65.59 Y231.243 E21.87425
G1 X65.187 Y231.231 E21.89102
G1 X64.593 Y231.202 E21.91574
G1 X63.649 Y231.115 E21.95515
G1 X62.944 Y230.998 E21.98486
G1 X62.457 Y230.901 E22.00551
G1 X61.162 Y230.562 E22.06116
G1 X60.963 Y230.497 E22.06987
G1 X59.998 Y230.132 E22.11276
G1 X59.72 Y230.012 E22.12535
G1 X58.701 Y229.51 E22.17258
G1 X58.448 Y229.369 E22.18462
G1 X57.716 Y228.923 E22.22026
G1 X57.577 Y228.831 E22.22719
G1 X56.641 Y228.14 E22.27556
G1 X56.343 Y227.895 E22.29159
G1 X55.533 Y227.16 E22.33707
G1 X55.358 Y226.985 E22.34736
G1 X54.604 Y226.151 E22.3941
G1 X54.317 Y225.8 E22.41295
G1 X53.519 Y224.695 E22.46962
G1 X53.407 Y224.518 E22.47833
G1 X52.931 Y223.689 E22.51807
G1 X52.798 Y223.433 E22.53006
G1 X52.321 Y222.388 E22.57782
G1 X52.203 Y222.09 E22.59115
G1 X51.913 Y221.265 E22.6275
G1 X51.884 Y221.171 E22.63159
G1 X51.602 Y220.056 E22.67941
G1 X51.503 Y219.56 E22.70044
G1 X51.356 Y218.623 E22.73987
G1 X51.298 Y217.896 E22.77019
G1 X51.269 Y217.29 E22.79542
G1 X51.257 Y216.902 E22.81155
G1 X51.25 Y216.302 E22.8365
G1 X51.251 Y83.505 E28.35756
G1 X51.257 Y83.078 E28.37531
G1 X51.269 Y82.687 E28.39158
G1 X51.298 Y82.093 E28.4163
G1 X51.385 Y81.149 E28.45572
G1 X51.502 Y80.444 E28.48543
G1 X51.599 Y79.957 E28.50607
G1 X51.932 Y78.679 E28.56098
G1 X51.996 Y78.482 E28.56959
G1 X52.393 Y77.439 E28.61599
G1 X52.518 Y77.154 E28.62893
G1 X52.959 Y76.259 E28.67041
G1 X53.088 Y76.024 E28.68155
G1 X53.632 Y75.135 E28.72488
G1 X53.793 Y74.897 E28.73683
G1 X54.355 Y74.137 E28.77613
G1 X54.476 Y73.987 E28.78414
G1 X55.294 Y73.078 E28.83498
G1 X55.534 Y72.839 E28.84906
G1 X56.354 Y72.099 E28.89499
G1 X56.682 Y71.831 E28.9126
G0 F6000 X56.998 Y72.218
G1 F1200 X57.958 Y71.519 E28.96197
G1 X58.165 Y71.385 E28.97222
G1 X59.062 Y70.864 E29.01535
G1 X59.311 Y70.735 E29.027
G1 X60.264 Y70.299 E29.07058
G1 X60.549 Y70.185 E29.08334
G1 X61.513 Y69.851 E29.12575
G1 X61.622 Y69.819 E29.13048
G1 X62.529 Y69.595 E29.16932
G1 X63.021 Y69.496 E29.19018
G1 X63.937 Y69.353 E29.22873
G1 X64.618 Y69.298 E29.25713
G1 X65.212 Y69.269 E29.28186
G1 X65.596 Y69.257 E29.29783
G1 X66.198 Y69.25 E29.32286
G1 X233.807 Y69.25 E36.29123
G1 X234.409 Y69.257 E36.31626
G1 X234.785 Y69.268 E36.3319
G1 X235.368 Y69.296 E36.35617
G1 X236.291 Y69.381 E36.3947
G1 X236.984 Y69.498 E36.42392
G1 X237.498 Y69.602 E36.44572
G1 X238.398 Y69.824 E36.48426
G1 X239.057 Y70.042 E36.51312
G1 X239.377 Y70.159 E36.52729
G1 X240.436 Y70.612 E36.57517
G1 X240.706 Y70.745 E36.58769
G1 X241.657 Y71.274 E36.63293
G1 X241.908 Y71.431 E36.64524
G1 X242.724 Y71.996 E36.6865
G1 X242.947 Y72.166 E36.69816
G1 X243.66 Y72.759 E36.73672
G1 X244.031 Y73.114 E36.75807
G1 X244.317 Y73.4 E36.77488
G1 X245.039 Y74.197 E36.81959
G1 X245.254 Y74.46 E36.83371
G1 X245.887 Y75.319 E36.87808
G1 X246.041 Y75.551 E36.88965
G1 X246.616 Y76.525 E36.93668
G1 X246.749 Y76.78 E36.94863
G1 X247.224 Y77.822 E36.99625
G1 X247.341 Y78.12 E37.00956
G1 X247.686 Y79.149 E37.05468
G1 X247.765 Y79.431 E37.06685
G1 X247.982 Y80.362 E37.1066
G1 X248.031 Y80.625 E37.11772
G1 X248.161 Y81.543 E37.15627
G1 X248.201 Y82.079 E37.17861
G1 X248.231 Y82.705 E37.20467
G1 X248.242 Y83.068 E37.21977
G1 X248.25 Y83.716 E37.24671
G1 X248.249 Y216.45 E42.76515
G1 X248.243 Y216.902 E42.78394
G1 X248.232 Y217.267 E42.79912
G1 X248.204 Y217.859 E42.82376
G1 X248.097 Y218.946 E42.86917
G1 X248.058 Y219.206 E42.8801
G1 X247.829 Y220.326 E42.92763
G1 X247.752 Y220.621 E42.94031
G1 X247.405 Y221.708 E42.98775
G1 X247.298 Y221.991 E43.00032
G1 X246.917 Y222.876 E43.04038
G1 X246.792 Y223.134 E43.0523
G1 X246.246 Y224.125 E43.09934
G1 X246.088 Y224.379 E43.11178
G1 X245.467 Y225.273 E43.15704
G1 X245.287 Y225.506 E43.16928
G1 X244.411 Y226.506 E43.22455
G1 X244.153 Y226.766 E43.23978
G1 X243.315 Y227.526 E43.28681
G1 X243.066 Y227.729 E43.30017
G1 X242.207 Y228.361 E43.3445
G1 X241.855 Y228.594 E43.36205
G1 X240.793 Y229.213 E43.41316
G1 X240.614 Y229.304 E43.42151
G1 X239.71 Y229.712 E43.46274
G1 X239.433 Y229.822 E43.47513
G1 X238.367 Y230.182 E43.52191
G1 X238.071 Y230.265 E43.53469
G1 X237.116 Y230.486 E43.57545
G1 X236.85 Y230.535 E43.58669
G1 X235.932 Y230.664 E43.62523
G1 X235.416 Y230.701 E43.64674
G1 X234.788 Y230.731 E43.67288
G1 X234.428 Y230.742 E43.68785
G1 X233.784 Y230.75 E43.71463
G1 X66.058 Y230.749 E50.68787
G1 X65.596 Y230.743 E50.70708
G1 X65.212 Y230.731 E50.72305
G1 X64.618 Y230.702 E50.74777
G1 X63.695 Y230.617 E50.78631
G1 X63.042 Y230.508 E50.81383
G1 X62.555 Y230.411 E50.83448
G1 X61.317 Y230.087 E50.88768
G1 X61.118 Y230.022 E50.89639
G1 X60.196 Y229.673 E50.93737
G1 X59.918 Y229.553 E50.94996
G1 X58.945 Y229.073 E50.99507
G1 X58.692 Y228.932 E51.00711
G1 X57.992 Y228.506 E51.04118
G1 X57.853 Y228.414 E51.04811
G1 X56.959 Y227.754 E51.09431
G1 X56.661 Y227.509 E51.11035
G1 X55.887 Y226.806 E51.15382
G1 X55.712 Y226.631 E51.16411
G1 X54.991 Y225.835 E51.20876
G1 X54.704 Y225.484 E51.22761
G1 X53.942 Y224.427 E51.28178
G1 X53.83 Y224.25 E51.29049
G1 X53.375 Y223.458 E51.32847
G1 X53.242 Y223.202 E51.34046
G1 X52.786 Y222.204 E51.38608
G1 X52.668 Y221.906 E51.3994
G1 X52.391 Y221.117 E51.43417
G1 X52.362 Y221.023 E51.43826
G1 X52.092 Y219.958 E51.48394
G1 X51.993 Y219.462 E51.50496
G1 X51.851 Y218.546 E51.5435
G1 X51.797 Y217.872 E51.57161
G1 X51.768 Y217.266 E51.59684
G1 X51.757 Y216.895 E51.61227
G1 X51.75 Y216.302 E51.63692
G1 X51.751 Y83.512 E57.15769
G1 X51.757 Y83.085 E57.17545
G1 X51.769 Y82.712 E57.19096
G1 X51.798 Y82.118 E57.21569
G1 X51.883 Y81.195 E57.25422
G1 X51.992 Y80.542 E57.28175
G1 X52.089 Y80.055 E57.30239
G1 X52.408 Y78.833 E57.3549
G1 X52.472 Y78.636 E57.36351
G1 X52.851 Y77.64 E57.40782
G1 X52.976 Y77.355 E57.42075
G1 X53.397 Y76.5 E57.46038
G1 X53.526 Y76.265 E57.47152
G1 X54.046 Y75.415 E57.51295
G1 X54.207 Y75.177 E57.5249
G1 X54.744 Y74.451 E57.56244
G1 X54.865 Y74.301 E57.57045
G1 X55.646 Y73.433 E57.619
G1 X55.886 Y73.194 E57.63308
G1 X56.67 Y72.486 E57.677
G1 X56.998 Y72.218 E57.69461
G0 F6000 X57.315 Y72.606
G1 F1200 X58.23 Y71.939 E57.74168
G1 X58.437 Y71.805 E57.75193
G1 X59.292 Y71.308 E57.79305
G1 X59.541 Y71.179 E57.80471
G1 X60.449 Y70.763 E57.84623
G1 X60.734 Y70.649 E57.85899
G1 X61.654 Y70.331 E57.89946
G1 X61.763 Y70.299 E57.90419
G1 X62.628 Y70.085 E57.94123
G1 X63.12 Y69.986 E57.9621
G1 X64.015 Y69.847 E57.99975
G1 X64.642 Y69.797 E58.0259
G1 X65.236 Y69.768 E58.05063
G1 X65.603 Y69.757 E58.06589
G1 X66.198 Y69.75 E58.09063
G1 X233.807 Y69.75 E65.05901
G1 X234.402 Y69.757 E65.08375
G1 X234.761 Y69.768 E65.09868
G1 X235.344 Y69.796 E65.12294
G1 X236.245 Y69.879 E65.16056
G1 X236.885 Y69.988 E65.18755
G1 X237.399 Y70.092 E65.20936
G1 X238.277 Y70.31 E65.24697
G1 X238.886 Y70.511 E65.27363
G1 X239.206 Y70.628 E65.2878
G1 X240.215 Y71.06 E65.33343
G1 X240.485 Y71.193 E65.34594
G1 X241.392 Y71.698 E65.3891
G1 X241.643 Y71.855 E65.40141
G1 X242.421 Y72.394 E65.44076
G1 X242.644 Y72.564 E65.45242
G1 X243.339 Y73.144 E65.49005
G1 X243.678 Y73.467 E65.50952
G1 X243.964 Y73.753 E65.52633
G1 X244.652 Y74.514 E65.56899
G1 X244.867 Y74.777 E65.58311
G1 X245.471 Y75.595 E65.62538
G1 X245.625 Y75.827 E65.63696
G1 X246.173 Y76.756 E65.6818
G1 X246.306 Y77.011 E65.69376
G1 X246.759 Y78.005 E65.73918
G1 X246.876 Y78.303 E65.75249
G1 X247.205 Y79.284 E65.7955
G1 X247.284 Y79.566 E65.80768
G1 X247.491 Y80.454 E65.84559
G1 X247.54 Y80.717 E65.85671
G1 X247.666 Y81.613 E65.89433
G1 X247.701 Y82.103 E65.91475
G1 X247.731 Y82.729 E65.94081
G1 X247.742 Y83.075 E65.9552
G1 X247.75 Y83.716 E65.98185
G1 X247.749 Y216.443 E71.5
G1 X247.743 Y216.895 E71.51879
G1 X247.733 Y217.243 E71.53327
G1 X247.705 Y217.835 E71.55791
G1 X247.603 Y218.871 E71.60119
G1 X247.564 Y219.131 E71.61212
G1 X247.345 Y220.2 E71.65748
G1 X247.268 Y220.495 E71.67016
G1 X246.938 Y221.531 E71.71536
G1 X246.831 Y221.814 E71.72794
G1 X246.467 Y222.658 E71.76616
G1 X246.342 Y222.916 E71.77808
G1 X245.822 Y223.861 E71.82292
G1 X245.664 Y224.115 E71.83536
G1 X245.071 Y224.967 E71.87851
G1 X244.891 Y225.2 E71.89075
G1 X244.056 Y226.154 E71.94346
G1 X243.798 Y226.414 E71.95869
G1 X242.999 Y227.138 E72.00352
G1 X242.75 Y227.341 E72.01688
G1 X241.931 Y227.944 E72.05916
G1 X241.579 Y228.177 E72.07671
G1 X240.566 Y228.767 E72.12545
G1 X240.387 Y228.858 E72.1338
G1 X239.525 Y229.247 E72.17311
G1 X239.248 Y229.357 E72.18551
G1 X238.232 Y229.7 E72.23009
G1 X237.936 Y229.783 E72.24287
G1 X237.026 Y229.994 E72.28171
G1 X236.76 Y230.043 E72.29295
G1 X235.863 Y230.168 E72.3306
G1 X235.392 Y230.201 E72.35023
G1 X234.764 Y230.231 E72.37637
G1 X234.421 Y230.242 E72.39064
G1 X233.784 Y230.25 E72.41713
G1 X66.065 Y230.249 E79.39007
G1 X65.603 Y230.243 E79.40928
G1 X65.236 Y230.232 E79.42455
G1 X64.642 Y230.203 E79.44927
G1 X63.741 Y230.119 E79.48689
G1 X63.14 Y230.018 E79.51223
G1 X62.653 Y229.921 E79.53287
G1 X61.472 Y229.611 E79.58364
G1 X61.273 Y229.546 E79.59234
G1 X60.394 Y229.214 E79.63141
G1 X60.116 Y229.094 E79.644
G1 X59.188 Y228.636 E79.68702
G1 X58.935 Y228.495 E79.69906
G1 X58.268 Y228.089 E79.73153
G1 X58.129 Y227.997 E79.73846
G1 X57.277 Y227.368 E79.78248
G1 X56.979 Y227.123 E79.79852
G1 X56.24 Y226.453 E79.84
G1 X56.065 Y226.278 E79.85028
G1 X55.378 Y225.518 E79.89288
G1 X55.091 Y225.167 E79.91173
G1 X54.364 Y224.16 E79.96336
G1 X54.252 Y223.983 E79.97207
G1 X53.818 Y223.228 E80.00828
G1 X53.685 Y222.972 E80.02027
G1 X53.251 Y222.02 E80.06377
G1 X53.133 Y221.722 E80.0771
G1 X52.869 Y220.97 E80.11023
G1 X52.84 Y220.876 E80.11432
G1 X52.582 Y219.86 E80.1579
G1 X52.483 Y219.364 E80.17893
G1 X52.345 Y218.47 E80.21654
G1 X52.297 Y217.848 E80.24248
G1 X52.268 Y217.242 E80.2677
G1 X52.257 Y216.889 E80.28238
G1 X52.25 Y216.302 E80.30679
G1 X52.251 Y83.519 E85.82726
G1 X52.257 Y83.092 E85.84502
G1 X52.268 Y82.736 E85.85983
G1 X52.297 Y82.142 E85.88455
G1 X52.381 Y81.241 E85.92217
G1 X52.482 Y80.64 E85.94751
G1 X52.579 Y80.153 E85.96815
G1 X52.884 Y78.988 E86.01822
G1 X52.948 Y78.791 E86.02683
G1 X53.309 Y77.841 E86.06909
G1 X53.434 Y77.556 E86.08202
G1 X53.836 Y76.741 E86.11981
G1 X53.965 Y76.506 E86.13095
G1 X54.46 Y75.695 E86.17045
G1 X54.621 Y75.457 E86.1824
G1 X55.133 Y74.764 E86.21822
G1 X55.254 Y74.614 E86.22623
G1 X55.999 Y73.787 E86.27251
G1 X56.239 Y73.548 E86.28659
G1 X56.987 Y72.874 E86.32845
G1 X57.315 Y72.606 E86.34606
G1 F2700 E81.34606
G0 F6000 X68.813 Y86.104
G0 X68.145 Y85.271
;TYPE:SUPPORT-INTERFACE
G1 F2700 E86.34606
G1 F1200 X68.308 Y85.145 E86.35463
G1 X68.378 Y85.097 E86.35816
G1 X68.574 Y84.975 E86.36776
G1 X68.621 Y84.949 E86.36999
G1 X68.809 Y84.858 E86.37867
G1 X68.984 Y84.786 E86.38654
G1 X69.167 Y84.723 E86.39459
G1 X69.37 Y84.67 E86.40331
G1 X69.442 Y84.654 E86.40637
G1 X69.442 Y84.655 E86.40642
G1 X69.64 Y84.624 E86.41475
G1 X69.825 Y84.607 E86.42247
G1 X70.036 Y84.601 E86.43125
G1 X70.225 Y84.609 E86.43911
G1 X70.291 Y84.615 E86.44187
G1 X70.49 Y84.644 E86.45023
G1 X70.694 Y84.687 E86.4589
G1 X70.879 Y84.739 E86.46689
G1 X71.086 Y84.812 E86.47601
G1 X71.222 Y84.872 E86.48219
G1 X71.41 Y84.966 E86.49093
G1 X71.573 Y85.066 E86.49888
G1 X71.725 Y85.172 E86.50659
G1 X71.883 Y85.296 E86.51494
G1 X72.026 Y85.428 E86.52303
G1 X72.026 Y85.427 E86.52307
G1 X72.097 Y85.498 E86.52724
G1 X72.219 Y85.634 E86.53484
G1 X72.263 Y85.687 E86.5377
G1 X72.406 Y85.883 E86.54779
G1 X72.43 Y85.918 E86.54955
G1 X72.549 Y86.122 E86.55937
G1 X72.592 Y86.201 E86.56311
G1 X72.666 Y86.362 E86.57048
G1 X72.702 Y86.45 E86.57443
G1 X72.772 Y86.653 E86.58336
G1 X72.797 Y86.737 E86.587
G1 X72.84 Y86.918 E86.59474
G1 X72.87 Y87.097 E86.60228
G1 X72.893 Y87.32 E86.6116
G1 X72.898 Y87.479 E86.61822
G1 X72.89 Y87.708 E86.62774
G1 X72.874 Y87.883 E86.63505
G1 X72.84 Y88.077 E86.64324
G1 X72.822 Y88.163 E86.64689
G1 X72.774 Y88.342 E86.6546
G1 X72.705 Y88.541 E86.66335
G1 X72.632 Y88.717 E86.67127
G1 X72.559 Y88.859 E86.67791
G1 X72.44 Y89.063 E86.68773
G1 X72.338 Y89.214 E86.69531
G1 X72.213 Y89.373 E86.70372
G1 X72.169 Y89.425 E86.70655
G1 X72.031 Y89.568 E86.71481
G1 X71.87 Y89.713 E86.72382
G1 X71.73 Y89.827 E86.73132
G1 X71.573 Y89.935 E86.73925
G1 X71.512 Y89.974 E86.74226
G1 X71.329 Y90.074 E86.75093
G1 X71.135 Y90.166 E86.75985
G1 X70.965 Y90.233 E86.76745
G1 X70.791 Y90.288 E86.77504
G1 X70.599 Y90.336 E86.78327
G1 X70.413 Y90.369 E86.79112
G1 X70.212 Y90.39 E86.79952
G1 X70.109 Y90.396 E86.80381
G1 X69.913 Y90.398 E86.81196
G1 X69.837 Y90.395 E86.81512
G1 X69.646 Y90.377 E86.8231
G1 X69.521 Y90.359 E86.82835
G1 X69.37 Y90.33 E86.83474
G1 X69.172 Y90.277 E86.84326
G1 X68.978 Y90.212 E86.85177
G1 X68.8 Y90.138 E86.85978
