;FLAVOR:Marlin
;TIME:3163
;Filament used: 1.33029m
;Layer height: 0.12
;MINX:116.61
;MINY:190.398
;MINZ:0.12
;MAXX:177.61
;MAXY:233.898
;MAXZ:9.96
;Generated with Cura_SteamEngine 4.10.0
M140 S50
M105
M190 S50
M104 S200
M105
M109 S200
M82 ;absolute extrusion mode
M201 X500.00 Y500.00 Z100.00 E5000.00 ;Setup machine max acceleration
M203 X500.00 Y500.00 Z10.00 E50.00 ;Setup machine max feedrate
M204 P500.00 R1000.00 T500.00 ;Setup Print/Retract/Travel acceleration
M205 X8.00 Y8.00 Z0.40 E5.00 ;Setup Jerk
M220 S100 ;Reset Feedrate
M221 S100 ;Reset Flowrate

G28 ;Home
G29 ;Auto bed Level

G92 E0 ;Reset Extruder
G1 Z2.0 F3000 ;Move Z Axis up
G1 X10.1 Y20 Z0.28 F5000.0 ;Move to start position
G1 X10.1 Y200.0 Z0.28 F1500.0 E15 ;Draw the first line
G1 X10.4 Y200.0 Z0.28 F5000.0 ;Move to side a little
G1 X10.4 Y20 Z0.28 F1500.0 E30 ;Draw the second line
G92 E0 ;Reset Extruder
G1 Z2.0 F3000 ;Move Z Axis up

G92 E0
G92 E0
G1 F2700 E-5
;LAYER_COUNT:83
;LAYER:0
M107
G0 F6000 X122.022 Y191.937 Z0.12
;TYPE:SKIRT
G1 F2700 E0
G1 F1200 X122.849 Y191.495 E0.01871
G1 X123.711 Y191.125 E0.03743
G1 X124.601 Y190.829 E0.05615
G1 X125.513 Y190.611 E0.07486
G1 X126.44 Y190.47 E0.09357
G1 X127.311 Y190.411 E0.111
G1 X127.632 Y190.402 E0.1174
G1 X127.94 Y190.398 E0.12355
G1 X165.903 Y190.398 E0.88114
G1 X166.759 Y190.409 E0.89823
G1 X167.695 Y190.463 E0.91694
G1 X168.623 Y190.595 E0.93564
G1 X169.537 Y190.807 E0.95437
G1 X170.429 Y191.096 E0.97308
G1 X171.294 Y191.459 E0.9918
G1 X172.124 Y191.895 E1.01051
G1 X172.915 Y192.4 E1.02924
G1 X173.659 Y192.971 E1.04795
G1 X174.352 Y193.603 E1.06667
G1 X174.989 Y194.291 E1.08538
G1 X175.564 Y195.032 E1.1041
G1 X176.075 Y195.818 E1.12281
G1 X176.517 Y196.646 E1.14154
G1 X176.886 Y197.508 E1.16025
G1 X177.181 Y198.398 E1.17896
G1 X177.399 Y199.31 E1.19767
G1 X177.539 Y200.238 E1.2164
G1 X177.597 Y201.099 E1.23362
G1 X177.606 Y201.419 E1.24001
G1 X177.61 Y201.728 E1.24618
G1 X177.609 Y222.298 E1.65668
G1 X177.6 Y223.025 E1.67119
G1 X177.549 Y223.962 E1.68991
G1 X177.417 Y224.89 E1.70862
G1 X177.208 Y225.804 E1.72733
G1 X176.921 Y226.697 E1.74605
G1 X176.559 Y227.563 E1.76478
G1 X176.125 Y228.394 E1.78349
G1 X175.621 Y229.185 E1.8022
G1 X175.052 Y229.93 E1.82091
G1 X174.421 Y230.625 E1.83965
G1 X173.734 Y231.263 E1.85836
G1 X172.995 Y231.84 E1.87707
G1 X172.209 Y232.352 E1.89579
G1 X171.383 Y232.795 E1.91449
G1 X170.521 Y233.167 E1.93323
G1 X169.632 Y233.463 E1.95192
G1 X168.72 Y233.683 E1.97065
G1 X167.793 Y233.824 E1.98936
G1 X166.909 Y233.885 E2.00704
G1 X166.588 Y233.894 E2.01345
G1 X166.28 Y233.898 E2.0196
G1 X128.175 Y233.897 E2.78002
G1 X127.477 Y233.888 E2.79395
G1 X126.541 Y233.836 E2.81266
G1 X125.612 Y233.704 E2.83139
G1 X124.698 Y233.494 E2.8501
G1 X123.805 Y233.207 E2.86882
G1 X122.94 Y232.844 E2.88754
G1 X122.109 Y232.41 E2.90625
G1 X121.318 Y231.906 E2.92497
G1 X120.573 Y231.336 E2.94369
G1 X119.879 Y230.705 E2.96241
G1 X119.242 Y230.018 E2.9811
G1 X118.665 Y229.278 E2.99983
G1 X118.153 Y228.492 E3.01855
G1 X117.71 Y227.665 E3.03727
G1 X117.339 Y226.804 E3.05598
G1 X117.043 Y225.914 E3.0747
G1 X116.824 Y225.002 E3.09341
G1 X116.683 Y224.075 E3.11213
G1 X116.623 Y223.186 E3.12991
G1 X116.614 Y222.853 E3.13656
G1 X116.61 Y222.556 E3.14248
G1 X116.611 Y201.923 E3.55424
G1 X116.62 Y201.258 E3.56751
G1 X116.673 Y200.322 E3.58622
G1 X116.805 Y199.393 E3.60494
G1 X117.016 Y198.479 E3.62366
G1 X117.304 Y197.587 E3.64237
G1 X117.667 Y196.722 E3.66109
G1 X118.102 Y195.891 E3.67981
G1 X118.606 Y195.101 E3.69851
G1 X119.176 Y194.356 E3.71723
G1 X119.808 Y193.662 E3.73596
G1 X120.496 Y193.025 E3.75467
G1 X121.236 Y192.449 E3.77338
G1 X122.022 Y191.937 E3.7921
G0 F6000 X122.401 Y192.18
G1 F1200 X123.221 Y191.762 E3.81047
G1 X124.075 Y191.417 E3.82885
G1 X124.955 Y191.147 E3.84722
G1 X125.855 Y190.955 E3.86558
G1 X126.769 Y190.841 E3.88397
G1 X127.322 Y190.811 E3.89502
G1 X127.643 Y190.802 E3.90143
G1 X127.94 Y190.798 E3.90735
G1 X165.903 Y190.798 E4.66495
G1 X166.753 Y190.809 E4.68191
G1 X167.672 Y190.862 E4.70028
G1 X168.583 Y190.995 E4.71865
G1 X169.479 Y191.206 E4.73702
G1 X170.353 Y191.494 E4.75539
G1 X171.2 Y191.857 E4.77378
G1 X172.011 Y192.292 E4.79214
G1 X172.781 Y192.796 E4.81051
G1 X173.505 Y193.365 E4.82888
G1 X174.177 Y193.995 E4.84727
G1 X174.792 Y194.68 E4.86564
G1 X175.345 Y195.416 E4.88401
G1 X175.832 Y196.197 E4.90238
G1 X176.249 Y197.018 E4.92075
G1 X176.594 Y197.872 E4.93913
G1 X176.863 Y198.752 E4.9575
G1 X177.055 Y199.653 E4.97588
G1 X177.168 Y200.566 E4.99424
G1 X177.197 Y201.11 E5.00511
G1 X177.206 Y201.43 E5.0115
G1 X177.21 Y201.728 E5.01745
G1 X177.209 Y222.293 E5.42784
G1 X177.2 Y223.02 E5.44235
G1 X177.149 Y223.939 E5.46072
G1 X177.018 Y224.851 E5.47911
G1 X176.808 Y225.747 E5.49747
G1 X176.522 Y226.622 E5.51584
G1 X176.161 Y227.469 E5.53422
G1 X175.727 Y228.281 E5.55259
G1 X175.225 Y229.053 E5.57097
G1 X174.657 Y229.778 E5.58935
G1 X174.029 Y230.451 E5.60772
G1 X173.345 Y231.067 E5.62609
G1 X172.61 Y231.621 E5.64445
G1 X171.83 Y232.11 E5.66283
G1 X171.01 Y232.529 E5.6812
G1 X170.157 Y232.875 E5.69957
G1 X169.277 Y233.146 E5.71795
G1 X168.377 Y233.339 E5.73632
G1 X167.463 Y233.454 E5.7547
G1 X166.898 Y233.485 E5.76599
G1 X166.577 Y233.494 E5.7724
G1 X166.28 Y233.498 E5.77833
G1 X128.18 Y233.497 E6.53865
G1 X127.482 Y233.488 E6.55259
G1 X126.563 Y233.436 E6.57095
G1 X125.652 Y233.305 E6.58932
G1 X124.756 Y233.095 E6.60769
G1 X123.881 Y232.808 E6.62606
G1 X123.034 Y232.446 E6.64445
G1 X122.222 Y232.012 E6.66282
G1 X121.451 Y231.51 E6.68118
G1 X120.726 Y230.942 E6.69956
G1 X120.053 Y230.313 E6.71794
G1 X119.438 Y229.629 E6.7363
G1 X118.884 Y228.894 E6.75467
G1 X118.396 Y228.113 E6.77304
G1 X117.977 Y227.293 E6.79142
G1 X117.631 Y226.44 E6.80979
G1 X117.361 Y225.56 E6.82816
G1 X117.168 Y224.659 E6.84655
G1 X117.054 Y223.746 E6.86491
G1 X117.023 Y223.175 E6.87632
G1 X117.014 Y222.842 E6.88297
G1 X117.01 Y222.556 E6.88868
G1 X117.011 Y201.929 E7.30031
G1 X117.02 Y201.264 E7.31358
G1 X117.072 Y200.344 E7.33197
G1 X117.204 Y199.433 E7.35034
G1 X117.415 Y198.537 E7.36871
G1 X117.702 Y197.662 E7.38709
G1 X118.065 Y196.816 E7.40546
G1 X118.499 Y196.004 E7.42383
G1 X119.002 Y195.233 E7.4422
G1 X119.571 Y194.509 E7.46058
G1 X120.199 Y193.837 E7.47893
G1 X120.884 Y193.221 E7.49732
G1 X121.62 Y192.668 E7.51569
G1 X122.401 Y192.18 E7.53407
G0 F6000 X122.779 Y192.429
G1 F1200 X123.592 Y192.036 E7.55209
G1 X124.437 Y191.716 E7.57012
G1 X125.306 Y191.473 E7.58813
G1 X126.194 Y191.307 E7.60616
G1 X127.333 Y191.211 E7.62897
G1 X127.654 Y191.202 E7.63537
G1 X127.94 Y191.198 E7.64108
G1 X165.903 Y191.198 E8.39868
G1 X166.747 Y191.209 E8.41552
G1 X167.649 Y191.262 E8.43355
G1 X168.542 Y191.394 E8.45157
G1 X169.42 Y191.605 E8.46959
G1 X170.276 Y191.893 E8.48761
G1 X171.103 Y192.255 E8.50562
G1 X171.895 Y192.69 E8.52366
G1 X172.646 Y193.192 E8.54168
G1 X173.349 Y193.759 E8.55971
G1 X173.999 Y194.386 E8.57773
G1 X174.591 Y195.068 E8.59575
G1 X175.121 Y195.799 E8.61377
G1 X175.583 Y196.575 E8.63179
G1 X175.976 Y197.388 E8.64981
G1 X176.294 Y198.233 E8.66783
G1 X176.537 Y199.103 E8.68586
G1 X176.702 Y199.991 E8.70388
G1 X176.797 Y201.121 E8.72651
G1 X176.806 Y201.441 E8.7329
G1 X176.81 Y201.728 E8.73863
G1 X176.809 Y222.288 E9.14893
G1 X176.8 Y223.015 E9.16344
G1 X176.749 Y223.917 E9.18146
G1 X176.618 Y224.811 E9.1995
G1 X176.409 Y225.689 E9.21751
G1 X176.123 Y226.546 E9.23554
G1 X175.762 Y227.374 E9.25356
G1 X175.33 Y228.166 E9.27157
G1 X174.829 Y228.918 E9.2896
G1 X174.263 Y229.622 E9.30762
G1 X173.638 Y230.273 E9.32563
G1 X172.957 Y230.867 E9.34367
G1 X172.226 Y231.398 E9.3617
G1 X171.452 Y231.862 E9.37971
G1 X170.639 Y232.256 E9.39774
G1 X169.795 Y232.576 E9.41575
G1 X168.925 Y232.821 E9.43379
G1 X168.038 Y232.987 E9.45179
G1 X166.887 Y233.085 E9.47485
G1 X166.566 Y233.094 E9.48126
G1 X166.28 Y233.098 E9.48696
G1 X128.185 Y233.097 E10.24719
G1 X127.487 Y233.088 E10.26112
G1 X126.586 Y233.037 E10.27913
G1 X125.692 Y232.905 E10.29716
G1 X124.814 Y232.696 E10.31518
G1 X123.957 Y232.409 E10.33321
G1 X123.13 Y232.048 E10.35122
G1 X122.337 Y231.615 E10.36925
G1 X121.586 Y231.114 E10.38726
G1 X120.882 Y230.548 E10.40529
G1 X120.231 Y229.922 E10.42331
G1 X119.638 Y229.241 E10.44134
G1 X119.108 Y228.51 E10.45935
G1 X118.644 Y227.735 E10.47738
G1 X118.25 Y226.922 E10.49541
G1 X117.93 Y226.078 E10.51342
G1 X117.686 Y225.208 E10.53145
G1 X117.52 Y224.32 E10.54948
G1 X117.423 Y223.165 E10.57261
G1 X117.414 Y222.832 E10.57926
G1 X117.41 Y222.556 E10.58477
G1 X117.411 Y201.934 E10.9963
G1 X117.42 Y201.269 E11.00957
G1 X117.472 Y200.367 E11.0276
G1 X117.604 Y199.474 E11.04562
G1 X117.814 Y198.596 E11.06363
G1 X118.101 Y197.739 E11.08167
G1 X118.463 Y196.912 E11.09969
G1 X118.896 Y196.12 E11.1177
G1 X119.398 Y195.369 E11.13573
G1 X119.965 Y194.665 E11.15377
G1 X120.591 Y194.015 E11.17177
G1 X121.272 Y193.422 E11.18979
G1 X122.004 Y192.892 E11.20783
G1 X122.779 Y192.429 E11.22585
G1 F2700 E6.22585
;MESH:SMC Gateway Expansion soldering term align.stl
G0 F6000 X128.024 Y200.733
G0 X128.024 Y201.812
G0 X128.792 Y221.716
G0 X163.11 Y221.634
;TYPE:WALL-INNER
G1 F2700 E11.22585
G1 F1200 X163.11 Y211.162 E11.43483
G1 X131.11 Y211.162 E12.07342
G1 X131.11 Y221.634 E12.2824
G1 X163.11 Y221.634 E12.92099
G0 F6000 X162.71 Y221.234
G1 F1200 X162.71 Y211.562 E13.11401
G1 X131.51 Y211.562 E13.73664
G1 X131.51 Y221.234 E13.92965
G1 X162.71 Y221.234 E14.55228
G0 F6000 X162.31 Y220.834
;TYPE:WALL-OUTER
G1 F1200 X162.31 Y211.962 E14.72933
G1 X131.91 Y211.962 E15.336
G1 X131.91 Y220.834 E15.51305
G1 X162.31 Y220.834 E16.11971
G0 F6000 X162.61 Y220.834
G0 X163.292 Y221.716
G0 X165.61 Y221.898
;TYPE:WALL-INNER
G1 F1200 X163.11 Y221.898 E16.16961
G1 X131.11 Y221.898 E16.59213
G1 X128.61 Y221.898 E16.64202
G1 X128.61 Y202.398 E17.03117
G1 X165.61 Y202.398 E17.76954
G1 X165.61 Y221.898 E18.15869
G0 F6000 X166.01 Y222.298
G1 F1200 X128.21 Y222.298 E18.91303
G1 X128.21 Y201.998 E19.31813
G1 X166.01 Y201.998 E20.07247
G1 X166.01 Y222.298 E20.47758
G0 F6000 X166.41 Y222.698
;TYPE:WALL-OUTER
G1 F1200 X127.81 Y222.698 E21.24789
G1 X127.81 Y201.598 E21.66896
G1 X166.41 Y201.598 E22.43927
G1 X166.41 Y222.698 E22.86034
G0 F6000 X166.14 Y222.428
G0 X165.5 Y221.508
G0 X165.22 Y221.508
;TYPE:SKIN
G1 F1200 X163.5 Y221.508 E22.89466
G1 X163.5 Y210.772 E23.10891
G1 X130.72 Y210.772 E23.76307
G1 X130.72 Y221.508 E23.97732
G1 X129 Y221.508 E24.01165
G1 X129 Y202.788 E24.38522
G1 X165.22 Y202.788 E25.10803
G1 X165.22 Y221.508 E25.48161
G0 F6000 X165.5 Y221.508
G0 X165.5 Y203.526
G0 X165.059 Y203.526
G1 F1200 X164.48 Y202.946 E25.49796
G0 F6000 X163.914 Y202.946
G1 F1200 X165.059 Y204.092 E25.53029
G0 F6000 X165.059 Y204.657
G1 F1200 X163.348 Y202.946 E25.57858
G0 F6000 X162.783 Y202.946
G1 F1200 X165.059 Y205.223 E25.64283
G0 F6000 X165.059 Y205.789
G1 F1200 X162.217 Y202.946 E25.72305
G0 F6000 X161.651 Y202.946
G1 F1200 X165.059 Y206.354 E25.81923
G0 F6000 X165.059 Y206.92
G1 F1200 X161.085 Y202.946 E25.93139
G0 F6000 X160.52 Y202.946
G1 F1200 X165.059 Y207.486 E26.0595
G0 F6000 X165.059 Y208.052
G1 F1200 X159.954 Y202.946 E26.20359
G0 F6000 X159.388 Y202.946
G1 F1200 X165.059 Y208.617 E26.36364
G0 F6000 X165.059 Y209.183
G1 F1200 X158.823 Y202.946 E26.53964
G0 F6000 X158.257 Y202.946
G1 F1200 X165.059 Y209.749 E26.73163
G0 F6000 X165.059 Y210.314
G1 F1200 X157.691 Y202.946 E26.93957
G0 F6000 X157.126 Y202.946
G1 F1200 X165.059 Y210.88 E27.16347
G0 F6000 X165.059 Y211.446
G1 F1200 X156.56 Y202.946 E27.40334
G0 F6000 X155.994 Y202.946
G1 F1200 X163.659 Y210.611 E27.61966
G1 X165.059 Y212.011 E27.65918
G0 F6000 X165.059 Y212.577
G1 F1200 X163.659 Y211.177 E27.69869
G0 F6000 X163.659 Y211.743
G1 F1200 X165.059 Y213.143 E27.7382
G0 F6000 X165.059 Y213.708
G1 F1200 X163.659 Y212.308 E27.77771
G0 F6000 X163.659 Y212.874
G1 F1200 X165.059 Y214.274 E27.81722
G0 F6000 X165.059 Y214.84
G1 F1200 X163.659 Y213.44 E27.85673
G0 F6000 X163.659 Y214.005
G1 F1200 X165.059 Y215.405 E27.89624
G0 F6000 X165.059 Y215.971
G1 F1200 X163.659 Y214.571 E27.93575
G0 F6000 X163.659 Y215.137
G1 F1200 X165.059 Y216.537 E27.97526
G0 F6000 X165.059 Y217.102
G1 F1200 X163.659 Y215.702 E28.01477
G0 F6000 X163.659 Y216.268
G1 F1200 X165.059 Y217.668 E28.05429
G0 F6000 X165.059 Y218.234
G1 F1200 X163.659 Y216.834 E28.0938
G0 F6000 X163.659 Y217.399
G1 F1200 X165.059 Y218.8 E28.13332
G0 F6000 X165.059 Y219.365
G1 F1200 X163.659 Y217.965 E28.17283
G0 F6000 X163.659 Y218.531
G1 F1200 X165.059 Y219.931 E28.21234
G0 F6000 X165.059 Y220.497
G1 F1200 X163.659 Y219.097 E28.25186
G0 F6000 X163.659 Y219.662
G1 F1200 X165.059 Y221.062 E28.29137
G0 F6000 X164.778 Y221.347
G1 F1200 X163.659 Y220.228 E28.32295
G0 F6000 X163.659 Y220.794
G1 F1200 X164.212 Y221.347 E28.33855
G0 F6000 X164.212 Y221.788
G0 X163.292 Y221.716
G0 X163.094 Y211.052
G0 X163.094 Y210.611
G1 F1200 X155.429 Y202.946 E28.55488
G0 F6000 X154.863 Y202.946
G1 F1200 X162.528 Y210.611 E28.7712
G0 F6000 X161.962 Y210.611
G1 F1200 X154.297 Y202.946 E28.98752
G0 F6000 X153.732 Y202.946
G1 F1200 X161.397 Y210.611 E29.20384
G0 F6000 X160.831 Y210.611
G1 F1200 X153.166 Y202.946 E29.42017
G0 F6000 X152.6 Y202.946
G1 F1200 X160.265 Y210.611 E29.63649
G0 F6000 X159.7 Y210.611
G1 F1200 X152.035 Y202.946 E29.85281
G0 F6000 X151.469 Y202.946
G1 F1200 X159.134 Y210.611 E30.06914
G0 F6000 X158.568 Y210.611
G1 F1200 X150.903 Y202.946 E30.28546
G0 F6000 X150.337 Y202.946
G1 F1200 X158.003 Y210.611 E30.5018
G0 F6000 X157.437 Y210.611
G1 F1200 X149.772 Y202.946 E30.71812
G0 F6000 X149.206 Y202.946
G1 F1200 X156.871 Y210.611 E30.93444
G0 F6000 X156.305 Y210.611
G1 F1200 X148.64 Y202.946 E31.15076
G0 F6000 X148.075 Y202.946
G1 F1200 X155.74 Y210.611 E31.36709
G0 F6000 X155.174 Y210.611
G1 F1200 X147.509 Y202.946 E31.58341
G0 F6000 X146.943 Y202.946
G1 F1200 X154.608 Y210.611 E31.79973
G0 F6000 X154.043 Y210.611
G1 F1200 X146.378 Y202.946 E32.01606
G0 F6000 X145.812 Y202.946
G1 F1200 X153.477 Y210.611 E32.23238
G0 F6000 X152.911 Y210.611
G1 F1200 X145.246 Y202.946 E32.4487
G0 F6000 X144.681 Y202.946
G1 F1200 X152.346 Y210.611 E32.66502
G0 F6000 X151.78 Y210.611
G1 F1200 X144.115 Y202.946 E32.88135
G0 F6000 X143.549 Y202.946
G1 F1200 X151.214 Y210.611 E33.09767
G0 F6000 X150.649 Y210.611
G1 F1200 X142.984 Y202.946 E33.31399
G0 F6000 X142.418 Y202.946
G1 F1200 X150.083 Y210.611 E33.53032
G0 F6000 X149.517 Y210.611
G1 F1200 X141.852 Y202.946 E33.74664
G0 F6000 X141.287 Y202.946
G1 F1200 X148.952 Y210.611 E33.96296
G0 F6000 X148.386 Y210.611
G1 F1200 X140.721 Y202.946 E34.17928
G0 F6000 X140.155 Y202.946
G1 F1200 X147.82 Y210.611 E34.39561
G0 F6000 X147.254 Y210.611
G1 F1200 X139.589 Y202.946 E34.61193
G0 F6000 X139.024 Y202.946
G1 F1200 X146.689 Y210.611 E34.82825
G0 F6000 X146.123 Y210.611
G1 F1200 X138.458 Y202.946 E35.04458
G0 F6000 X137.892 Y202.946
G1 F1200 X145.557 Y210.611 E35.2609
G0 F6000 X144.992 Y210.611
G1 F1200 X137.327 Y202.946 E35.47722
G0 F6000 X136.761 Y202.946
G1 F1200 X144.426 Y210.611 E35.69354
G0 F6000 X143.86 Y210.611
G1 F1200 X136.195 Y202.946 E35.90987
G0 F6000 X135.63 Y202.946
G1 F1200 X143.295 Y210.611 E36.12619
G0 F6000 X142.729 Y210.611
G1 F1200 X135.064 Y202.946 E36.34251
G0 F6000 X134.498 Y202.946
G1 F1200 X142.163 Y210.611 E36.55884
G0 F6000 X141.598 Y210.611
G1 F1200 X133.933 Y202.946 E36.77516
G0 F6000 X133.367 Y202.946
G1 F1200 X141.032 Y210.611 E36.99148
G0 F6000 X140.466 Y210.611
G1 F1200 X132.801 Y202.946 E37.2078
G0 F6000 X132.236 Y202.946
G1 F1200 X139.901 Y210.611 E37.42413
G0 F6000 X139.335 Y210.611
G1 F1200 X131.67 Y202.946 E37.64045
G0 F6000 X131.104 Y202.946
G1 F1200 X138.769 Y210.611 E37.85677
G0 F6000 X138.204 Y210.611
G1 F1200 X130.538 Y202.946 E38.07311
G0 F6000 X129.973 Y202.946
G1 F1200 X137.638 Y210.611 E38.28943
G0 F6000 X137.072 Y210.611
G1 F1200 X129.407 Y202.946 E38.50576
G0 F6000 X129.16 Y203.264
G1 F1200 X136.506 Y210.611 E38.71309
G0 F6000 X135.941 Y210.611
G1 F1200 X129.16 Y203.83 E38.90446
G0 F6000 X129.16 Y204.396
G1 F1200 X135.375 Y210.611 E39.07987
G0 F6000 X134.809 Y210.611
G1 F1200 X129.16 Y204.961 E39.23931
G0 F6000 X129.16 Y205.527
G1 F1200 X134.244 Y210.611 E39.38279
