;FLAVOR:Marlin
;TIME:20344
;Filament used: 15.9793m
;Layer height: 0.2
;MINX:16.873
;MINY:156.902
;MINZ:0.2
;MAXX:139.373
;MAXY:264.402
;MAXZ:21
;Generated with Cura_SteamEngine 4.10.0
M140 S60
M105
M190 S60
M104 S200
M105
M109 S200
M82 ;absolute extrusion mode
M201 X500.00 Y500.00 Z100.00 E5000.00 ;Setup machine max acceleration
M203 X500.00 Y500.00 Z10.00 E50.00 ;Setup machine max feedrate
M204 P500.00 R1000.00 T500.00 ;Setup Print/Retract/Travel acceleration
M205 X8.00 Y8.00 Z0.40 E5.00 ;Setup Jerk
M220 S100 ;Reset Feedrate
M221 S100 ;Reset Flowrate

G28 ;Home
G29 ;Auto bed Level

G92 E0 ;Reset Extruder
G1 Z2.0 F3000 ;Move Z Axis up
G1 X10.1 Y20 Z0.28 F5000.0 ;Move to start position
G1 X10.1 Y200.0 Z0.28 F1500.0 E15 ;Draw the first line
G1 X10.4 Y200.0 Z0.28 F5000.0 ;Move to side a little
G1 X10.4 Y20 Z0.28 F1500.0 E30 ;Draw the second line
G92 E0 ;Reset Extruder
G1 Z2.0 F3000 ;Move Z Axis up

G92 E0
G92 E0
G1 F2700 E-5
;LAYER_COUNT:105
;LAYER:0
M107
G0 F6000 X25.81 Y157.153 Z0.2
;TYPE:SKIRT
G1 F2700 E0
G1 F1200 X26.745 Y156.997 E0.03941
G1 X27.817 Y156.915 E0.08411
G1 X28.138 Y156.906 E0.09746
G1 X28.453 Y156.902 E0.11056
G1 X127.416 Y156.902 E4.22496
G1 X128.275 Y156.913 E4.26068
G1 X129.222 Y156.967 E4.30011
G1 X130.161 Y157.1 E4.33954
G1 X131.086 Y157.312 E4.37899
G1 X131.989 Y157.6 E4.4184
G1 X132.865 Y157.964 E4.45784
G1 X133.707 Y158.401 E4.49728
G1 X134.509 Y158.907 E4.5367
G1 X135.266 Y159.478 E4.57613
G1 X135.972 Y160.112 E4.61558
G1 X136.623 Y160.802 E4.65502
G1 X137.212 Y161.545 E4.69444
G1 X137.737 Y162.335 E4.73387
G1 X138.194 Y163.166 E4.7733
G1 X138.579 Y164.033 E4.81274
G1 X138.89 Y164.929 E4.85217
G1 X139.124 Y165.848 E4.8916
G1 X139.279 Y166.784 E4.93104
G1 X139.36 Y167.846 E4.97532
G1 X139.369 Y168.166 E4.98863
G1 X139.373 Y168.482 E5.00177
G1 X139.372 Y252.555 E8.49712
G1 X139.363 Y253.282 E8.52735
G1 X139.311 Y254.229 E8.56678
G1 X139.18 Y255.169 E8.60624
G1 X138.97 Y256.094 E8.64567
G1 X138.683 Y256.998 E8.68511
G1 X138.321 Y257.874 E8.72451
G1 X137.886 Y258.717 E8.76395
G1 X137.382 Y259.52 E8.80337
G1 X136.812 Y260.278 E8.8428
G1 X136.18 Y260.986 E8.88225
G1 X135.49 Y261.637 E8.92169
G1 X134.749 Y262.228 E8.9611
G1 X133.96 Y262.755 E9.00055
G1 X133.129 Y263.213 E9.03999
G1 X132.263 Y263.6 E9.07943
G1 X131.368 Y263.912 E9.11884
G1 X130.449 Y264.148 E9.15828
G1 X129.514 Y264.306 E9.19771
G1 X128.429 Y264.389 E9.24295
G1 X128.108 Y264.398 E9.2563
G1 X127.793 Y264.402 E9.2694
G1 X28.685 Y264.401 E13.38983
G1 X27.987 Y264.392 E13.41885
G1 X27.04 Y264.34 E13.45828
G1 X26.101 Y264.208 E13.4977
G1 X25.176 Y263.998 E13.53714
G1 X24.272 Y263.71 E13.57659
G1 X23.396 Y263.347 E13.61601
G1 X22.553 Y262.912 E13.65545
G1 X21.75 Y262.407 E13.69488
G1 X20.992 Y261.837 E13.73431
G1 X20.285 Y261.205 E13.77374
G1 X19.634 Y260.515 E13.81318
G1 X19.043 Y259.773 E13.85262
G1 X18.517 Y258.984 E13.89204
G1 X18.059 Y258.153 E13.93149
G1 X17.673 Y257.287 E13.97091
G1 X17.361 Y256.391 E14.01036
G1 X17.126 Y255.472 E14.04979
G1 X16.969 Y254.537 E14.08921
G1 X16.886 Y253.447 E14.13466
G1 X16.877 Y253.114 E14.14851
G1 X16.873 Y252.81 E14.16115
G1 X16.874 Y168.674 E17.65912
G1 X16.883 Y168.009 E17.68677
G1 X16.936 Y167.062 E17.7262
G1 X17.068 Y166.123 E17.76562
G1 X17.279 Y165.198 E17.80507
G1 X17.567 Y164.294 E17.84451
G1 X17.931 Y163.418 E17.88395
G1 X18.366 Y162.576 E17.92335
G1 X18.872 Y161.773 E17.96281
G1 X19.443 Y161.016 E18.00223
G1 X20.075 Y160.309 E18.04166
G1 X20.765 Y159.658 E18.0811
G1 X21.508 Y159.068 E18.12054
G1 X22.297 Y158.542 E18.15997
G1 X23.128 Y158.085 E18.1994
G1 X23.995 Y157.699 E18.23885
G1 X24.891 Y157.388 E18.27829
G1 X25.81 Y157.153 E18.31772
G0 F6000 X26.24 Y157.579
G1 F1200 X27.159 Y157.455 E18.35628
G1 X27.831 Y157.415 E18.38426
G1 X28.152 Y157.406 E18.39761
G1 X28.453 Y157.402 E18.41013
G1 X127.416 Y157.402 E22.52453
G1 X128.268 Y157.413 E22.55996
G1 X129.194 Y157.466 E22.59852
G1 X130.111 Y157.599 E22.63704
G1 X131.014 Y157.811 E22.67561
G1 X131.895 Y158.099 E22.71414
G1 X132.748 Y158.462 E22.75268
G1 X133.567 Y158.898 E22.79126
G1 X134.345 Y159.402 E22.8298
G1 X135.076 Y159.971 E22.86831
G1 X135.756 Y160.602 E22.90688
G1 X136.379 Y161.288 E22.9454
G1 X136.941 Y162.026 E22.98397
G1 X137.437 Y162.809 E23.02251
G1 X137.863 Y163.633 E23.06107
G1 X138.217 Y164.489 E23.09958
G1 X138.496 Y165.374 E23.13816
G1 X138.698 Y166.279 E23.17671
G1 X138.821 Y167.198 E23.21526
G1 X138.86 Y167.86 E23.24283
G1 X138.869 Y168.18 E23.25614
G1 X138.873 Y168.482 E23.2687
G1 X138.872 Y252.549 E26.7638
G1 X138.863 Y253.276 E26.79403
G1 X138.812 Y254.202 E26.83258
G1 X138.681 Y255.12 E26.87114
G1 X138.471 Y256.023 E26.90968
G1 X138.184 Y256.904 E26.9482
G1 X137.823 Y257.758 E26.98675
G1 X137.389 Y258.578 E27.02532
G1 X136.886 Y259.357 E27.06387
G1 X136.318 Y260.089 E27.10239
G1 X135.689 Y260.77 E27.14093
G1 X135.004 Y261.395 E27.17949
G1 X134.267 Y261.958 E27.21805
G1 X133.485 Y262.455 E27.25657
G1 X132.662 Y262.883 E27.29513
G1 X131.806 Y263.239 E27.33368
G1 X130.923 Y263.52 E27.3722
G1 X130.018 Y263.723 E27.41076
G1 X129.099 Y263.848 E27.44932
G1 X128.415 Y263.889 E27.47781
G1 X128.094 Y263.898 E27.49116
G1 X127.793 Y263.902 E27.50368
G1 X28.691 Y263.901 E31.62386
G1 X27.993 Y263.892 E31.65288
G1 X27.068 Y263.84 E31.6914
G1 X26.15 Y263.709 E31.72995
G1 X25.247 Y263.499 E31.7685
G1 X24.365 Y263.212 E31.80706
G1 X23.512 Y262.849 E31.8456
G1 X22.693 Y262.415 E31.88413
G1 X21.914 Y261.912 E31.92269
G1 X21.181 Y261.344 E31.96124
G1 X20.501 Y260.714 E31.99978
G1 X19.877 Y260.029 E32.0383
G1 X19.314 Y259.292 E32.07686
G1 X18.817 Y258.509 E32.11542
G1 X18.389 Y257.686 E32.15399
G1 X18.034 Y256.83 E32.19251
G1 X17.754 Y255.946 E32.23106
G1 X17.551 Y255.042 E32.26958
G1 X17.427 Y254.123 E32.30814
G1 X17.386 Y253.433 E32.33688
G1 X17.377 Y253.1 E32.35073
G1 X17.373 Y252.81 E32.36278
G1 X17.374 Y168.681 E35.86046
G1 X17.383 Y168.016 E35.88811
G1 X17.435 Y167.09 E35.92667
G1 X17.568 Y166.172 E35.96523
G1 X17.778 Y165.269 E36.00378
G1 X18.066 Y164.388 E36.04231
G1 X18.428 Y163.535 E36.08084
G1 X18.863 Y162.716 E36.11939
G1 X19.367 Y161.937 E36.15797
G1 X19.936 Y161.205 E36.19651
G1 X20.566 Y160.525 E36.23505
G1 X21.252 Y159.901 E36.27361
G1 X21.989 Y159.339 E36.31214
G1 X22.772 Y158.843 E36.35068
G1 X23.595 Y158.415 E36.38924
G1 X24.451 Y158.061 E36.42775
G1 X25.335 Y157.781 E36.46631
G1 X26.24 Y157.579 E36.50486
G0 F6000 X25.776 Y158.186
G1 F1200 X26.665 Y158.017 E36.54248
G1 X27.845 Y157.915 E36.59172
G1 X28.166 Y157.906 E36.60507
G1 X28.453 Y157.902 E36.61701
G1 X127.416 Y157.902 E40.73141
G1 X128.261 Y157.913 E40.76654
G1 X129.165 Y157.966 E40.80419
G1 X130.06 Y158.098 E40.8418
G1 X130.941 Y158.309 E40.87947
G1 X131.799 Y158.597 E40.9171
G1 X132.629 Y158.96 E40.95476
G1 X133.423 Y159.394 E40.99238
G1 X134.176 Y159.897 E41.03003
G1 X134.882 Y160.464 E41.06767
G1 X135.534 Y161.091 E41.10528
G1 X136.129 Y161.773 E41.14291
G1 X136.662 Y162.505 E41.18056
G1 X137.128 Y163.282 E41.21822
G1 X137.523 Y164.096 E41.25584
G1 X137.845 Y164.942 E41.29347
G1 X138.091 Y165.813 E41.3311
G1 X138.26 Y166.703 E41.36877
G1 X138.36 Y167.874 E41.41763
G1 X138.369 Y168.194 E41.43094
G1 X138.373 Y168.482 E41.44291
G1 X138.372 Y252.543 E44.93776
G1 X138.363 Y253.27 E44.96799
G1 X138.312 Y254.174 E45.00563
G1 X138.181 Y255.07 E45.04328
G1 X137.972 Y255.95 E45.08088
G1 X137.686 Y256.809 E45.11852
G1 X137.325 Y257.64 E45.15619
G1 X136.892 Y258.435 E45.19383
G1 X136.391 Y259.189 E45.23147
G1 X135.825 Y259.896 E45.26912
G1 X135.2 Y260.55 E45.30673
G1 X134.518 Y261.146 E45.34438
G1 X133.787 Y261.68 E45.38202
G1 X133.012 Y262.147 E45.41964
G1 X132.198 Y262.544 E45.45729
G1 X131.353 Y262.868 E45.49492
G1 X130.482 Y263.116 E45.53257
G1 X129.593 Y263.286 E45.5702
G1 X128.401 Y263.389 E45.61994
G1 X128.08 Y263.398 E45.63329
G1 X127.793 Y263.402 E45.64522
G1 X28.698 Y263.401 E49.76512
G1 X28 Y263.392 E49.79414
G1 X27.096 Y263.341 E49.83178
G1 X26.2 Y263.209 E49.86944
G1 X25.32 Y263 E49.90704
G1 X24.461 Y262.713 E49.94469
G1 X23.631 Y262.352 E49.98232
G1 X22.836 Y261.919 E50.01996
G1 X22.082 Y261.417 E50.05762
G1 X21.376 Y260.851 E50.09524
G1 X20.722 Y260.225 E50.13288
G1 X20.126 Y259.543 E50.17053
G1 X19.592 Y258.812 E50.20817
G1 X19.125 Y258.036 E50.24582
G1 X18.729 Y257.222 E50.28346
G1 X18.405 Y256.377 E50.32108
G1 X18.158 Y255.506 E50.35872
G1 X17.988 Y254.617 E50.39635
G1 X17.886 Y253.42 E50.4463
G1 X17.877 Y253.087 E50.46015
G1 X17.873 Y252.81 E50.47167
G1 X17.874 Y168.687 E53.96909
G1 X17.883 Y168.022 E53.99674
G1 X17.935 Y167.118 E54.03439
G1 X18.067 Y166.223 E54.072
G1 X18.277 Y165.342 E54.10966
G1 X18.564 Y164.484 E54.14727
G1 X18.926 Y163.654 E54.18492
G1 X19.36 Y162.859 E54.22257
G1 X19.862 Y162.106 E54.2602
G1 X20.428 Y161.4 E54.29782
G1 X21.055 Y160.746 E54.33549
G1 X21.737 Y160.151 E54.37312
G1 X22.469 Y159.618 E54.41076
G1 X23.245 Y159.151 E54.44842
G1 X24.059 Y158.755 E54.48605
G1 X24.904 Y158.432 E54.52366
G1 X25.776 Y158.186 E54.56133
G1 F2700 E49.56133
;MESH:SMC Gateway Expansion soldering stand-Pad002 (Mirror #1).stl
G0 F6000 X29.583 Y167.487
G0 X29.583 Y169.612
G0 X29.555 Y251.72
G0 X126.873 Y251.902
;TYPE:WALL-INNER
G1 F2700 E54.56133
G1 F1200 X29.373 Y251.902 E58.61491
G1 X29.373 Y169.402 E62.04486
G1 X126.873 Y169.402 E66.09844
G1 X126.873 Y251.902 E69.52839
G0 F6000 X127.373 Y252.402
G1 F1200 X28.873 Y252.402 E73.62354
G1 X28.873 Y168.902 E77.09507
G1 X127.373 Y168.902 E81.19022
G1 X127.373 Y252.402 E84.66175
G0 F6000 X127.873 Y252.902
;TYPE:WALL-OUTER
G1 F1200 X28.373 Y252.902 E88.79848
G1 X28.373 Y168.402 E92.31158
G1 X127.873 Y168.402 E96.44831
G1 X127.873 Y252.902 E99.96141
G0 F6000 X127.603 Y252.632
G0 X126.763 Y251.412
G0 X126.383 Y251.412
;TYPE:SKIN
G1 F1200 X29.863 Y251.412 E103.97425
G1 X29.863 Y169.892 E107.36346
G1 X126.383 Y169.892 E111.37629
G1 X126.383 Y251.412 E114.7655
G1 F2700 E109.7655
G0 F6000 X126.763 Y251.412
G0 X126.763 Y170.721
G0 X126.173 Y170.721
G1 F2700 E114.7655
G1 F1200 X125.553 Y170.101 E114.80195
G0 F6000 X124.846 Y170.101
G1 F1200 X126.173 Y171.428 E114.87998
G0 F6000 X126.173 Y172.135
G1 F1200 X124.139 Y170.101 E114.99957
G0 F6000 X123.432 Y170.101
G1 F1200 X126.173 Y172.842 E115.16073
G0 F6000 X126.173 Y173.549
G1 F1200 X122.725 Y170.101 E115.36346
G0 F6000 X122.018 Y170.101
G1 F1200 X126.173 Y174.256 E115.60775
G0 F6000 X126.173 Y174.963
G1 F1200 X121.311 Y170.101 E115.89362
G0 F6000 X120.604 Y170.101
G1 F1200 X126.173 Y175.67 E116.22106
G0 F6000 X126.173 Y176.377
G1 F1200 X119.897 Y170.101 E116.59006
G0 F6000 X119.189 Y170.101
G1 F1200 X126.173 Y177.084 E117.00066
G0 F6000 X126.173 Y177.792
G1 F1200 X118.482 Y170.101 E117.45287
G0 F6000 X117.775 Y170.101
G1 F1200 X126.173 Y178.499 E117.94664
G0 F6000 X126.173 Y179.206
G1 F1200 X117.068 Y170.101 E118.48198
G0 F6000 X116.361 Y170.101
G1 F1200 X126.173 Y179.913 E119.05888
G0 F6000 X126.173 Y180.62
G1 F1200 X115.654 Y170.101 E119.67736
G0 F6000 X114.947 Y170.101
G1 F1200 X126.173 Y181.327 E120.33741
G0 F6000 X126.173 Y182.034
G1 F1200 X114.24 Y170.101 E121.03902
G0 F6000 X113.533 Y170.101
G1 F1200 X126.173 Y182.741 E121.7822
G0 F6000 X126.173 Y183.448
G1 F1200 X112.825 Y170.101 E122.56699
G0 F6000 X112.118 Y170.101
G1 F1200 X126.173 Y184.156 E123.39337
G0 F6000 X126.173 Y184.863
G1 F1200 X111.411 Y170.101 E124.26132
G0 F6000 X110.704 Y170.101
G1 F1200 X126.173 Y185.57 E125.17083
G0 F6000 X126.173 Y186.277
G1 F1200 X109.997 Y170.101 E126.12192
G0 F6000 X109.29 Y170.101
G1 F1200 X126.173 Y186.984 E127.11458
G0 F6000 X126.173 Y187.691
G1 F1200 X108.583 Y170.101 E128.1488
G0 F6000 X107.876 Y170.101
G1 F1200 X126.173 Y188.398 E129.22459
G0 F6000 X126.173 Y189.105
G1 F1200 X107.169 Y170.101 E130.34196
G0 F6000 X106.461 Y170.101
G1 F1200 X126.173 Y189.812 E131.50092
G0 F6000 X126.173 Y190.52
G1 F1200 X105.754 Y170.101 E132.70148
G0 F6000 X105.047 Y170.101
G1 F1200 X126.173 Y191.227 E133.9436
G0 F6000 X126.173 Y191.934
G1 F1200 X104.34 Y170.101 E135.2273
G0 F6000 X103.633 Y170.101
G1 F1200 X126.173 Y192.641 E136.55257
G0 F6000 X126.173 Y193.348
G1 F1200 X102.926 Y170.101 E137.9194
G0 F6000 X102.219 Y170.101
G1 F1200 X126.173 Y194.055 E139.3278
G0 F6000 X126.173 Y194.762
G1 F1200 X101.512 Y170.101 E140.77778
G0 F6000 X100.805 Y170.101
G1 F1200 X126.173 Y195.469 E142.26932
G0 F6000 X126.173 Y196.176
G1 F1200 X100.098 Y170.101 E143.80243
G0 F6000 X99.39 Y170.101
G1 F1200 X126.173 Y196.883 E145.37714
G0 F6000 X126.173 Y197.591
G1 F1200 X98.683 Y170.101 E146.99344
G0 F6000 X97.976 Y170.101
G1 F1200 X126.173 Y198.298 E148.65132
G0 F6000 X126.173 Y199.005
G1 F1200 X97.269 Y170.101 E150.35076
G0 F6000 X96.562 Y170.101
G1 F1200 X126.173 Y199.712 E152.09178
G0 F6000 X126.173 Y200.419
G1 F1200 X95.855 Y170.101 E153.87436
G0 F6000 X95.148 Y170.101
G1 F1200 X126.173 Y201.126 E155.69851
G0 F6000 X126.173 Y201.833
G1 F1200 X94.441 Y170.101 E157.56423
G0 F6000 X93.734 Y170.101
G1 F1200 X126.173 Y202.54 E159.47152
G0 F6000 X126.173 Y203.247
G1 F1200 X93.026 Y170.101 E161.4204
G0 F6000 X92.319 Y170.101
G1 F1200 X126.173 Y203.955 E163.41089
G0 F6000 X126.173 Y204.662
G1 F1200 X91.612 Y170.101 E165.44294
G0 F6000 X90.905 Y170.101
G1 F1200 X126.173 Y205.369 E167.51657
G0 F6000 X126.173 Y206.076
G1 F1200 X90.198 Y170.101 E169.63176
G0 F6000 X89.491 Y170.101
G1 F1200 X126.173 Y206.783 E171.78852
G0 F6000 X126.173 Y207.49
G1 F1200 X88.784 Y170.101 E173.98685
G0 F6000 X88.077 Y170.101
G1 F1200 X126.173 Y208.197 E176.22675
G0 F6000 X126.173 Y208.904
G1 F1200 X87.37 Y170.101 E178.50822
G0 F6000 X86.663 Y170.101
G1 F1200 X126.173 Y209.611 E180.83125
G0 F6000 X126.173 Y210.319
G1 F1200 X85.955 Y170.101 E183.19592
G0 F6000 X85.248 Y170.101
G1 F1200 X126.173 Y211.026 E185.60215
G0 F6000 X126.173 Y211.733
G1 F1200 X84.541 Y170.101 E188.04995
G0 F6000 X83.834 Y170.101
G1 F1200 X126.173 Y212.44 E190.53932
G0 F6000 X126.173 Y213.147
G1 F1200 X83.127 Y170.101 E193.07026
G0 F6000 X82.42 Y170.101
G1 F1200 X126.173 Y213.854 E195.64277
G0 F6000 X126.173 Y214.561
G1 F1200 X81.713 Y170.101 E198.25685
G0 F6000 X81.006 Y170.101
G1 F1200 X126.173 Y215.268 E200.9125
G0 F6000 X126.173 Y215.975
G1 F1200 X80.299 Y170.101 E203.60971
G0 F6000 X79.591 Y170.101
G1 F1200 X126.173 Y216.682 E206.34853
G0 F6000 X126.173 Y217.39
G1 F1200 X78.884 Y170.101 E209.12894
G0 F6000 X78.177 Y170.101
G1 F1200 X126.173 Y218.097 E211.95092
G0 F6000 X126.173 Y218.804
G1 F1200 X77.47 Y170.101 E214.81447
G0 F6000 X76.763 Y170.101
G1 F1200 X126.173 Y219.511 E217.71959
G0 F6000 X126.173 Y220.218
G1 F1200 X76.056 Y170.101 E220.66628
G0 F6000 X75.349 Y170.101
G1 F1200 X126.173 Y220.925 E223.65453
G0 F6000 X126.173 Y221.632
G1 F1200 X74.642 Y170.101 E226.68436
G0 F6000 X73.935 Y170.101
G1 F1200 X126.173 Y222.339 E229.75575
G0 F6000 X126.173 Y223.046
G1 F1200 X73.227 Y170.101 E232.86874
G0 F6000 X72.52 Y170.101
G1 F1200 X126.173 Y223.754 E236.02333
G0 F6000 X126.173 Y224.461
G1 F1200 X71.813 Y170.101 E239.21949
G0 F6000 X71.106 Y170.101
G1 F1200 X126.173 Y225.168 E242.45722
G0 F6000 X126.173 Y225.875
G1 F1200 X70.399 Y170.101 E245.73652
G0 F6000 X69.692 Y170.101
G1 F1200 X126.173 Y226.582 E249.05739
G0 F6000 X126.173 Y227.289
G1 F1200 X68.985 Y170.101 E252.41982
G0 F6000 X68.278 Y170.101
G1 F1200 X126.173 Y227.996 E255.82383
G0 F6000 X126.173 Y228.703
G1 F1200 X67.571 Y170.101 E259.2694
G0 F6000 X66.864 Y170.101
G1 F1200 X126.173 Y229.41 E262.75654
G0 F6000 X126.173 Y230.118
G1 F1200 X66.156 Y170.101 E266.28531
G0 F6000 X65.449 Y170.101
G1 F1200 X126.173 Y230.825 E269.85565
G0 F6000 X126.173 Y231.532
G1 F1200 X64.742 Y170.101 E273.46756
G0 F6000 X64.035 Y170.101
G1 F1200 X126.173 Y232.239 E277.12103
G0 F6000 X126.173 Y232.946
G1 F1200 X63.328 Y170.101 E280.81608
G0 F6000 X62.621 Y170.101
G1 F1200 X126.173 Y233.653 E284.55269
G0 F6000 X126.173 Y234.36
G1 F1200 X61.914 Y170.101 E288.33087
G0 F6000 X61.207 Y170.101
G1 F1200 X126.173 Y235.067 E292.15063
G0 F6000 X126.173 Y235.774
G1 F1200 X60.5 Y170.101 E296.01195
G0 F6000 X59.792 Y170.101
G1 F1200 X126.173 Y236.481 E299.91487
G0 F6000 X126.173 Y237.189
G1 F1200 X59.085 Y170.101 E303.85938
G0 F6000 X58.378 Y170.101
G1 F1200 X126.173 Y237.896 E307.84547
