;FLAVOR:Marlin
;TIME:23310
;Filament used: 20.0864m
;Layer height: 0.2
;MINX:7.242
;MINY:7.242
;MINZ:0.2
;MAXX:292.758
;MAXY:292.758
;MAXZ:4
;Generated with Cura_SteamEngine 4.10.0
M140 S60
M105
M190 S60
M104 S200
M105
M109 S200
M82 ;absolute extrusion mode
M201 X500.00 Y500.00 Z100.00 E5000.00 ;Setup machine max acceleration
M203 X500.00 Y500.00 Z10.00 E50.00 ;Setup machine max feedrate
M204 P500.00 R1000.00 T500.00 ;Setup Print/Retract/Travel acceleration
M205 X8.00 Y8.00 Z0.40 E5.00 ;Setup Jerk
M220 S100 ;Reset Feedrate
M221 S100 ;Reset Flowrate

G28 ;Home
G29 ;Auto bed Level

G92 E0 ;Reset Extruder
G1 Z2.0 F3000 ;Move Z Axis up
G1 X10.1 Y20 Z0.28 F5000.0 ;Move to start position
G1 X10.1 Y200.0 Z0.28 F1500.0 E15 ;Draw the first line
G1 X10.4 Y200.0 Z0.28 F5000.0 ;Move to side a little
G1 X10.4 Y20 Z0.28 F1500.0 E30 ;Draw the second line
G92 E0 ;Reset Extruder
G1 Z2.0 F3000 ;Move Z Axis up

G92 E0
G92 E0
G1 F2700 E-5
;LAYER_COUNT:20
;LAYER:0
M107
G0 F6000 X63.892 Y10.896 Z0.2
;TYPE:SKIRT
G1 F2700 E0
G1 F1200 X64.373 Y10.428 E0.0279
G1 X65.08 Y9.796 E0.06733
G1 X65.838 Y9.225 E0.10678
G1 X66.641 Y8.721 E0.1462
G1 X67.484 Y8.286 E0.18564
G1 X68.36 Y7.923 E0.22506
G1 X69.264 Y7.636 E0.26449
G1 X70.189 Y7.426 E0.30393
G1 X71.128 Y7.294 E0.34335
G1 X72.075 Y7.242 E0.38278
G1 X73.023 Y7.27 E0.42221
G1 X73.966 Y7.378 E0.46167
G1 X74.895 Y7.564 E0.50106
G1 X75.806 Y7.829 E0.54051
G1 X76.692 Y8.169 E0.57996
G1 X77.545 Y8.582 E0.61937
G1 X78.361 Y9.066 E0.65881
G1 X79.133 Y9.617 E0.69824
G1 X79.937 Y10.307 E0.74229
G1 X80.166 Y10.523 E0.75538
G1 X80.402 Y10.752 E0.76905
G1 X289.104 Y219.456 E13.03999
G1 X289.572 Y219.937 E13.06789
G1 X290.204 Y220.644 E13.10731
G1 X290.775 Y221.402 E13.14677
G1 X291.279 Y222.205 E13.18618
G1 X291.714 Y223.048 E13.22562
G1 X292.077 Y223.924 E13.26505
G1 X292.364 Y224.828 E13.30448
G1 X292.574 Y225.753 E13.34391
G1 X292.706 Y226.692 E13.38334
G1 X292.758 Y227.639 E13.42277
G1 X292.73 Y228.587 E13.4622
G1 X292.622 Y229.53 E13.50166
G1 X292.436 Y230.459 E13.54105
G1 X292.171 Y231.37 E13.5805
G1 X291.831 Y232.256 E13.61995
G1 X291.418 Y233.109 E13.65935
G1 X290.934 Y233.925 E13.6988
G1 X290.383 Y234.697 E13.73823
G1 X289.699 Y235.495 E13.78192
G1 X289.489 Y235.718 E13.79466
G1 X289.254 Y235.96 E13.80868
G1 X236.118 Y289.094 E16.93282
G1 X235.629 Y289.57 E16.96119
G1 X234.922 Y290.203 E17.00064
G1 X234.164 Y290.773 E17.04007
G1 X233.361 Y291.278 E17.07951
G1 X232.519 Y291.713 E17.11891
G1 X231.642 Y292.076 E17.15838
G1 X230.739 Y292.364 E17.19778
G1 X229.814 Y292.574 E17.23722
G1 X228.874 Y292.706 E17.27668
G1 X227.927 Y292.758 E17.31611
G1 X226.979 Y292.73 E17.35554
G1 X226.037 Y292.623 E17.39496
G1 X225.107 Y292.436 E17.4344
G1 X224.196 Y292.172 E17.47383
G1 X223.311 Y291.832 E17.51325
G1 X222.457 Y291.419 E17.55268
G1 X221.641 Y290.935 E17.59213
G1 X220.869 Y290.384 E17.63156
G1 X220.037 Y289.669 E17.67717
G1 X219.801 Y289.445 E17.6907
G1 X219.591 Y289.24 E17.7029
G1 X10.904 Y80.552 E29.97292
G1 X10.436 Y80.072 E30.0008
G1 X9.803 Y79.365 E30.04025
G1 X9.232 Y78.608 E30.07967
G1 X8.727 Y77.805 E30.11911
G1 X8.291 Y76.963 E30.15853
G1 X7.927 Y76.087 E30.19797
G1 X7.639 Y75.183 E30.23741
G1 X7.428 Y74.259 E30.27682
G1 X7.295 Y73.32 E30.31625
G1 X7.242 Y72.373 E30.35568
G1 X7.269 Y71.424 E30.39515
G1 X7.376 Y70.482 E30.43457
G1 X7.561 Y69.552 E30.47399
G1 X7.825 Y68.641 E30.51342
G1 X8.164 Y67.755 E30.55286
G1 X8.577 Y66.901 E30.5923
G1 X9.06 Y66.085 E30.63172
G1 X9.61 Y65.312 E30.67117
G1 X10.301 Y64.505 E30.71534
G1 X10.511 Y64.282 E30.72807
G1 X10.746 Y64.04 E30.7421
G1 X63.892 Y10.896 E33.86682
G0 F6000 X64.24 Y11.254
G1 F1200 X64.721 Y10.786 E33.89472
G1 X65.413 Y10.169 E33.93327
G1 X66.156 Y9.614 E33.97182
G1 X66.943 Y9.124 E34.01037
G1 X67.77 Y8.704 E34.04893
G1 X68.63 Y8.358 E34.08747
G1 X69.516 Y8.086 E34.126
G1 X70.423 Y7.892 E34.16456
G1 X71.343 Y7.777 E34.20311
G1 X72.269 Y7.741 E34.24164
G1 X73.195 Y7.786 E34.28018
G1 X74.114 Y7.91 E34.31873
G1 X75.019 Y8.112 E34.35729
G1 X75.903 Y8.392 E34.39584
G1 X76.759 Y8.747 E34.43437
G1 X77.582 Y9.175 E34.47293
G1 X78.365 Y9.672 E34.51149
G1 X79.102 Y10.234 E34.55002
G1 X79.594 Y10.671 E34.57738
G1 X79.823 Y10.887 E34.59047
G1 X80.048 Y11.106 E34.60352
G1 X288.746 Y219.804 E46.87417
G1 X289.214 Y220.285 E46.90207
G1 X289.831 Y220.977 E46.94061
G1 X290.386 Y221.72 E46.97917
G1 X290.876 Y222.507 E47.01771
G1 X291.296 Y223.334 E47.05627
G1 X291.642 Y224.194 E47.09481
G1 X291.914 Y225.08 E47.13335
G1 X292.108 Y225.987 E47.17191
G1 X292.223 Y226.907 E47.21046
G1 X292.259 Y227.833 E47.24898
G1 X292.214 Y228.759 E47.28753
G1 X292.09 Y229.678 E47.32608
G1 X291.888 Y230.583 E47.36463
G1 X291.608 Y231.467 E47.40318
G1 X291.253 Y232.323 E47.44171
G1 X290.825 Y233.146 E47.48028
G1 X290.328 Y233.929 E47.51884
G1 X289.766 Y234.666 E47.55737
G1 X289.335 Y235.152 E47.58438
G1 X289.125 Y235.375 E47.59711
G1 X288.9 Y235.606 E47.61052
G1 X235.769 Y288.736 E50.73439
G1 X235.28 Y289.212 E50.76276
G1 X234.589 Y289.83 E50.8013
G1 X233.846 Y290.385 E50.83986
G1 X233.059 Y290.875 E50.8784
G1 X232.232 Y291.295 E50.91696
G1 X231.373 Y291.642 E50.95548
G1 X230.486 Y291.913 E50.99404
G1 X229.58 Y292.108 E51.03257
G1 X228.66 Y292.223 E51.07112
G1 X227.733 Y292.259 E51.10969
G1 X226.807 Y292.215 E51.14823
G1 X225.888 Y292.091 E51.18678
G1 X224.984 Y291.888 E51.2253
G1 X224.1 Y291.609 E51.26384
G1 X223.243 Y291.254 E51.30241
G1 X222.42 Y290.826 E51.34097
G1 X221.637 Y290.33 E51.37951
G1 X220.9 Y289.768 E51.41804
G1 X220.381 Y289.306 E51.44693
G1 X220.145 Y289.082 E51.46046
G1 X219.945 Y288.886 E51.4721
G1 X11.262 Y80.203 E63.74186
G1 X10.794 Y79.723 E63.76973
G1 X10.176 Y79.031 E63.80831
G1 X9.62 Y78.29 E63.84682
G1 X9.13 Y77.503 E63.88536
G1 X8.709 Y76.676 E63.92395
G1 X8.361 Y75.817 E63.96248
G1 X8.089 Y74.931 E64.00101
G1 X7.894 Y74.024 E64.03958
G1 X7.778 Y73.104 E64.07813
G1 X7.741 Y72.178 E64.11666
G1 X7.784 Y71.252 E64.1552
G1 X7.908 Y70.333 E64.19376
G1 X8.109 Y69.428 E64.2323
G1 X8.388 Y68.544 E64.27084
G1 X8.743 Y67.687 E64.3094
G1 X9.169 Y66.864 E64.34793
G1 X9.665 Y66.081 E64.38647
G1 X10.227 Y65.343 E64.42503
G1 X10.665 Y64.848 E64.45251
G1 X10.875 Y64.625 E64.46525
G1 X11.1 Y64.394 E64.47865
G1 X64.24 Y11.254 E67.60308
G0 F6000 X64.589 Y11.613
G1 F1200 X65.07 Y11.145 E67.63098
G1 X65.746 Y10.543 E67.66862
G1 X66.473 Y10.002 E67.70629
G1 X67.244 Y9.529 E67.7439
G1 X68.054 Y9.125 E67.78153
G1 X68.897 Y8.794 E67.81918
G1 X69.766 Y8.539 E67.85684
G1 X70.653 Y8.361 E67.89445
G1 X71.553 Y8.263 E67.93209
G1 X72.459 Y8.244 E67.96976
G1 X73.362 Y8.305 E68.00739
G1 X74.256 Y8.446 E68.04502
G1 X75.135 Y8.665 E68.08268
G1 X75.99 Y8.96 E68.12028
G1 X76.816 Y9.33 E68.15791
G1 X77.607 Y9.772 E68.19558
G1 X78.355 Y10.281 E68.2332
G1 X79.251 Y11.035 E68.28189
G1 X79.48 Y11.251 E68.29497
G1 X79.695 Y11.459 E68.30741
G1 X288.387 Y220.153 E80.57776
G1 X288.855 Y220.634 E80.60566
G1 X289.457 Y221.31 E80.64329
G1 X289.998 Y222.037 E80.68097
G1 X290.471 Y222.808 E80.71858
G1 X290.875 Y223.618 E80.75621
G1 X291.206 Y224.461 E80.79386
G1 X291.461 Y225.33 E80.83151
G1 X291.639 Y226.217 E80.86913
G1 X291.737 Y227.117 E80.90676
G1 X291.756 Y228.023 E80.94444
G1 X291.695 Y228.926 E80.98207
G1 X291.554 Y229.82 E81.0197
G1 X291.335 Y230.699 E81.05736
G1 X291.04 Y231.554 E81.09496
G1 X290.67 Y232.38 E81.13259
G1 X290.228 Y233.171 E81.17026
G1 X289.719 Y233.919 E81.20788
G1 X288.971 Y234.809 E81.25621
G1 X288.761 Y235.032 E81.26895
G1 X288.547 Y235.253 E81.28174
G1 X235.421 Y288.378 E84.40531
G1 X234.932 Y288.854 E84.43368
G1 X234.256 Y289.456 E84.47132
G1 X233.529 Y289.996 E84.50897
G1 X232.758 Y290.47 E84.5466
G1 X231.948 Y290.874 E84.58423
G1 X231.105 Y291.205 E84.62188
G1 X230.236 Y291.461 E84.65955
G1 X229.349 Y291.639 E84.69716
G1 X228.449 Y291.737 E84.7348
G1 X227.544 Y291.756 E84.77243
G1 X226.641 Y291.695 E84.81006
G1 X225.746 Y291.555 E84.84772
G1 X224.868 Y291.336 E84.88534
G1 X224.012 Y291.04 E84.923
G1 X223.186 Y290.671 E84.96061
G1 X222.395 Y290.229 E84.99828
G1 X221.647 Y289.72 E85.0359
G1 X220.726 Y288.943 E85.08599
G1 X220.49 Y288.719 E85.09952
G1 X220.298 Y288.533 E85.11064
G1 X11.62 Y79.854 E97.38013
G1 X11.152 Y79.374 E97.408
G1 X10.549 Y78.698 E97.44566
G1 X10.008 Y77.972 E97.48331
G1 X9.534 Y77.201 E97.52093
G1 X9.129 Y76.391 E97.55859
G1 X8.797 Y75.549 E97.59621
G1 X8.541 Y74.681 E97.63384
G1 X8.363 Y73.793 E97.67149
G1 X8.263 Y72.893 E97.70914
G1 X8.244 Y71.988 E97.74677
G1 X8.304 Y71.085 E97.7844
G1 X8.444 Y70.19 E97.82206
G1 X8.662 Y69.312 E97.85967
G1 X8.956 Y68.456 E97.8973
G1 X9.326 Y67.629 E97.93497
G1 X9.766 Y66.838 E97.9726
G1 X10.275 Y66.089 E98.01025
G1 X11.029 Y65.191 E98.059
G1 X11.239 Y64.968 E98.07173
G1 X11.453 Y64.747 E98.08452
G1 X64.589 Y11.613 E101.20866
G1 F2700 E96.20866
;MESH:Octopi Enclosure-LidChamfer.stl
G0 F6000 X27.832 Y72.004
G0 X29.894 Y71.549
G0 X29.012 Y74.203
;TYPE:WALL-INNER
G1 F2700 E101.20866
G1 F1200 X29.354 Y73.741 E101.23256
G1 X29.56 Y73.326 E101.25182
G1 X29.695 Y72.902 E101.27032
G1 X29.763 Y72.471 E101.28846
G1 X29.769 Y72.028 E101.30688
G1 X29.707 Y71.59 E101.32527
G1 X29.583 Y71.17 E101.34348
G1 X29.388 Y70.756 E101.3625
G1 X29.068 Y70.299 E101.3857
G1 X28.742 Y69.974 E101.40484
G1 X28.385 Y69.716 E101.42315
G1 X28.002 Y69.512 E101.44119
G1 X27.584 Y69.364 E101.45962
G1 X27.161 Y69.287 E101.4775
G1 X26.848 Y69.266 E101.49054
G1 X26.427 Y69.291 E101.50808
G1 X25.974 Y69.388 E101.52734
G1 X25.45 Y69.601 E101.55085
G1 X25.066 Y69.843 E101.56972
G1 X24.733 Y70.132 E101.58806
G1 X24.442 Y70.471 E101.60663
G1 X24.21 Y70.843 E101.62486
G1 X24.033 Y71.247 E101.64319
G1 X24.024 Y71.283 E101.64474
G1 X23.92 Y71.671 E101.66144
G1 X23.871 Y72.113 E101.67993
G1 X23.889 Y72.554 E101.69828
G1 X23.971 Y72.986 E101.71656
G1 X24.117 Y73.401 E101.73485
G1 X24.325 Y73.793 E101.7533
G1 X24.585 Y74.146 E101.77153
G1 X24.902 Y74.463 E101.79016
G1 X25.259 Y74.723 E101.80852
G1 X25.646 Y74.927 E101.82671
G1 X26.063 Y75.072 E101.84507
G1 X26.497 Y75.153 E101.86342
G1 X26.936 Y75.169 E101.88169
G1 X27.373 Y75.121 E101.89996
G1 X27.801 Y75.004 E101.91841
G1 X28.209 Y74.827 E101.9369
G1 X28.592 Y74.582 E101.9558
G1 X29.012 Y74.203 E101.97932
G0 F6000 X28.64 Y73.865
G1 F1200 X28.926 Y73.479 E101.9993
G1 X29.095 Y73.138 E102.01512
G1 X29.207 Y72.786 E102.03048
G1 X29.264 Y72.428 E102.04555
G1 X29.269 Y72.06 E102.06085
G1 X29.217 Y71.697 E102.0761
G1 X29.114 Y71.348 E102.09122
G1 X28.954 Y71.008 E102.10685
G1 X28.684 Y70.622 E102.12643
G1 X28.417 Y70.356 E102.1421
G1 X28.12 Y70.141 E102.15734
G1 X27.8 Y69.971 E102.17241
G1 X27.455 Y69.849 E102.18762
G1 X27.099 Y69.784 E102.20267
G1 X26.846 Y69.767 E102.21321
G1 X26.495 Y69.788 E102.22783
G1 X26.122 Y69.868 E102.24369
G1 X25.679 Y70.048 E102.26357
G1 X25.365 Y70.246 E102.279
G1 X25.088 Y70.486 E102.29424
G1 X24.846 Y70.768 E102.30969
G1 X24.653 Y71.077 E102.32484
G1 X24.506 Y71.412 E102.34005
G1 X24.413 Y71.763 E102.35514
G1 X24.372 Y72.131 E102.37054
G1 X24.387 Y72.497 E102.38577
G1 X24.455 Y72.856 E102.40096
G1 X24.576 Y73.2 E102.41612
G1 X24.749 Y73.526 E102.43146
G1 X24.965 Y73.819 E102.4466
G1 X25.228 Y74.082 E102.46206
G1 X25.524 Y74.297 E102.47727
G1 X25.846 Y74.467 E102.49241
G1 X26.192 Y74.587 E102.50763
G1 X26.553 Y74.655 E102.52291
G1 X26.917 Y74.668 E102.53805
G1 X27.279 Y74.628 E102.55319
G1 X27.635 Y74.531 E102.56853
G1 X27.973 Y74.384 E102.58385
G1 X28.288 Y74.183 E102.59939
G1 X28.64 Y73.865 E102.61911
G0 F6000 X28.268 Y73.527
;TYPE:WALL-OUTER
G1 F1200 X28.498 Y73.217 E102.63516
G1 X28.63 Y72.95 E102.64754
G1 X28.719 Y72.67 E102.65976
G1 X28.765 Y72.385 E102.67176
G1 X28.769 Y72.093 E102.6839
G1 X28.727 Y71.804 E102.69604
G1 X28.645 Y71.526 E102.70809
G1 X28.52 Y71.259 E102.72035
G1 X28.3 Y70.945 E102.73629
G1 X28.092 Y70.738 E102.74849
G1 X27.855 Y70.566 E102.76066
G1 X27.599 Y70.43 E102.77272
G1 X27.326 Y70.334 E102.78475
G1 X27.037 Y70.281 E102.79696
G1 X26.844 Y70.268 E102.80501
G1 X26.563 Y70.285 E102.81671
G1 X26.27 Y70.348 E102.82917
G1 X25.908 Y70.495 E102.84541
G1 X25.664 Y70.649 E102.85741
G1 X25.443 Y70.84 E102.86955
G1 X25.25 Y71.065 E102.88188
G1 X25.096 Y71.311 E102.89394
G1 X24.98 Y71.577 E102.90601
G1 X24.906 Y71.856 E102.91801
G1 X24.873 Y72.149 E102.93027
G1 X24.885 Y72.44 E102.94238
G1 X24.939 Y72.726 E102.95448
G1 X25.035 Y72.999 E102.96651
G1 X25.173 Y73.259 E102.97875
G1 X25.345 Y73.492 E102.99079
G1 X25.553 Y73.7 E103.00302
G1 X25.789 Y73.871 E103.01513
G1 X26.046 Y74.007 E103.02722
G1 X26.321 Y74.103 E103.03933
G1 X26.608 Y74.157 E103.05147
G1 X26.898 Y74.167 E103.06354
G1 X27.185 Y74.135 E103.07554
G1 X27.469 Y74.058 E103.08778
G1 X27.737 Y73.941 E103.09993
G1 X27.984 Y73.784 E103.1121
G1 X28.268 Y73.527 E103.12803
G0 F6000 X28.675 Y73.896
G1 F2700 E98.12803
G0 F6000 X29.894 Y71.549
G0 X27.832 Y72.004
G0 X72.004 Y27.832
G0 X71.561 Y29.895
G0 X73.331 Y29.557
;TYPE:WALL-INNER
G1 F2700 E103.12803
G1 F1200 X73.737 Y29.355 E103.14688
G1 X74.092 Y29.103 E103.16498
G1 X74.409 Y28.802 E103.18315
G1 X74.682 Y28.448 E103.20174
G1 X74.897 Y28.065 E103.22
G1 X75.052 Y27.652 E103.23834
G1 X75.059 Y27.615 E103.23991
G1 X75.144 Y27.219 E103.25674
G1 X75.167 Y26.818 E103.27344
G1 X75.17 Y26.781 E103.27499
G1 X75.132 Y26.338 E103.29347
G1 X75.027 Y25.913 E103.31167
G1 X74.862 Y25.503 E103.33005
G1 X74.633 Y25.122 E103.34853
G1 X74.355 Y24.784 E103.36672
G1 X74.03 Y24.49 E103.38494
G1 X73.658 Y24.244 E103.40349
G1 X73.249 Y24.053 E103.42225
G1 X72.75 Y23.921 E103.44371
G1 X72.707 Y23.909 E103.44557
G1 X72.664 Y23.906 E103.44736
G1 X72.289 Y23.874 E103.46301
G1 X72.251 Y23.87 E103.4646
G1 X71.811 Y23.896 E103.48292
G1 X71.382 Y23.989 E103.50117
G1 X70.968 Y24.146 E103.51958
G1 X70.573 Y24.37 E103.53846
G1 X70.145 Y24.718 E103.56139
G1 X69.838 Y25.074 E103.58094
G1 X69.604 Y25.45 E103.59935
G1 X69.43 Y25.853 E103.6176
G1 X69.329 Y26.234 E103.63399
G1 X69.319 Y26.269 E103.6355
G1 X69.267 Y26.712 E103.65404
G1 X69.284 Y27.159 E103.67264
G1 X69.368 Y27.592 E103.69098
G1 X69.511 Y28.004 E103.70911
G1 X69.722 Y28.4 E103.72776
G1 X69.982 Y28.75 E103.74589
G1 X70.302 Y29.072 E103.76477
G1 X70.766 Y29.396 E103.78829
G1 X71.182 Y29.587 E103.80732
G1 X71.601 Y29.708 E103.82546
G1 X72.031 Y29.769 E103.84351
G1 X72.48 Y29.763 E103.86218
G1 X72.909 Y29.693 E103.88025
G1 X73.331 Y29.557 E103.89869
G0 F6000 X73.142 Y29.093
G1 F1200 X73.479 Y28.925 E103.91434
G1 X73.774 Y28.716 E103.92937
G1 X74.037 Y28.466 E103.94446
G1 X74.264 Y28.172 E103.9599
G1 X74.442 Y27.854 E103.97505
G1 X74.571 Y27.511 E103.99029
G1 X74.647 Y27.152 E104.00554
G1 X74.669 Y26.788 E104.02071
G1 X74.637 Y26.42 E104.03606
G1 X74.55 Y26.067 E104.05118
G1 X74.413 Y25.727 E104.06642
G1 X74.223 Y25.411 E104.08175
G1 X73.992 Y25.13 E104.09687
G1 X73.722 Y24.886 E104.112
G1 X73.413 Y24.681 E104.12742
G1 X73.078 Y24.525 E104.14278
G1 X72.621 Y24.403 E104.16245
G1 X72.245 Y24.371 E104.17814
G1 X71.879 Y24.393 E104.19338
G1 X71.524 Y24.47 E104.20848
G1 X71.181 Y24.6 E104.22373
G1 X70.856 Y24.784 E104.23926
G1 X70.495 Y25.078 E104.25862
G1 X70.242 Y25.371 E104.27471
G1 X70.048 Y25.682 E104.28995
G1 X69.904 Y26.017 E104.30511
G1 X69.811 Y26.363 E104.32
G1 X69.768 Y26.732 E104.33545
G1 X69.782 Y27.101 E104.3508
G1 X69.852 Y27.461 E104.36605
G1 X69.971 Y27.803 E104.3811
G1 X70.146 Y28.132 E104.3966
G1 X70.362 Y28.423 E104.41166
G1 X70.625 Y28.688 E104.42719
G1 X71.015 Y28.96 E104.44695
G1 X71.357 Y29.117 E104.4626
G1 X71.706 Y29.218 E104.47771
G1 X72.063 Y29.269 E104.4927
G1 X72.436 Y29.264 E104.50821
G1 X72.791 Y29.206 E104.52316
G1 X73.142 Y29.093 E104.53849
G0 F6000 X72.953 Y28.629
;TYPE:WALL-OUTER
G1 F1200 X73.221 Y28.495 E104.55095
G1 X73.456 Y28.329 E104.56291
G1 X73.665 Y28.13 E104.57491
G1 X73.846 Y27.896 E104.58721
G1 X73.987 Y27.643 E104.59925
G1 X74.09 Y27.37 E104.61138
G1 X74.15 Y27.085 E104.62349
G1 X74.168 Y26.795 E104.63557
G1 X74.142 Y26.502 E104.6478
G1 X74.073 Y26.221 E104.65983
G1 X73.964 Y25.951 E104.67193
G1 X73.813 Y25.7 E104.68411
G1 X73.629 Y25.476 E104.69617
G1 X73.415 Y25.282 E104.70817
G1 X73.168 Y25.119 E104.72048
G1 X72.906 Y24.997 E104.73249
G1 X72.534 Y24.897 E104.74851
