;FLAVOR:Marlin
;TIME:3947
;Filament used: 2.48986m
;Layer height: 0.2
;MINX:141.712
;MINY:189.148
;MINZ:0.2
;MAXX:279.209
;MAXY:271.647
;MAXZ:5
;Generated with Cura_SteamEngine 4.11.0
M140 S60
M105
M190 S60
M104 S210
M105
M109 S210
M82 ;absolute extrusion mode
M201 X500.00 Y500.00 Z100.00 E5000.00 ;Setup machine max acceleration
M203 X500.00 Y500.00 Z10.00 E50.00 ;Setup machine max feedrate
M204 P500.00 R1000.00 T500.00 ;Setup Print/Retract/Travel acceleration
M205 X8.00 Y8.00 Z0.40 E5.00 ;Setup Jerk
M220 S100 ;Reset Feedrate
M221 S100 ;Reset Flowrate

G28 ;Home
G29 ;Auto bed Level

G92 E0 ;Reset Extruder
G1 Z2.0 F3000 ;Move Z Axis up
G1 X10.1 Y20 Z0.28 F5000.0 ;Move to start position
G1 X10.1 Y200.0 Z0.28 F1500.0 E15 ;Draw the first line
G1 X10.4 Y200.0 Z0.28 F5000.0 ;Move to side a little
G1 X10.4 Y20 Z0.28 F1500.0 E30 ;Draw the second line
G92 E0 ;Reset Extruder
G1 Z2.0 F3000 ;Move Z Axis up

G92 E0
G92 E0
G1 F2700 E-5
;LAYER_COUNT:25
;LAYER:0
M107
G0 F6000 X147.532 Y238.991 Z0.2
;TYPE:SKIRT
G1 F2700 E0
G1 F1200 X148.356 Y238.522 E0.03942
G1 X149.514 Y238.005 E0.09214
G1 X149.743 Y237.918 E0.10233
G1 X150.839 Y237.565 E0.1502
G1 X151.765 Y237.357 E0.18966
G1 X152.645 Y237.234 E0.2266
G1 X152.875 Y237.211 E0.23621
G1 X153.864 Y237.156 E0.27739
G1 X154.514 Y237.149 E0.30442
G1 X177.891 Y237.149 E1.27632
G1 X180.489 Y237.112 E1.38434
G1 X182.994 Y237.006 E1.48858
G1 X185.512 Y236.827 E1.59353
G1 X187.995 Y236.581 E1.69727
G1 X190.47 Y236.264 E1.80101
G1 X192.972 Y235.871 E1.9063
G1 X195.453 Y235.41 E2.01122
G1 X197.856 Y234.893 E2.11341
G1 X200.336 Y234.285 E2.21957
G1 X202.755 Y233.62 E2.32387
G1 X205.153 Y232.886 E2.42813
G1 X207.521 Y232.087 E2.53203
G1 X209.868 Y231.221 E2.63604
G1 X212.217 Y230.278 E2.74128
G1 X214.508 Y229.281 E2.84516
G1 X216.782 Y228.215 E2.94957
G1 X219.025 Y227.085 E3.05399
G1 X221.259 Y225.88 E3.15952
G1 X223.386 Y224.653 E3.26161
G1 X225.549 Y223.321 E3.36722
G1 X227.646 Y221.948 E3.47143
G1 X229.713 Y220.508 E3.57616
G1 X231.729 Y219.019 E3.68036
G1 X233.706 Y217.47 E3.78478
G1 X235.623 Y215.878 E3.88838
G1 X237.535 Y214.196 E3.99425
G1 X239.341 Y212.516 E4.0968
G1 X241.155 Y210.731 E4.2026
G1 X242.867 Y208.946 E4.30543
G1 X244.585 Y207.05 E4.41181
G1 X246.186 Y205.181 E4.51412
G1 X247.783 Y203.207 E4.61968
G1 X249.297 Y201.219 E4.72357
G1 X250.775 Y199.164 E4.82881
G1 X252.191 Y197.072 E4.93384
G1 X253.098 Y195.662 E5.00354
G1 X253.537 Y194.963 E5.03786
G1 X254.148 Y194.087 E5.08226
G1 X254.322 Y193.861 E5.09412
G1 X254.932 Y193.134 E5.13358
G1 X255.601 Y192.462 E5.173
G1 X256.547 Y191.678 E5.22408
G1 X256.831 Y191.468 E5.23877
G1 X257.617 Y190.937 E5.2782
G1 X258.445 Y190.474 E5.31764
G1 X259.598 Y189.97 E5.36996
G1 X259.762 Y189.909 E5.37723
G1 X260.664 Y189.616 E5.41666
G1 X261.383 Y189.441 E5.44743
G1 X261.584 Y189.399 E5.45596
G1 X262.52 Y189.244 E5.49541
G1 X263.482 Y189.168 E5.53553
G1 X263.761 Y189.158 E5.54714
G1 X264.245 Y189.15 E5.56726
G1 X266.464 Y189.148 E5.65952
G1 X266.89 Y189.152 E5.67723
G1 X267.226 Y189.16 E5.6912
G1 X267.48 Y189.17 E5.70177
G1 X268.611 Y189.272 E5.74898
G1 X268.703 Y189.285 E5.75285
G1 X269.636 Y189.457 E5.79229
G1 X270.386 Y189.656 E5.82455
G1 X270.634 Y189.731 E5.83532
G1 X271.529 Y190.043 E5.87473
G1 X272.395 Y190.43 E5.91416
G1 X273.225 Y190.889 E5.95359
G1 X273.688 Y191.186 E5.97646
G1 X273.902 Y191.331 E5.98721
G1 X274.664 Y191.895 E6.02662
G1 X275.439 Y192.584 E6.06974
G1 X275.591 Y192.732 E6.07856
G1 X276.242 Y193.421 E6.11797
G1 X276.833 Y194.164 E6.15744
G1 X277.358 Y194.951 E6.19677
G1 X277.471 Y195.137 E6.20582
G1 X278.005 Y196.125 E6.25251
G1 X278.38 Y196.996 E6.29194
G1 X278.735 Y198.092 E6.33983
G1 X278.798 Y198.327 E6.34995
G1 X279.051 Y199.529 E6.40102
G1 X279.063 Y199.607 E6.4043
G1 X279.168 Y200.55 E6.44375
G1 X279.192 Y201.131 E6.46792
G1 X279.209 Y202.218 E6.51312
G1 X279.209 Y257.966 E8.83085
G1 X279.205 Y258.364 E8.8474
G1 X279.198 Y258.686 E8.86079
G1 X279.186 Y258.996 E8.87369
G1 X279.109 Y259.942 E8.91315
G1 X278.977 Y260.761 E8.94764
G1 X278.909 Y261.102 E8.96209
G1 X278.673 Y262.061 E9.00315
G1 X278.606 Y262.29 E9.01307
G1 X278.302 Y263.188 E9.05249
G1 X278.047 Y263.794 E9.07982
G1 X277.955 Y263.996 E9.08905
G1 X277.526 Y264.842 E9.12849
G1 X277.064 Y265.593 E9.16515
G1 X276.843 Y265.923 E9.18166
G1 X276.283 Y266.688 E9.22107
G1 X275.686 Y267.376 E9.25895
G1 X275.492 Y267.582 E9.27071
G1 X274.813 Y268.244 E9.31014
G1 X274.429 Y268.573 E9.33116
G1 X274.291 Y268.686 E9.33857
G1 X273.533 Y269.256 E9.378
G1 X272.956 Y269.627 E9.40652
G1 X272.573 Y269.857 E9.4251
G1 X271.74 Y270.31 E9.46452
G1 X270.834 Y270.706 E9.50563
G1 X270.645 Y270.779 E9.51405
G1 X269.625 Y271.118 E9.55874
G1 X269.475 Y271.16 E9.56521
G1 X268.552 Y271.377 E9.60463
G1 X268.059 Y271.46 E9.62542
G1 X267.756 Y271.504 E9.63815
G1 X267.307 Y271.56 E9.65696
G1 X267.192 Y271.572 E9.66177
G1 X266.428 Y271.626 E9.69361
G1 X266.066 Y271.639 E9.70867
G1 X265.595 Y271.647 E9.72826
G1 X154.616 Y271.647 E14.34223
G1 X153.757 Y271.636 E14.37794
G1 X152.81 Y271.582 E14.41738
G1 X151.992 Y271.471 E14.4517
G1 X151.733 Y271.426 E14.46263
G1 X150.806 Y271.224 E14.50207
G1 X149.9 Y270.945 E14.54148
G1 X148.933 Y270.551 E14.5849
G1 X148.717 Y270.451 E14.59479
G1 X147.873 Y270.017 E14.63425
G1 X147.07 Y269.513 E14.67367
G1 X146.547 Y269.13 E14.70062
G1 X146.373 Y268.995 E14.70977
G1 X145.649 Y268.383 E14.74919
G1 X144.979 Y267.712 E14.78861
G1 X144.352 Y266.966 E14.82912
G1 X144.232 Y266.81 E14.83731
G1 X143.686 Y266.035 E14.87672
G1 X143.326 Y265.435 E14.90581
G1 X143.211 Y265.229 E14.91562
G1 X142.784 Y264.382 E14.95506
G1 X142.43 Y263.502 E14.99449
G1 X142.132 Y262.52 E15.03716
G1 X142.076 Y262.3 E15.04659
G1 X141.881 Y261.372 E15.08602
G1 X141.77 Y260.5 E15.12256
G1 X141.764 Y260.431 E15.12544
G1 X141.729 Y259.852 E15.14956
G1 X141.721 Y259.625 E15.159
G1 X141.715 Y259.341 E15.17081
G1 X141.712 Y259.039 E15.18337
G1 X141.712 Y258.762 E15.19489
G1 X141.726 Y257.806 E15.23464
G1 X141.786 Y255.691 E15.3226
G1 X141.786 Y253.154 E15.42808
G1 X141.727 Y251.066 E15.51492
G1 X141.713 Y250.101 E15.55505
G1 X141.713 Y249.78 E15.56839
G1 X141.721 Y249.21 E15.59209
G1 X141.774 Y248.263 E15.63153
G1 X141.835 Y247.763 E15.65247
G1 X141.866 Y247.548 E15.6615
G1 X142.041 Y246.615 E15.70097
G1 X142.294 Y245.701 E15.74039
G1 X142.476 Y245.179 E15.76338
G1 X142.55 Y244.983 E15.77209
G1 X142.922 Y244.111 E15.8115
G1 X143.367 Y243.273 E15.85095
G1 X144.126 Y242.14 E15.90765
G1 X144.353 Y241.842 E15.92322
G1 X144.959 Y241.112 E15.96267
G1 X145.934 Y240.157 E16.01941
G1 X145.964 Y240.131 E16.02106
G1 X146.706 Y239.541 E16.06047
G1 X147.355 Y239.102 E16.09305
G1 X147.532 Y238.991 E16.10173
G0 F6000 X147.798 Y239.415
G1 F1200 X148.604 Y238.956 E16.14029
G1 X149.691 Y238.473 E16.18975
G1 X149.92 Y238.386 E16.19993
G1 X150.969 Y238.048 E16.24575
G1 X151.874 Y237.845 E16.28431
G1 X152.694 Y237.731 E16.31873
G1 X152.924 Y237.708 E16.32834
G1 X153.87 Y237.656 E16.36773
G1 X154.514 Y237.649 E16.39451
G1 X177.898 Y237.649 E17.3667
G1 X180.517 Y237.612 E17.4756
G1 X183.017 Y237.506 E17.57963
G1 X185.523 Y237.328 E17.68408
G1 X188.076 Y237.075 E17.79074
G1 X190.541 Y236.76 E17.89406
G1 X193.065 Y236.363 E18.00028
G1 X195.544 Y235.902 E18.10511
G1 X197.976 Y235.379 E18.20854
G1 X200.441 Y234.775 E18.31405
G1 X202.906 Y234.096 E18.42035
G1 X205.28 Y233.37 E18.52356
G1 X207.707 Y232.551 E18.63006
G1 X210.047 Y231.688 E18.73375
G1 X212.405 Y230.741 E18.83939
G1 X214.726 Y229.731 E18.94463
G1 X217.009 Y228.66 E19.04947
G1 X219.251 Y227.532 E19.15381
G1 X221.495 Y226.321 E19.25983
G1 X223.662 Y225.071 E19.36383
G1 X225.817 Y223.744 E19.46905
G1 X227.928 Y222.362 E19.57395
G1 X229.978 Y220.934 E19.67782
G1 X232.04 Y219.411 E19.7844
G1 X234.017 Y217.862 E19.88882
G1 X235.953 Y216.254 E19.99345
G1 X237.853 Y214.582 E20.09867
G1 X239.715 Y212.851 E20.20437
G1 X241.479 Y211.115 E20.30727
G1 X243.262 Y209.255 E20.41439
G1 X244.948 Y207.395 E20.51876
G1 X246.583 Y205.487 E20.62323
G1 X248.169 Y203.525 E20.72811
G1 X249.697 Y201.52 E20.83292
G1 X251.179 Y199.459 E20.93846
G1 X252.609 Y197.345 E21.04457
G1 X253.556 Y195.874 E21.1173
G1 X253.961 Y195.229 E21.14897
G1 X254.544 Y194.392 E21.19137
G1 X254.718 Y194.166 E21.20323
G1 X255.315 Y193.456 E21.2418
G1 X255.971 Y192.801 E21.28034
G1 X256.845 Y192.08 E21.32745
G1 X257.129 Y191.87 E21.34213
G1 X257.897 Y191.352 E21.38064
G1 X258.708 Y190.901 E21.41922
G1 X259.772 Y190.438 E21.46747
G1 X259.936 Y190.377 E21.47474
G1 X260.818 Y190.092 E21.51328
G1 X261.485 Y189.93 E21.54181
G1 X261.686 Y189.888 E21.55035
G1 X262.601 Y189.738 E21.5889
G1 X263.5 Y189.668 E21.62639
G1 X263.779 Y189.658 E21.638
G1 X264.25 Y189.65 E21.65758
G1 X266.572 Y189.648 E21.75412
G1 X266.886 Y189.651 E21.76717
G1 X267.206 Y189.659 E21.78048
G1 X267.46 Y189.669 E21.79105
G1 X268.541 Y189.767 E21.83618
G1 X268.633 Y189.78 E21.84004
G1 X269.545 Y189.949 E21.8786
G1 X270.241 Y190.134 E21.90854
G1 X270.489 Y190.209 E21.91932
G1 X271.364 Y190.516 E21.95787
G1 X272.209 Y190.896 E21.99639
G1 X273.407 Y191.599 E22.05414
G1 X273.621 Y191.744 E22.06488
G1 X274.365 Y192.297 E22.10342
G1 X275.09 Y192.942 E22.14377
G1 X275.242 Y193.09 E22.15259
G1 X275.878 Y193.765 E22.19115
G1 X276.453 Y194.492 E22.22968
G1 X276.93 Y195.21 E22.26552
G1 X277.043 Y195.396 E22.27457
G1 X277.542 Y196.314 E22.31801
G1 X277.921 Y197.193 E22.35781
G1 X278.252 Y198.221 E22.40271
G1 X278.315 Y198.456 E22.41282
G1 X278.557 Y199.605 E22.46164
G1 X278.569 Y199.683 E22.46492
G1 X278.67 Y200.605 E22.50348
G1 X278.693 Y201.139 E22.5257
G1 X278.708 Y202.039 E22.56313
G1 X278.71 Y257.853 E24.8836
G1 X278.705 Y258.359 E24.90464
G1 X278.698 Y258.667 E24.91745
G1 X278.686 Y258.977 E24.93035
G1 X278.61 Y259.901 E24.96889
G1 X278.486 Y260.663 E25.00099
G1 X278.418 Y261.004 E25.01545
G1 X278.193 Y261.921 E25.0547
G1 X278.126 Y262.15 E25.06462
G1 X277.828 Y263.027 E25.10313
G1 X277.592 Y263.587 E25.1284
G1 X277.5 Y263.789 E25.13762
G1 X277.08 Y264.615 E25.17615
G1 X276.649 Y265.315 E25.21033
G1 X276.428 Y265.645 E25.22684
G1 X275.879 Y266.392 E25.26538
G1 X275.322 Y267.033 E25.30069
G1 X275.128 Y267.239 E25.31245
G1 X274.113 Y268.186 E25.37016
G1 X273.975 Y268.299 E25.37758
G1 X273.233 Y268.855 E25.41613
G1 X272.698 Y269.198 E25.44255
G1 X272.315 Y269.428 E25.46112
G1 X271.501 Y269.871 E25.49965
G1 X270.654 Y270.24 E25.53806
G1 X270.465 Y270.313 E25.54649
G1 X269.491 Y270.637 E25.58916
G1 X269.341 Y270.679 E25.59564
G1 X267.987 Y270.965 E25.65317
G1 X267.684 Y271.009 E25.6659
G1 X267.255 Y271.063 E25.68388
G1 X267.14 Y271.075 E25.68869
G1 X266.41 Y271.126 E25.71911
G1 X266.048 Y271.139 E25.73417
G1 X265.59 Y271.147 E25.75321
G1 X154.616 Y271.147 E30.36698
G1 X153.764 Y271.136 E30.4024
G1 X152.838 Y271.083 E30.44096
G1 X152.078 Y270.978 E30.47286
G1 X151.819 Y270.933 E30.48379
G1 X150.913 Y270.735 E30.52235
G1 X150.028 Y270.46 E30.56088
G1 X149.143 Y270.097 E30.60064
G1 X148.927 Y269.997 E30.61054
G1 X148.103 Y269.572 E30.64909
G1 X147.319 Y269.077 E30.68764
G1 X146.853 Y268.735 E30.71167
G1 X146.679 Y268.6 E30.72082
G1 X145.972 Y268.001 E30.75935
G1 X145.319 Y267.343 E30.79789
G1 X144.748 Y266.661 E30.83487
G1 X144.628 Y266.505 E30.84305
G1 X144.095 Y265.747 E30.88158
G1 X143.763 Y265.191 E30.9085
G1 X143.648 Y264.985 E30.91831
G1 X143.231 Y264.157 E30.95685
G1 X142.887 Y263.296 E30.9954
G1 X142.616 Y262.397 E31.03444
G1 X142.56 Y262.177 E31.04388
G1 X142.37 Y261.269 E31.08244
G1 X142.268 Y260.456 E31.11651
G1 X142.262 Y260.387 E31.11939
G1 X142.229 Y259.835 E31.14238
G1 X142.221 Y259.608 E31.15182
G1 X142.215 Y259.336 E31.16313
G1 X142.212 Y258.77 E31.18667
G1 X142.229 Y257.664 E31.23265
G1 X142.286 Y255.671 E31.31555
G1 X142.286 Y253.175 E31.41932
G1 X142.227 Y251.059 E31.50732
G1 X142.213 Y250.094 E31.54745
G1 X142.213 Y249.787 E31.56021
G1 X142.221 Y249.217 E31.58391
G1 X142.33 Y247.834 E31.64159
G1 X142.361 Y247.619 E31.65062
G1 X142.533 Y246.708 E31.68916
G1 X142.782 Y245.815 E31.72771
G1 X142.944 Y245.356 E31.74794
G1 X143.018 Y245.16 E31.75665
G1 X143.383 Y244.307 E31.79523
G1 X143.819 Y243.49 E31.83373
G1 X144.523 Y242.443 E31.88618
G1 X144.75 Y242.145 E31.90176
G1 X145.344 Y241.432 E31.94034
G1 X146.261 Y240.535 E31.99367
G1 X146.291 Y240.509 E31.99532
G1 X147.018 Y239.933 E32.03388
G1 X147.621 Y239.526 E32.06413
G1 X147.798 Y239.415 E32.07282
G0 F6000 X148.063 Y239.838
G1 F1200 X148.851 Y239.392 E32.11046
G1 X149.869 Y238.94 E32.15677
G1 X150.098 Y238.853 E32.16695
G1 X151.099 Y238.53 E32.21068
G1 X151.983 Y238.334 E32.24833
G1 X152.744 Y238.229 E32.28027
G1 X152.974 Y238.206 E32.28988
G1 X153.876 Y238.156 E32.32744
G1 X154.514 Y238.149 E32.35396
G1 X177.905 Y238.149 E33.32645
G1 X180.51 Y238.112 E33.43476
G1 X183.073 Y238.003 E33.54141
G1 X185.575 Y237.826 E33.6457
G1 X188.115 Y237.574 E33.75181
G1 X190.611 Y237.255 E33.85643
G1 X193.163 Y236.854 E33.96383
G1 X195.636 Y236.394 E34.06841
G1 X198.095 Y235.865 E34.17298
G1 X200.555 Y235.262 E34.27829
G1 X203.038 Y234.579 E34.38535
G1 X205.449 Y233.841 E34.49018
G1 X207.86 Y233.027 E34.59598
G1 X210.239 Y232.15 E34.70139
G1 X212.599 Y231.202 E34.80713
G1 X214.913 Y230.196 E34.91203
G1 X217.209 Y229.119 E35.01747
G1 X219.503 Y227.964 E35.12425
G1 X221.745 Y226.754 E35.23017
G1 X223.922 Y225.498 E35.33466
G1 X226.076 Y224.172 E35.43982
G1 X228.211 Y222.774 E35.54592
G1 X230.291 Y221.325 E35.65131
G1 X232.324 Y219.824 E35.75638
G1 X234.329 Y218.253 E35.86227
G1 X236.29 Y216.625 E35.96824
G1 X238.188 Y214.954 E36.07337
G1 X240.053 Y213.22 E36.17924
G1 X241.837 Y211.464 E36.28332
G1 X243.622 Y209.603 E36.39053
G1 X245.311 Y207.739 E36.4951
G1 X246.981 Y205.789 E36.60184
G1 X248.569 Y203.826 E36.70682
G1 X250.097 Y201.821 E36.81162
G1 X251.583 Y199.754 E36.91746
G1 X253.035 Y197.609 E37.02515
G1 X253.954 Y196.179 E37.09582
G1 X254.384 Y195.495 E37.12941
G1 X254.94 Y194.697 E37.16985
G1 X255.114 Y194.471 E37.18171
G1 X255.698 Y193.779 E37.21935
G1 X256.34 Y193.141 E37.25698
G1 X257.142 Y192.482 E37.30014
G1 X257.426 Y192.272 E37.31482
G1 X258.177 Y191.767 E37.35245
G1 X258.97 Y191.329 E37.39011
G1 X259.947 Y190.907 E37.43436
G1 X260.111 Y190.846 E37.44163
G1 X260.972 Y190.568 E37.47925
G1 X261.587 Y190.42 E37.50555
G1 X261.788 Y190.378 E37.51408
G1 X262.682 Y190.232 E37.55174
G1 X263.518 Y190.168 E37.5866
G1 X263.797 Y190.158 E37.59821
G1 X264.059 Y190.152 E37.6091
G1 X264.355 Y190.149 E37.62141
G1 X266.567 Y190.148 E37.71338
G1 X266.881 Y190.151 E37.72643
G1 X267.186 Y190.159 E37.73912
G1 X267.44 Y190.169 E37.74968
G1 X268.471 Y190.262 E37.79272
G1 X268.563 Y190.275 E37.79659
G1 X269.453 Y190.441 E37.83423
G1 X270.096 Y190.613 E37.8619
G1 X270.344 Y190.688 E37.87267
G1 X271.198 Y190.988 E37.9103
G1 X272.023 Y191.362 E37.94796
G1 X273.127 Y192.013 E38.00125
G1 X273.341 Y192.158 E38.01199
G1 X274.067 Y192.699 E38.04964
G1 X274.742 Y193.3 E38.08721
G1 X274.894 Y193.448 E38.09603
G1 X275.514 Y194.108 E38.13368
G1 X276.073 Y194.82 E38.17131
G1 X276.503 Y195.47 E38.20372
G1 X276.616 Y195.656 E38.21276
G1 X277.104 Y196.558 E38.2554
G1 X277.461 Y197.391 E38.29308
G1 X277.769 Y198.351 E38.335
G1 X277.832 Y198.586 E38.34511
G1 X278.063 Y199.681 E38.39164
G1 X278.075 Y199.759 E38.39492
G1 X278.173 Y200.659 E38.43256
G1 X278.193 Y201.147 E38.45286
G1 X278.208 Y202.047 E38.49029
G1 X278.21 Y257.853 E40.81043
G1 X278.205 Y258.354 E40.83126
G1 X278.198 Y258.647 E40.84344
G1 X278.186 Y258.957 E40.85634
G1 X278.111 Y259.86 E40.89401
G1 X277.996 Y260.566 E40.92375
G1 X277.928 Y260.907 E40.93821
G1 X277.714 Y261.78 E40.97558
G1 X277.647 Y262.009 E40.9855
G1 X277.354 Y262.866 E41.02315
G1 X277.137 Y263.379 E41.04631
G1 X277.045 Y263.581 E41.05554
G1 X276.634 Y264.388 E41.09319
G1 X276.234 Y265.037 E41.12489
G1 X276.013 Y265.367 E41.1414
G1 X275.476 Y266.096 E41.17904
G1 X274.958 Y266.69 E41.21181
G1 X274.764 Y266.896 E41.22357
G1 X273.796 Y267.8 E41.27864
G1 X273.658 Y267.913 E41.28606
G1 X272.933 Y268.455 E41.32369
G1 X272.441 Y268.769 E41.34795
G1 X272.058 Y268.999 E41.36653
G1 X271.262 Y269.431 E41.40418
G1 X270.474 Y269.774 E41.43991
G1 X270.285 Y269.847 E41.44834
