;FLAVOR:Marlin
;TIME:19620
;Filament used: 16.3905m
;Layer height: 0.2
;MINX:66.69
;MINY:9.907
;MINZ:0.2
;MAXX:289.19
;MAXY:180.407
;MAXZ:5
;Generated with Cura_SteamEngine 4.11.0
M140 S60
M105
M190 S60
M104 S210
M105
M109 S210
M82 ;absolute extrusion mode
M201 X500.00 Y500.00 Z100.00 E5000.00 ;Setup machine max acceleration
M203 X500.00 Y500.00 Z10.00 E50.00 ;Setup machine max feedrate
M204 P500.00 R1000.00 T500.00 ;Setup Print/Retract/Travel acceleration
M205 X8.00 Y8.00 Z0.40 E5.00 ;Setup Jerk
M220 S100 ;Reset Feedrate
M221 S100 ;Reset Flowrate

G28 ;Home
G29 ;Auto bed Level

G92 E0 ;Reset Extruder
G1 Z2.0 F3000 ;Move Z Axis up
G1 X10.1 Y20 Z0.28 F5000.0 ;Move to start position
G1 X10.1 Y200.0 Z0.28 F1500.0 E15 ;Draw the first line
G1 X10.4 Y200.0 Z0.28 F5000.0 ;Move to side a little
G1 X10.4 Y20 Z0.28 F1500.0 E30 ;Draw the second line
G92 E0 ;Reset Extruder
G1 Z2.0 F3000 ;Move Z Axis up

G92 E0
G92 E0
G1 F2700 E-5
;LAYER_COUNT:25
;LAYER:0
M107
G0 F6000 X67.391 Y21.472 Z0.2
;TYPE:SKIRT
G1 F2700 E0
G1 F1200 X67.569 Y20.918 E0.02419
G1 X67.65 Y20.687 E0.03437
G1 X67.801 Y20.28 E0.05242
G1 X67.889 Y20.057 E0.06238
G1 X68.141 Y19.47 E0.08894
G1 X68.25 Y19.234 E0.09975
G1 X68.504 Y18.719 E0.12362
G1 X68.618 Y18.502 E0.13382
G1 X68.872 Y18.043 E0.15563
G1 X68.984 Y17.852 E0.16483
G1 X69.25 Y17.422 E0.18585
G1 X69.392 Y17.203 E0.1967
G1 X69.725 Y16.718 E0.22116
G1 X69.865 Y16.525 E0.23108
G1 X70.217 Y16.065 E0.25516
G1 X70.376 Y15.868 E0.26568
G1 X70.669 Y15.519 E0.28463
G1 X70.832 Y15.333 E0.29491
G1 X71.292 Y14.839 E0.32297
G1 X71.464 Y14.665 E0.33315
G1 X71.792 Y14.347 E0.35214
G1 X71.97 Y14.181 E0.36226
G1 X72.455 Y13.753 E0.38915
G1 X72.632 Y13.606 E0.39872
G1 X73.042 Y13.282 E0.42044
G1 X73.25 Y13.125 E0.43128
G1 X73.67 Y12.823 E0.45278
G1 X73.87 Y12.686 E0.46286
G1 X74.343 Y12.379 E0.48631
G1 X74.545 Y12.255 E0.49616
G1 X75.018 Y11.98 E0.51891
G1 X75.244 Y11.856 E0.52963
G1 X75.757 Y11.592 E0.55361
G1 X75.972 Y11.488 E0.56354
G1 X76.485 Y11.255 E0.58697
G1 X76.707 Y11.161 E0.59699
G1 X77.177 Y10.975 E0.618
G1 X77.414 Y10.887 E0.62851
G1 X77.942 Y10.705 E0.65173
G1 X78.17 Y10.633 E0.66167
G1 X78.736 Y10.471 E0.68615
G1 X78.983 Y10.407 E0.69676
G1 X79.451 Y10.296 E0.71676
G1 X79.666 Y10.25 E0.7259
G1 X80.263 Y10.139 E0.75114
G1 X80.535 Y10.096 E0.76259
G1 X81.097 Y10.022 E0.78616
G1 X81.331 Y9.997 E0.79594
G1 X81.858 Y9.953 E0.81793
G1 X82.144 Y9.936 E0.82984
G1 X82.667 Y9.917 E0.8516
G1 X83.512 Y9.907 E0.88673
G1 X112.037 Y9.907 E2.07266
G1 X112.898 Y9.918 E2.10846
G1 X113.214 Y9.927 E2.12161
G1 X114.146 Y9.966 E2.16039
G1 X116.672 Y10.038 E2.26545
G1 X119.213 Y10.038 E2.37109
G1 X121.808 Y9.964 E2.47902
G1 X122.666 Y9.927 E2.51473
G1 X122.983 Y9.918 E2.52791
G1 X123.828 Y9.907 E2.56305
G1 X126.198 Y9.908 E2.66158
G1 X126.898 Y9.918 E2.69069
G1 X127.214 Y9.927 E2.70383
G1 X128.146 Y9.966 E2.74261
G1 X130.672 Y10.038 E2.84767
G1 X133.213 Y10.038 E2.95331
G1 X135.808 Y9.964 E3.06125
G1 X136.666 Y9.927 E3.09695
G1 X136.983 Y9.918 E3.11014
G1 X137.828 Y9.907 E3.14527
G1 X218.198 Y9.908 E6.48667
G1 X218.898 Y9.918 E6.51577
G1 X219.214 Y9.927 E6.52891
G1 X220.146 Y9.966 E6.5677
G1 X222.672 Y10.038 E6.67276
G1 X225.213 Y10.038 E6.7784
G1 X227.808 Y9.964 E6.88633
G1 X228.666 Y9.927 E6.92204
G1 X228.983 Y9.918 E6.93522
G1 X229.828 Y9.907 E6.97035
G1 X232.198 Y9.908 E7.06889
G1 X232.898 Y9.918 E7.09799
G1 X233.214 Y9.927 E7.11114
G1 X234.146 Y9.966 E7.14992
G1 X236.672 Y10.038 E7.25498
G1 X239.213 Y10.038 E7.36062
G1 X241.808 Y9.964 E7.46855
G1 X242.666 Y9.927 E7.50426
G1 X242.983 Y9.918 E7.51744
G1 X243.828 Y9.907 E7.55258
G1 X272.5 Y9.908 E8.74462
G1 X273.082 Y9.915 E8.76882
G1 X273.398 Y9.923 E8.78196
G1 X273.722 Y9.936 E8.79544
G1 X274.26 Y9.971 E8.81786
G1 X274.498 Y9.992 E8.82779
G1 X275.057 Y10.055 E8.85118
G1 X275.273 Y10.085 E8.86024
G1 X275.783 Y10.168 E8.88173
G1 X276.041 Y10.216 E8.89264
G1 X276.617 Y10.339 E8.91712
G1 X276.862 Y10.398 E8.9276
G1 X277.356 Y10.529 E8.94885
G1 X277.584 Y10.595 E8.95872
G1 X278.154 Y10.776 E8.98358
G1 X278.381 Y10.855 E8.99357
G1 X278.908 Y11.053 E9.01698
G1 X279.14 Y11.147 E9.02739
G1 X279.654 Y11.371 E9.0507
G1 X279.893 Y11.482 E9.06165
G1 X280.304 Y11.683 E9.08067
G1 X280.506 Y11.787 E9.09012
G1 X281.022 Y12.07 E9.11459
G1 X281.221 Y12.186 E9.12416
G1 X281.714 Y12.491 E9.14827
G1 X281.928 Y12.631 E9.1589
G1 X282.373 Y12.937 E9.18135
G1 X282.584 Y13.09 E9.19219
G1 X282.989 Y13.398 E9.21334
G1 X283.156 Y13.531 E9.22222
G1 X283.624 Y13.925 E9.24765
G1 X283.823 Y14.102 E9.25872
G1 X284.229 Y14.482 E9.28184
G1 X284.397 Y14.647 E9.29163
G1 X284.751 Y15.011 E9.31274
G1 X284.911 Y15.183 E9.32251
G1 X285.304 Y15.628 E9.34719
G1 X285.488 Y15.848 E9.35912
G1 X285.833 Y16.282 E9.38217
G1 X285.966 Y16.458 E9.39134
G1 X286.28 Y16.895 E9.41371
G1 X286.418 Y17.097 E9.42388
G1 X286.716 Y17.557 E9.44667
G1 X286.848 Y17.772 E9.45716
G1 X287.113 Y18.226 E9.47901
G1 X287.231 Y18.44 E9.48917
G1 X287.519 Y18.999 E9.51532
G1 X287.618 Y19.205 E9.52482
G1 X287.811 Y19.63 E9.54422
G1 X287.907 Y19.853 E9.55432
G1 X288.138 Y20.433 E9.58027
G1 X288.231 Y20.687 E9.59152
G1 X288.394 Y21.165 E9.61252
G1 X288.461 Y21.377 E9.62176
G1 X288.62 Y21.927 E9.64556
G1 X288.686 Y22.18 E9.65643
G1 X288.812 Y22.72 E9.67949
G1 X288.859 Y22.945 E9.68904
G1 X288.965 Y23.528 E9.71368
G1 X289.005 Y23.787 E9.72457
G1 X289.064 Y24.221 E9.74278
G1 X289.092 Y24.465 E9.753
G1 X289.147 Y25.106 E9.77974
G1 X289.163 Y25.386 E9.7914
G1 X289.18 Y25.883 E9.81208
G1 X289.19 Y26.728 E9.84721
G1 X289.189 Y163.729 E15.54305
G1 X289.182 Y164.296 E15.56663
G1 X289.175 Y164.57 E15.57802
G1 X289.163 Y164.897 E15.59163
G1 X289.129 Y165.454 E15.61483
G1 X289.109 Y165.685 E15.62447
G1 X289.044 Y166.264 E15.64869
G1 X289.013 Y166.487 E15.65805
G1 X288.925 Y167.022 E15.68059
G1 X288.876 Y167.282 E15.69159
G1 X288.758 Y167.835 E15.7151
G1 X288.697 Y168.088 E15.72592
G1 X288.571 Y168.562 E15.74631
G1 X288.51 Y168.774 E15.75548
G1 X288.324 Y169.361 E15.78108
G1 X288.237 Y169.611 E15.79209
G1 X288.051 Y170.108 E15.81415
G1 X287.965 Y170.322 E15.82374
G1 X287.747 Y170.828 E15.84664
G1 X287.638 Y171.065 E15.85749
G1 X287.409 Y171.533 E15.87915
G1 X287.304 Y171.736 E15.88865
G1 X287.012 Y172.265 E15.91378
G1 X286.881 Y172.488 E15.92453
G1 X286.555 Y173.01 E15.95011
G1 X286.417 Y173.218 E15.96049
G1 X286.128 Y173.633 E15.98152
G1 X285.979 Y173.837 E15.99202
G1 X285.689 Y174.217 E16.01189
G1 X285.559 Y174.38 E16.02056
G1 X285.193 Y174.815 E16.0442
G1 X285.018 Y175.013 E16.05518
G1 X284.616 Y175.445 E16.07972
G1 X284.453 Y175.611 E16.08939
G1 X284.125 Y175.932 E16.10847
G1 X283.962 Y176.085 E16.11776
G1 X283.476 Y176.515 E16.14474
G1 X283.245 Y176.708 E16.15726
G1 X282.758 Y177.093 E16.18307
G1 X282.699 Y177.137 E16.18613
G1 X282.213 Y177.48 E16.21086
G1 X281.664 Y177.846 E16.23829
G1 X280.863 Y178.333 E16.27726
G1 X280.662 Y178.444 E16.28681
G1 X280.15 Y178.71 E16.3108
G1 X279.955 Y178.805 E16.31982
G1 X279.435 Y179.042 E16.34358
G1 X279.179 Y179.151 E16.35514
G1 X278.679 Y179.35 E16.37752
G1 X278.463 Y179.43 E16.38709
G1 X277.941 Y179.609 E16.41004
G1 X277.716 Y179.68 E16.41985
G1 X277.16 Y179.839 E16.44389
G1 X276.906 Y179.905 E16.4548
G1 X276.377 Y180.029 E16.47739
G1 X276.152 Y180.076 E16.48694
G1 X275.569 Y180.182 E16.51158
G1 X275.31 Y180.222 E16.52248
G1 X274.835 Y180.285 E16.5424
G1 X274.592 Y180.312 E16.55256
G1 X274.027 Y180.361 E16.57614
G1 X273.745 Y180.378 E16.58788
G1 X273.211 Y180.397 E16.6101
G1 X272.36 Y180.407 E16.64548
G1 X83.386 Y180.406 E24.50211
G1 X82.761 Y180.398 E24.5281
G1 X82.484 Y180.391 E24.53962
G1 X82.19 Y180.38 E24.55185
G1 X81.606 Y180.343 E24.57618
G1 X81.383 Y180.323 E24.58548
G1 X80.856 Y180.263 E24.60754
G1 X80.616 Y180.23 E24.61761
G1 X80.12 Y180.151 E24.63849
G1 X79.869 Y180.105 E24.6491
G1 X79.199 Y179.961 E24.67759
G1 X78.948 Y179.899 E24.68834
G1 X78.535 Y179.788 E24.70612
G1 X78.323 Y179.727 E24.71529
G1 X77.742 Y179.543 E24.74063
G1 X77.506 Y179.461 E24.75101
G1 X76.978 Y179.262 E24.77447
G1 X76.721 Y179.158 E24.786
G1 X76.214 Y178.939 E24.80896
G1 X76.011 Y178.845 E24.81826
G1 X75.573 Y178.63 E24.83855
G1 X75.364 Y178.522 E24.84833
G1 X74.835 Y178.231 E24.87343
G1 X74.622 Y178.106 E24.8837
G1 X74.149 Y177.812 E24.90685
G1 X73.94 Y177.675 E24.91724
G1 X73.485 Y177.36 E24.94025
G1 X73.279 Y177.21 E24.95084
G1 X72.892 Y176.916 E24.97105
G1 X72.72 Y176.779 E24.98019
G1 X72.224 Y176.36 E25.00719
G1 X72.157 Y176.3 E25.01093
G1 X71.715 Y175.882 E25.03622
G1 X71.228 Y175.396 E25.06482
G1 X70.587 Y174.7 E25.10416
G1 X70.455 Y174.544 E25.11266
G1 X70.048 Y174.034 E25.13978
G1 X69.891 Y173.825 E25.15065
G1 X69.607 Y173.429 E25.17091
G1 X69.474 Y173.235 E25.18069
G1 X69.133 Y172.707 E25.20682
G1 X68.999 Y172.486 E25.21757
G1 X68.778 Y172.104 E25.23592
G1 X68.665 Y171.9 E25.24561
G1 X68.357 Y171.303 E25.27354
G1 X68.236 Y171.05 E25.2852
G1 X68.015 Y170.557 E25.30766
G1 X67.933 Y170.362 E25.31646
G1 X67.754 Y169.91 E25.33667
G1 X67.661 Y169.659 E25.3478
G1 X67.457 Y169.058 E25.37418
G1 X67.389 Y168.837 E25.3838
G1 X67.263 Y168.394 E25.40294
G1 X67.204 Y168.17 E25.41258
G1 X67.081 Y167.653 E25.43467
G1 X67.03 Y167.414 E25.44483
G1 X66.92 Y166.821 E25.4699
G1 X66.881 Y166.574 E25.4803
G1 X66.81 Y166.047 E25.50241
G1 X66.782 Y165.792 E25.51307
G1 X66.734 Y165.21 E25.53735
G1 X66.718 Y164.932 E25.54893
G1 X66.7 Y164.431 E25.56977
G1 X66.69 Y163.586 E25.60491
G1 X66.691 Y26.591 E31.3005
G1 X66.698 Y26.001 E31.32503
G1 X66.705 Y25.699 E31.33759
G1 X66.717 Y25.389 E31.35048
G1 X66.753 Y24.828 E31.37386
G1 X66.773 Y24.603 E31.38325
G1 X66.839 Y24.029 E31.40727
G1 X66.871 Y23.802 E31.4168
G1 X66.951 Y23.314 E31.43736
G1 X66.999 Y23.056 E31.44827
G1 X67.127 Y22.456 E31.47378
G1 X67.189 Y22.201 E31.48469
G1 X67.327 Y21.69 E31.50669
G1 X67.391 Y21.472 E31.51614
G0 F6000 X67.87 Y21.613
G1 F1200 X68.041 Y21.084 E31.53925
G1 X68.122 Y20.853 E31.54943
G1 X68.266 Y20.464 E31.56667
G1 X68.354 Y20.241 E31.57664
G1 X68.595 Y19.68 E31.60203
G1 X68.704 Y19.444 E31.61283
G1 X68.946 Y18.951 E31.63567
G1 X69.06 Y18.734 E31.64586
G1 X69.304 Y18.296 E31.6667
G1 X69.416 Y18.105 E31.67591
G1 X69.669 Y17.695 E31.69594
G1 X69.811 Y17.476 E31.70679
G1 X70.129 Y17.012 E31.73018
G1 X70.269 Y16.819 E31.74009
G1 X70.606 Y16.379 E31.76313
G1 X70.765 Y16.182 E31.77366
G1 X71.045 Y15.849 E31.79174
G1 X71.208 Y15.663 E31.80203
G1 X71.648 Y15.191 E31.82885
G1 X71.82 Y15.017 E31.83903
G1 X72.133 Y14.712 E31.8572
G1 X72.311 Y14.546 E31.86731
G1 X72.775 Y14.138 E31.893
G1 X72.952 Y13.991 E31.90257
G1 X73.344 Y13.681 E31.92335
G1 X73.552 Y13.524 E31.93418
G1 X73.953 Y13.235 E31.95473
G1 X74.153 Y13.098 E31.96481
G1 X74.604 Y12.805 E31.98717
G1 X74.806 Y12.681 E31.99702
G1 X75.259 Y12.418 E32.0188
G1 X75.485 Y12.294 E32.02952
G1 X75.975 Y12.042 E32.05243
G1 X76.19 Y11.938 E32.06236
G1 X76.679 Y11.716 E32.08468
G1 X76.901 Y11.622 E32.09471
G1 X77.351 Y11.443 E32.11484
G1 X77.588 Y11.355 E32.12535
G1 X78.093 Y11.182 E32.14755
G1 X78.321 Y11.11 E32.15749
G1 X78.862 Y10.955 E32.18088
G1 X79.109 Y10.891 E32.19149
G1 X79.556 Y10.785 E32.21059
G1 X79.771 Y10.739 E32.21973
G1 X80.341 Y10.633 E32.24384
G1 X80.613 Y10.59 E32.25528
G1 X81.15 Y10.519 E32.2778
G1 X81.384 Y10.494 E32.28759
G1 X81.888 Y10.452 E32.30862
G1 X82.174 Y10.435 E32.32053
G1 X82.674 Y10.417 E32.34133
G1 X83.512 Y10.407 E32.37617
G1 X112.037 Y10.407 E33.5621
G1 X112.891 Y10.418 E33.59761
G1 X113.192 Y10.427 E33.61013
G1 X114.037 Y10.463 E33.64529
G1 X116.694 Y10.538 E33.7558
G1 X119.192 Y10.538 E33.85966
G1 X121.912 Y10.46 E33.97279
G1 X122.687 Y10.427 E34.00504
G1 X122.991 Y10.418 E34.01768
G1 X123.828 Y10.407 E34.05248
G1 X126.191 Y10.408 E34.15073
G1 X126.891 Y10.418 E34.17983
G1 X127.192 Y10.427 E34.19235
G1 X128.037 Y10.463 E34.22751
G1 X130.694 Y10.538 E34.33802
G1 X133.192 Y10.538 E34.44188
G1 X135.912 Y10.46 E34.55501
G1 X136.687 Y10.427 E34.58726
G1 X136.991 Y10.418 E34.5999
G1 X137.828 Y10.407 E34.6347
G1 X218.191 Y10.408 E37.97581
G1 X218.891 Y10.418 E38.00492
G1 X219.192 Y10.427 E38.01743
G1 X220.037 Y10.463 E38.0526
G1 X222.694 Y10.538 E38.16311
G1 X225.192 Y10.538 E38.26696
G1 X227.912 Y10.46 E38.38009
G1 X228.687 Y10.427 E38.41234
G1 X228.991 Y10.418 E38.42499
G1 X229.828 Y10.407 E38.45979
G1 X232.191 Y10.408 E38.55803
G1 X232.891 Y10.418 E38.58714
G1 X233.192 Y10.427 E38.59966
G1 X234.037 Y10.463 E38.63482
G1 X236.694 Y10.538 E38.74533
G1 X239.192 Y10.538 E38.84918
G1 X241.912 Y10.46 E38.96231
G1 X242.687 Y10.427 E38.99456
G1 X242.991 Y10.418 E39.00721
G1 X243.828 Y10.407 E39.04201
G1 X272.494 Y10.408 E40.2338
G1 X273.076 Y10.415 E40.258
G1 X273.378 Y10.423 E40.27056
G1 X273.702 Y10.436 E40.28404
G1 X274.216 Y10.469 E40.30546
G1 X274.454 Y10.49 E40.31539
G1 X274.988 Y10.55 E40.33773
G1 X275.204 Y10.58 E40.3468
G1 X275.691 Y10.659 E40.36731
G1 X275.949 Y10.707 E40.37822
G1 X276.5 Y10.825 E40.40165
G1 X276.745 Y10.884 E40.41212
G1 X277.217 Y11.009 E40.43242
G1 X277.445 Y11.075 E40.44229
G1 X277.989 Y11.248 E40.46603
G1 X278.216 Y11.327 E40.47602
G1 X278.72 Y11.517 E40.49841
G1 X278.952 Y11.611 E40.50882
G1 X279.443 Y11.824 E40.53107
G1 X279.682 Y11.935 E40.54203
G1 X280.075 Y12.127 E40.56021
G1 X280.277 Y12.231 E40.56966
G1 X280.77 Y12.502 E40.59305
G1 X280.969 Y12.618 E40.60262
G1 X281.44 Y12.909 E40.62564
G1 X281.654 Y13.049 E40.63627
G1 X282.08 Y13.342 E40.65777
G1 X282.291 Y13.495 E40.6686
G1 X282.677 Y13.789 E40.68878
G1 X282.844 Y13.922 E40.69765
G1 X283.291 Y14.299 E40.72196
G1 X283.49 Y14.476 E40.73304
G1 X283.879 Y14.838 E40.75513
G1 X284.047 Y15.003 E40.76492
G1 X284.385 Y15.351 E40.78509
G1 X284.545 Y15.523 E40.79485
G1 X284.92 Y15.948 E40.81842
G1 X285.104 Y16.168 E40.83034
G1 X285.435 Y16.584 E40.85244
G1 X285.568 Y16.76 E40.86162
G1 X285.867 Y17.177 E40.88295
G1 X286.005 Y17.379 E40.89312
G1 X286.29 Y17.818 E40.91488
G1 X286.422 Y18.033 E40.92537
G1 X286.675 Y18.467 E40.94625
G1 X286.793 Y18.681 E40.95641
G1 X287.068 Y19.216 E40.98142
G1 X287.167 Y19.422 E40.99093
G1 X287.352 Y19.827 E41.00944
G1 X287.448 Y20.05 E41.01953
G1 X287.669 Y20.605 E41.04437
G1 X287.762 Y20.859 E41.05561
G1 X287.917 Y21.316 E41.07568
G1 X287.984 Y21.528 E41.08492
G1 X288.136 Y22.053 E41.10764
G1 X288.202 Y22.306 E41.11851
G1 X288.323 Y22.822 E41.14055
G1 X288.37 Y23.047 E41.1501
G1 X288.471 Y23.604 E41.17364
G1 X288.511 Y23.863 E41.18454
G1 X288.567 Y24.278 E41.20195
G1 X288.595 Y24.522 E41.21216
G1 X288.647 Y25.135 E41.23773
G1 X288.663 Y25.415 E41.24939
G1 X288.68 Y25.89 E41.26915
G1 X288.69 Y26.728 E41.304
G1 X288.689 Y163.723 E46.99959
G1 X288.682 Y164.29 E47.02316
G1 X288.676 Y164.551 E47.03402
G1 X288.664 Y164.878 E47.04762
G1 X288.631 Y165.411 E47.06982
G1 X288.611 Y165.642 E47.07946
G1 X288.549 Y166.195 E47.1026
G1 X288.518 Y166.418 E47.11196
G1 X288.434 Y166.929 E47.13349
G1 X288.385 Y167.189 E47.14449
G1 X288.272 Y167.718 E47.16698
G1 X288.211 Y167.971 E47.1778
G1 X288.091 Y168.424 E47.19728
G1 X288.03 Y168.636 E47.20645
G1 X287.852 Y169.196 E47.23088
G1 X287.765 Y169.446 E47.24189
G1 X287.587 Y169.922 E47.26301
G1 X287.501 Y170.136 E47.2726
G1 X287.293 Y170.619 E47.29447
G1 X287.184 Y170.856 E47.30531
G1 X286.965 Y171.303 E47.32601
G1 X286.86 Y171.506 E47.33551
G1 X286.581 Y172.012 E47.35953
G1 X286.45 Y172.235 E47.37028
G1 X286.139 Y172.733 E47.39469
G1 X286.001 Y172.941 E47.40507
G1 X285.724 Y173.339 E47.42523
G1 X285.575 Y173.543 E47.43574
G1 X285.298 Y173.905 E47.45469
G1 X285.168 Y174.068 E47.46335
G1 X284.819 Y174.484 E47.48593
G1 X284.644 Y174.682 E47.49692
G1 X284.259 Y175.095 E47.52039
G1 X284.096 Y175.261 E47.53006
G1 X283.783 Y175.567 E47.54826
G1 X283.62 Y175.72 E47.55756
G1 X283.156 Y176.132 E47.58335
G1 X282.925 Y176.325 E47.59587
G1 X282.459 Y176.692 E47.62053
G1 X282.4 Y176.736 E47.62359
G1 X281.936 Y177.064 E47.64721
G1 X281.387 Y177.43 E47.67465
G1 X280.621 Y177.895 E47.7119
G1 X280.42 Y178.006 E47.72145
G1 X279.931 Y178.26 E47.74436
G1 X279.736 Y178.355 E47.75337
G1 X279.239 Y178.582 E47.77609
G1 X278.983 Y178.691 E47.78766
G1 X278.506 Y178.881 E47.809
G1 X278.29 Y178.961 E47.81858
G1 X277.791 Y179.132 E47.84051
G1 X277.566 Y179.203 E47.85032
