;FLAVOR:Marlin
;TIME:8013
;Filament used: 5.61619m
;Layer height: 0.2
;MINX:93.75
;MINY:87.75
;MINZ:0.2
;MAXX:206.25
;MAXY:212.25
;MAXZ:10
;Generated with Cura_SteamEngine 4.10.0
M140 S60
M105
M190 S60
M104 S200
M105
M109 S200
M82 ;absolute extrusion mode
M201 X500.00 Y500.00 Z100.00 E5000.00 ;Setup machine max acceleration
M203 X500.00 Y500.00 Z10.00 E50.00 ;Setup machine max feedrate
M204 P500.00 R1000.00 T500.00 ;Setup Print/Retract/Travel acceleration
M205 X8.00 Y8.00 Z0.40 E5.00 ;Setup Jerk
M220 S100 ;Reset Feedrate
M221 S100 ;Reset Flowrate

G28 ;Home
G29 ;Auto bed Level

G92 E0 ;Reset Extruder
G1 Z2.0 F3000 ;Move Z Axis up
G1 X10.1 Y20 Z0.28 F5000.0 ;Move to start position
G1 X10.1 Y200.0 Z0.28 F1500.0 E15 ;Draw the first line
G1 X10.4 Y200.0 Z0.28 F5000.0 ;Move to side a little
G1 X10.4 Y20 Z0.28 F1500.0 E30 ;Draw the second line
G92 E0 ;Reset Extruder
G1 Z2.0 F3000 ;Move Z Axis up

G92 E0
G92 E0
G1 F2700 E-5
;LAYER_COUNT:50
;LAYER:0
M107
G0 F6000 X121.331 Y91.851 Z0.2
;TYPE:SKIRT
G1 F2700 E0
G1 F1200 X121.965 Y91.145 E0.03945
G1 X122.656 Y90.495 E0.07889
G1 X123.399 Y89.906 E0.11831
G1 X124.19 Y89.382 E0.15776
G1 X125.021 Y88.926 E0.19717
G1 X125.889 Y88.541 E0.23664
G1 X126.785 Y88.231 E0.27606
G1 X127.704 Y87.998 E0.31548
G1 X128.64 Y87.843 E0.35492
G1 X129.694 Y87.763 E0.39887
G1 X130.014 Y87.754 E0.41218
G1 X130.33 Y87.75 E0.42532
G1 X134.046 Y87.75 E0.57981
G1 X134.911 Y87.761 E0.61578
G1 X135.242 Y87.771 E0.62954
G1 X135.73 Y87.793 E0.64985
G1 X137.731 Y87.906 E0.73318
G1 X140.272 Y87.977 E0.83886
G1 X142.782 Y87.977 E0.94322
G1 X145.248 Y87.906 E1.04578
G1 X147.213 Y87.794 E1.12761
G1 X147.739 Y87.771 E1.1495
G1 X148.069 Y87.761 E1.16323
G1 X148.946 Y87.75 E1.19969
G1 X151.205 Y87.751 E1.29361
G1 X151.911 Y87.761 E1.32296
G1 X152.242 Y87.771 E1.33673
G1 X152.73 Y87.793 E1.35704
G1 X154.731 Y87.906 E1.44036
G1 X157.272 Y87.977 E1.54605
G1 X159.783 Y87.977 E1.65044
G1 X162.249 Y87.906 E1.75301
G1 X164.213 Y87.794 E1.8348
G1 X164.739 Y87.771 E1.85669
G1 X165.069 Y87.761 E1.87041
G1 X165.946 Y87.75 E1.90688
G1 X169.454 Y87.751 E2.05272
G1 X170.152 Y87.761 E2.08174
G1 X171.099 Y87.815 E2.12118
G1 X172.038 Y87.948 E2.16061
G1 X172.963 Y88.16 E2.20006
G1 X173.866 Y88.448 E2.23947
G1 X174.742 Y88.812 E2.27891
G1 X175.584 Y89.249 E2.31835
G1 X176.386 Y89.755 E2.35777
G1 X177.143 Y90.326 E2.39719
G1 X177.849 Y90.96 E2.43664
G1 X178.5 Y91.65 E2.47608
G1 X179.089 Y92.393 E2.5155
G1 X179.614 Y93.183 E2.55494
G1 X180.071 Y94.014 E2.59437
G1 X180.456 Y94.881 E2.63381
G1 X180.767 Y95.777 E2.67324
G1 X181.001 Y96.696 E2.71267
G1 X181.156 Y97.632 E2.75211
G1 X181.237 Y98.694 E2.79639
G1 X181.246 Y99.014 E2.8097
G1 X181.25 Y99.33 E2.82284
G1 X181.249 Y103.453 E2.99425
G1 X181.239 Y104.154 E3.0234
G1 X181.185 Y105.101 E3.06284
G1 X180.991 Y106.349 E3.11535
G1 X180.76 Y107.422 E3.16098
G1 X180.554 Y108.32 E3.19928
G1 X180.068 Y110.741 E3.30194
G1 X179.639 Y113.254 E3.40793
G1 X179.289 Y115.722 E3.51157
G1 X179.005 Y118.232 E3.61659
G1 X178.794 Y120.728 E3.72073
G1 X178.654 Y123.209 E3.82404
G1 X178.583 Y125.749 E3.92968
G1 X178.585 Y128.261 E4.03412
G1 X178.656 Y130.734 E4.13698
G1 X178.801 Y133.276 E4.24283
G1 X179.012 Y135.75 E4.34606
G1 X179.299 Y138.269 E4.45147
G1 X179.654 Y140.752 E4.55575
G1 X180.075 Y143.201 E4.65906
G1 X180.575 Y145.686 E4.76445
G1 X181.13 Y148.1 E4.86743
G1 X181.769 Y150.548 E4.97261
G1 X182.467 Y152.948 E5.07653
G1 X183.244 Y155.361 E5.18192
G1 X184.08 Y157.723 E5.28609
G1 X184.975 Y160.045 E5.38955
G1 X185.96 Y162.397 E5.49557
G1 X186.975 Y164.642 E5.598
G1 X188.086 Y166.926 E5.70359
G1 X189.243 Y169.14 E5.80745
G1 X190.471 Y171.338 E5.91213
G1 X191.762 Y173.502 E6.01689
G1 X193.097 Y175.603 E6.12038
G1 X194.513 Y177.698 E6.22551
G1 X195.972 Y179.73 E6.32951
G1 X197.486 Y181.717 E6.43337
G1 X199.053 Y183.661 E6.53718
G1 X200.703 Y185.588 E6.64265
G1 X202.986 Y188.086 E6.78335
G1 X203.17 Y188.281 E6.79449
G1 X203.791 Y188.998 E6.83393
G1 X204.349 Y189.765 E6.87336
G1 X204.84 Y190.576 E6.91278
G1 X205.262 Y191.426 E6.95223
G1 X205.61 Y192.308 E6.99165
G1 X205.883 Y193.216 E7.03107
G1 X206.079 Y194.145 E7.07055
G1 X206.195 Y195.086 E7.10997
G1 X206.23 Y195.779 E7.13881
G1 X206.248 Y196.71 E7.17753
G1 X206.25 Y197.28 E7.20123
G1 X206.243 Y197.898 E7.22692
G1 X206.231 Y198.297 E7.24352
G1 X206.202 Y198.9 E7.26862
G1 X206.117 Y199.845 E7.30806
G1 X205.995 Y200.575 E7.33883
G1 X205.898 Y201.058 E7.35932
G1 X205.576 Y202.294 E7.41242
G1 X205.508 Y202.505 E7.42163
G1 X205.096 Y203.587 E7.46977
G1 X204.978 Y203.855 E7.48194
G1 X204.533 Y204.756 E7.52372
G1 X204.394 Y205.008 E7.53569
G1 X203.801 Y205.966 E7.58253
G1 X203.636 Y206.205 E7.5946
G1 X203.163 Y206.841 E7.62756
G1 X203.067 Y206.961 E7.63395
G1 X202.249 Y207.876 E7.68497
G1 X201.915 Y208.211 E7.70464
G1 X200.95 Y209.074 E7.75846
G1 X200.745 Y209.237 E7.76935
G1 X199.843 Y209.884 E7.8155
G1 X199.609 Y210.035 E7.82708
G1 X198.705 Y210.56 E7.87054
G1 X198.44 Y210.698 E7.88297
G1 X197.403 Y211.173 E7.93039
G1 X197.119 Y211.286 E7.94309
G1 X196.005 Y211.663 E7.99199
G1 X195.724 Y211.742 E8.00412
G1 X194.723 Y211.975 E8.04685
G1 X194.447 Y212.026 E8.05852
G1 X193.508 Y212.159 E8.09795
G1 X192.938 Y212.2 E8.12171
G1 X192.287 Y212.231 E8.14881
G1 X191.913 Y212.243 E8.16436
G1 X191.334 Y212.25 E8.18844
G1 X108.504 Y212.249 E11.63211
G1 X108.086 Y212.243 E11.64949
G1 X107.726 Y212.232 E11.66446
G1 X107.122 Y212.204 E11.6896
G1 X106.177 Y212.12 E11.72904
G1 X105.428 Y211.996 E11.76061
G1 X104.94 Y211.898 E11.7813
G1 X103.674 Y211.566 E11.83572
G1 X103.465 Y211.498 E11.84485
G1 X102.413 Y211.096 E11.89168
G1 X102.145 Y210.978 E11.90385
G1 X101.241 Y210.531 E11.94578
G1 X100.991 Y210.393 E11.95765
G1 X100.071 Y209.826 E12.00258
G1 X99.833 Y209.663 E12.01457
G1 X99.128 Y209.138 E12.05112
G1 X99.004 Y209.038 E12.05774
G1 X98.123 Y208.248 E12.10694
G1 X97.783 Y207.909 E12.1269
G1 X96.899 Y206.916 E12.18217
G1 X96.756 Y206.735 E12.19176
G1 X96.166 Y205.916 E12.23373
G1 X96 Y205.662 E12.24634
G1 X95.452 Y204.729 E12.29133
G1 X95.321 Y204.479 E12.30306
G1 X94.833 Y203.417 E12.35165
G1 X94.714 Y203.118 E12.36503
G1 X94.337 Y202.004 E12.41393
G1 X94.256 Y201.716 E12.42637
G1 X94.024 Y200.716 E12.46905
G1 X93.975 Y200.451 E12.48025
G1 X93.842 Y199.511 E12.51972
G1 X93.8 Y198.948 E12.54319
G1 X93.769 Y198.307 E12.56987
G1 X93.757 Y197.903 E12.58668
G1 X93.75 Y197.28 E12.61258
G1 X93.751 Y196.547 E12.64305
G1 X93.761 Y195.844 E12.67228
G1 X93.815 Y194.897 E12.71172
G1 X93.948 Y193.958 E12.75115
G1 X94.159 Y193.033 E12.79059
G1 X94.448 Y192.13 E12.83001
G1 X94.812 Y191.254 E12.86945
G1 X95.248 Y190.412 E12.90887
G1 X95.754 Y189.61 E12.9483
G1 X96.326 Y188.853 E12.98774
G1 X96.772 Y188.343 E13.01591
G1 X97.588 Y187.465 E13.06574
G1 X99.341 Y185.529 E13.17433
G1 X100.96 Y183.632 E13.27801
G1 X102.533 Y181.682 E13.38217
G1 X104.059 Y179.675 E13.487
G1 X105.537 Y177.616 E13.59237
G1 X106.92 Y175.568 E13.69511
G1 X108.278 Y173.428 E13.80049
G1 X109.543 Y171.304 E13.90327
G1 X110.79 Y169.069 E14.00967
G1 X111.941 Y166.861 E14.11319
G1 X113.045 Y164.591 E14.21814
G1 X114.067 Y162.325 E14.32149
G1 X115.038 Y160.005 E14.42605
G1 X115.949 Y157.642 E14.53134
G1 X116.778 Y155.286 E14.63518
G1 X117.549 Y152.888 E14.7399
G1 X118.243 Y150.498 E14.84337
G1 X118.878 Y148.051 E14.94847
G1 X119.445 Y145.589 E15.05351
G1 X119.934 Y143.153 E15.15681
G1 X120.358 Y140.666 E15.2617
G1 X120.71 Y138.19 E15.36567
G1 X120.991 Y135.716 E15.46919
G1 X121.205 Y133.189 E15.57463
G1 X121.346 Y130.706 E15.67802
G1 X121.417 Y128.17 E15.7835
G1 X121.417 Y125.66 E15.88785
G1 X121.346 Y123.18 E15.991
G1 X121.202 Y120.639 E16.09681
G1 X120.993 Y118.182 E16.19933
G1 X120.707 Y115.672 E16.30436
G1 X120.349 Y113.158 E16.40994
G1 X119.93 Y110.714 E16.51303
G1 X119.427 Y108.211 E16.61917
G1 X119.111 Y106.794 E16.67953
G1 X119.059 Y106.573 E16.68897
G1 X118.881 Y105.642 E16.72838
G1 X118.767 Y104.366 E16.78164
G1 X118.757 Y104.057 E16.79449
G1 X118.751 Y103.696 E16.8095
G1 X118.751 Y99.505 E16.98374
G1 X118.761 Y98.84 E17.0114
G1 X118.815 Y97.893 E17.05083
G1 X118.949 Y96.954 E17.09027
G1 X119.162 Y96.03 E17.12969
G1 X119.451 Y95.126 E17.16915
G1 X119.816 Y94.251 E17.20856
G1 X120.253 Y93.409 E17.248
G1 X120.759 Y92.607 E17.28743
G1 X121.331 Y91.851 E17.32684
G0 F6000 X121.824 Y92.041
G1 F1200 X122.455 Y91.361 E17.36541
G1 X123.142 Y90.739 E17.40394
G1 X123.88 Y90.178 E17.44248
G1 X124.664 Y89.683 E17.48103
G1 X125.488 Y89.257 E17.51959
G1 X126.345 Y88.903 E17.55814
G1 X127.229 Y88.625 E17.59667
G1 X128.134 Y88.424 E17.63521
G1 X129.053 Y88.302 E17.67376
G1 X129.708 Y88.263 E17.70104
G1 X130.028 Y88.254 E17.71434
G1 X130.33 Y88.25 E17.7269
G1 X134.046 Y88.25 E17.88139
G1 X134.904 Y88.261 E17.91707
G1 X135.22 Y88.27 E17.93021
G1 X135.702 Y88.292 E17.95027
G1 X137.724 Y88.406 E18.03447
G1 X140.258 Y88.477 E18.13986
G1 X142.762 Y88.477 E18.24397
G1 X145.325 Y88.404 E18.35057
G1 X147.391 Y88.286 E18.4366
G1 X147.761 Y88.27 E18.452
G1 X148.076 Y88.261 E18.4651
G1 X148.946 Y88.25 E18.50127
G1 X151.198 Y88.251 E18.5949
G1 X151.904 Y88.261 E18.62426
G1 X152.22 Y88.27 E18.6374
G1 X152.702 Y88.292 E18.65746
G1 X154.724 Y88.406 E18.74166
G1 X157.258 Y88.477 E18.84705
G1 X159.762 Y88.477 E18.95116
G1 X162.326 Y88.404 E19.0578
G1 X164.391 Y88.286 E19.14379
G1 X164.761 Y88.27 E19.15919
G1 X165.076 Y88.261 E19.17229
G1 X165.946 Y88.25 E19.20846
G1 X169.447 Y88.251 E19.35402
G1 X170.145 Y88.261 E19.38304
G1 X171.071 Y88.314 E19.4216
G1 X171.988 Y88.447 E19.46012
G1 X172.891 Y88.659 E19.49869
G1 X173.772 Y88.947 E19.53722
G1 X174.625 Y89.31 E19.57576
G1 X175.444 Y89.746 E19.61434
G1 X176.222 Y90.25 E19.65288
G1 X176.953 Y90.819 E19.69139
G1 X177.633 Y91.45 E19.72996
G1 X178.256 Y92.136 E19.76849
G1 X178.818 Y92.874 E19.80705
G1 X179.314 Y93.657 E19.84559
G1 X179.74 Y94.481 E19.88415
G1 X180.094 Y95.337 E19.92266
G1 X180.373 Y96.222 E19.96124
G1 X180.575 Y97.127 E19.99979
G1 X180.698 Y98.046 E20.03834
G1 X180.737 Y98.708 E20.06591
G1 X180.746 Y99.028 E20.07922
G1 X180.75 Y99.33 E20.09178
G1 X180.749 Y103.446 E20.2629
G1 X180.739 Y104.147 E20.29205
G1 X180.686 Y105.073 E20.33061
G1 X180.502 Y106.244 E20.37989
G1 X180.273 Y107.31 E20.42522
G1 X180.066 Y108.211 E20.46366
G1 X179.575 Y110.657 E20.56738
G1 X179.145 Y113.176 E20.67362
G1 X178.792 Y115.661 E20.77797
G1 X178.508 Y118.169 E20.88291
G1 X178.295 Y120.693 E20.98822
G1 X178.154 Y123.202 E21.0927
G1 X178.083 Y125.736 E21.19809
G1 X178.085 Y128.24 E21.30219
G1 X178.158 Y130.778 E21.40775
G1 X178.302 Y133.309 E21.51315
G1 X178.516 Y135.817 E21.6178
G1 X178.802 Y138.321 E21.72258
G1 X179.156 Y140.802 E21.82677
G1 X179.589 Y143.32 E21.933
G1 X180.085 Y145.785 E22.03753
G1 X180.647 Y148.233 E22.14196
G1 X181.286 Y150.677 E22.24698
G1 X181.992 Y153.105 E22.35211
G1 X182.764 Y155.503 E22.45685
G1 X183.609 Y157.891 E22.56216
G1 X184.519 Y160.251 E22.66732
G1 X185.492 Y162.574 E22.77203
G1 X186.538 Y164.887 E22.87757
G1 X187.627 Y167.125 E22.98104
G1 X188.818 Y169.406 E23.08802
G1 X190.036 Y171.586 E23.19184
G1 X191.326 Y173.748 E23.29651
G1 X192.677 Y175.874 E23.40124
G1 X194.097 Y177.976 E23.5067
G1 X195.585 Y180.047 E23.61273
G1 X197.094 Y182.027 E23.71623
G1 X198.671 Y183.983 E23.82069
G1 X200.323 Y185.912 E23.92627
G1 X202.638 Y188.446 E24.06897
G1 X202.806 Y188.624 E24.07915
G1 X203.412 Y189.326 E24.1177
G1 X203.956 Y190.077 E24.15626
G1 X204.432 Y190.872 E24.19478
G1 X204.839 Y191.705 E24.23333
G1 X205.172 Y192.571 E24.2719
G1 X205.429 Y193.461 E24.31041
G1 X205.608 Y194.371 E24.34897
G1 X205.709 Y195.293 E24.38753
G1 X205.73 Y195.788 E24.40813
G1 X205.748 Y196.719 E24.44685
G1 X205.75 Y197.28 E24.47017
G1 X205.743 Y197.892 E24.49562
G1 X205.732 Y198.273 E24.51146
G1 X205.703 Y198.876 E24.53656
G1 X205.618 Y199.8 E24.57514
G1 X205.505 Y200.477 E24.60367
G1 X205.408 Y200.96 E24.62416
G1 X205.1 Y202.14 E24.67486
G1 X205.032 Y202.351 E24.68407
G1 X204.639 Y203.386 E24.7301
G1 X204.521 Y203.654 E24.74228
G1 X204.095 Y204.514 E24.78218
G1 X203.956 Y204.766 E24.79414
G1 X203.39 Y205.681 E24.83887
G1 X203.225 Y205.92 E24.85095
G1 X202.772 Y206.528 E24.88247
G1 X202.676 Y206.648 E24.88886
G1 X201.895 Y207.523 E24.93762
G1 X201.561 Y207.858 E24.95729
G1 X200.638 Y208.682 E25.00873
G1 X200.433 Y208.845 E25.01962
G1 X199.572 Y209.464 E25.06371
G1 X199.338 Y209.615 E25.07528
G1 X198.474 Y210.117 E25.11683
G1 X198.209 Y210.255 E25.12925
G1 X197.218 Y210.708 E25.17455
G1 X196.934 Y210.821 E25.18726
G1 X195.869 Y211.182 E25.23401
G1 X195.588 Y211.261 E25.24615
G1 X194.632 Y211.483 E25.28695
G1 X194.356 Y211.534 E25.29862
G1 X193.438 Y211.663 E25.33716
G1 X192.914 Y211.701 E25.359
G1 X192.263 Y211.732 E25.3861
G1 X191.906 Y211.743 E25.40095
G1 X191.334 Y211.75 E25.42473
G1 X108.511 Y211.749 E28.86811
G1 X108.093 Y211.743 E28.88549
G1 X107.749 Y211.732 E28.8998
G1 X107.145 Y211.704 E28.92494
G1 X106.222 Y211.622 E28.96346
G1 X105.526 Y211.506 E28.9928
G1 X105.038 Y211.408 E29.01349
G1 X103.829 Y211.091 E29.06546
G1 X103.62 Y211.023 E29.07459
G1 X102.614 Y210.639 E29.11936
G1 X102.346 Y210.521 E29.13154
G1 X101.483 Y210.093 E29.17159
G1 X101.233 Y209.955 E29.18346
G1 X100.354 Y209.413 E29.22639
G1 X100.116 Y209.25 E29.23838
G1 X99.442 Y208.749 E29.2733
G1 X99.318 Y208.649 E29.27992
G1 X98.476 Y207.894 E29.32694
G1 X98.136 Y207.555 E29.3469
G1 X97.291 Y206.606 E29.39973
G1 X97.148 Y206.425 E29.40932
G1 X96.584 Y205.642 E29.44944
G1 X96.418 Y205.388 E29.46206
G1 X95.895 Y204.496 E29.50504
G1 X95.764 Y204.246 E29.51678
G1 X95.298 Y203.232 E29.56318
G1 X95.179 Y202.933 E29.57655
G1 X94.819 Y201.869 E29.62325
G1 X94.738 Y201.581 E29.63569
G1 X94.515 Y200.625 E29.6765
G1 X94.466 Y200.36 E29.68771
G1 X94.337 Y199.441 E29.72629
G1 X94.3 Y198.924 E29.74784
G1 X94.269 Y198.283 E29.77452
G1 X94.257 Y197.897 E29.79058
G1 X94.25 Y197.28 E29.81623
G1 X94.251 Y196.554 E29.84641
G1 X94.261 Y195.851 E29.87564
G1 X94.314 Y194.925 E29.91421
G1 X94.447 Y194.008 E29.95273
G1 X94.658 Y193.105 E29.99128
G1 X94.947 Y192.224 E30.02983
G1 X95.31 Y191.371 E30.06837
G1 X95.745 Y190.552 E30.10693
G1 X96.249 Y189.774 E30.14547
G1 X96.819 Y189.042 E30.18404
G1 X97.138 Y188.683 E30.20401
G1 X97.972 Y187.786 E30.25493
G1 X99.72 Y185.855 E30.36322
G1 X101.343 Y183.954 E30.46714
G1 X102.933 Y181.982 E30.57245
G1 X104.447 Y179.992 E30.67641
G1 X105.952 Y177.893 E30.78379
G1 X107.34 Y175.839 E30.88686
G1 X108.697 Y173.699 E30.99221
G1 X109.992 Y171.525 E31.09741
G1 X111.215 Y169.334 E31.20173
G1 X112.394 Y167.073 E31.30775
G1 X113.482 Y164.834 E31.41124
G1 X114.536 Y162.501 E31.51768
G1 X115.506 Y160.18 E31.62226
G1 X116.421 Y157.808 E31.72796
G1 X117.248 Y155.458 E31.83153
G1 X118.024 Y153.043 E31.93699
G1 X118.729 Y150.617 E32.04203
G1 X119.365 Y148.168 E32.14722
G1 X119.925 Y145.736 E32.25098
G1 X120.428 Y143.23 E32.35724
G1 X120.852 Y140.749 E32.46189
G1 X121.208 Y138.242 E32.56716
G1 X121.487 Y135.78 E32.67018
G1 X121.704 Y133.226 E32.77674
G1 X121.846 Y130.713 E32.88139
G1 X121.917 Y128.184 E32.98657
G1 X121.917 Y125.681 E33.09063
G1 X121.844 Y123.136 E33.19649
G1 X121.701 Y120.606 E33.30184
G1 X121.489 Y118.116 E33.40574
G1 X121.204 Y115.615 E33.51039
G1 X120.843 Y113.079 E33.61689
G1 X120.418 Y110.603 E33.72133
G1 X119.923 Y108.138 E33.82586
G1 X119.599 Y106.685 E33.88775
G1 X119.546 Y106.459 E33.8974
G1 X119.373 Y105.548 E33.93596
G1 X119.267 Y104.35 E33.98596
G1 X119.257 Y104.041 E33.99881
G1 X119.251 Y103.696 E34.01316
G1 X119.251 Y99.512 E34.18711
G1 X119.261 Y98.847 E34.21476
G1 X119.315 Y97.922 E34.25328
G1 X119.449 Y97.004 E34.29185
G1 X119.661 Y96.102 E34.33037
G1 X119.95 Y95.221 E34.36892
G1 X120.313 Y94.368 E34.40746
G1 X120.749 Y93.55 E34.446
G1 X121.254 Y92.772 E34.48456
G1 X121.824 Y92.041 E34.5231
G0 F6000 X122.317 Y92.236
G1 F1200 X122.944 Y91.584 E34.56071
G1 X123.627 Y90.989 E34.59837
G1 X124.36 Y90.457 E34.63602
G1 X125.136 Y89.992 E34.67363
G1 X125.951 Y89.597 E34.71129
G1 X126.797 Y89.276 E34.74891
G1 X127.669 Y89.03 E34.78658
G1 X128.558 Y88.862 E34.82419
G1 X129.722 Y88.763 E34.87276
G1 X130.042 Y88.754 E34.88607
G1 X130.33 Y88.75 E34.89804
G1 X134.046 Y88.75 E35.05254
