;FLAVOR:Marlin
;TIME:15921
;Filament used: 12.029m
;Layer height: 0.2
;MINX:15.704
;MINY:113.334
;MINZ:0.2
;MAXX:284.298
;MAXY:186.747
;MAXZ:11.4
;Generated with Cura_SteamEngine 4.11.0
M140 S60
M105
M190 S60
M104 S210
M105
M109 S210
M82 ;absolute extrusion mode
M201 X500.00 Y500.00 Z100.00 E5000.00 ;Setup machine max acceleration
M203 X500.00 Y500.00 Z10.00 E50.00 ;Setup machine max feedrate
M204 P500.00 R1000.00 T500.00 ;Setup Print/Retract/Travel acceleration
M205 X8.00 Y8.00 Z0.40 E5.00 ;Setup Jerk
M220 S100 ;Reset Feedrate
M221 S100 ;Reset Flowrate

G28 ;Home
G29 ;Auto bed Level

G92 E0 ;Reset Extruder
G1 Z2.0 F3000 ;Move Z Axis up
G1 X10.1 Y20 Z0.28 F5000.0 ;Move to start position
G1 X10.1 Y200.0 Z0.28 F1500.0 E15 ;Draw the first line
G1 X10.4 Y200.0 Z0.28 F5000.0 ;Move to side a little
G1 X10.4 Y20 Z0.28 F1500.0 E30 ;Draw the second line
G92 E0 ;Reset Extruder
G1 Z2.0 F3000 ;Move Z Axis up

G92 E0
G92 E0
G1 F2700 E-5
;LAYER_COUNT:58
;LAYER:0
M107
G0 F6000 X28.574 Y113.687 Z0.2
;TYPE:SKIRT
G1 F2700 E0
G1 F1200 X29.502 Y113.49 E0.03944
G1 X30.443 Y113.372 E0.07887
G1 X31.391 Y113.334 E0.11832
G1 X32.338 Y113.376 E0.15773
G1 X33.279 Y113.497 E0.19717
G1 X34.255 Y113.71 E0.2387
G1 X34.957 Y113.896 E0.2689
G1 X37.462 Y114.521 E0.37623
G1 X39.957 Y115.07 E0.48245
G1 X42.38 Y115.529 E0.58497
G1 X44.884 Y115.932 E0.69042
G1 X47.358 Y116.259 E0.79417
G1 X49.827 Y116.514 E0.89736
G1 X52.366 Y116.704 E1.00322
G1 X54.838 Y116.819 E1.1061
G1 X57.846 Y116.867 E1.23118
G1 X125.064 Y116.867 E4.02578
G1 X127.661 Y116.83 E4.13376
G1 X130.167 Y116.724 E4.23804
G1 X132.688 Y116.545 E4.34311
G1 X135.166 Y116.3 E4.44664
G1 X137.649 Y115.982 E4.55071
G1 X140.169 Y115.586 E4.65677
G1 X142.547 Y115.144 E4.75733
G1 X146.149 Y114.347 E4.9107
G1 X147.268 Y114.076 E4.95857
G1 X147.55 Y114.012 E4.97059
G1 X147.908 Y113.935 E4.98582
G1 X148.843 Y113.774 E5.02526
G1 X149.788 Y113.693 E5.0647
G1 X150.737 Y113.693 E5.10415
G1 X151.682 Y113.771 E5.14357
G1 X152.913 Y113.997 E5.19561
G1 X154.219 Y114.313 E5.25147
G1 X154.504 Y114.386 E5.2637
G1 X156.96 Y114.942 E5.36839
G1 X159.469 Y115.438 E5.47473
G1 X161.863 Y115.837 E5.57563
G1 X164.407 Y116.19 E5.68241
G1 X166.862 Y116.461 E5.7851
G1 X169.4 Y116.668 E5.89097
G1 X171.84 Y116.796 E5.99255
G1 X175.454 Y116.867 E6.14283
G1 X242.978 Y116.867 E8.95015
G1 X245.576 Y116.83 E9.05817
G1 X248.081 Y116.724 E9.16241
G1 X250.599 Y116.545 E9.26736
G1 X253.082 Y116.299 E9.3711
G1 X255.557 Y115.982 E9.47484
G1 X258.059 Y115.589 E9.58014
G1 X260.54 Y115.128 E9.68505
G1 X262.942 Y114.611 E9.7872
G1 X265.569 Y113.967 E9.89965
G1 X266.399 Y113.751 E9.93531
G1 X267.327 Y113.551 E9.97478
G1 X268.267 Y113.431 E10.01417
G1 X268.884 Y113.395 E10.03987
G1 X269.081 Y113.389 E10.04806
G1 X269.597 Y113.385 E10.06952
G1 X269.985 Y113.391 E10.08565
G1 X270.932 Y113.446 E10.12509
G1 X271.871 Y113.58 E10.16452
G1 X272.822 Y113.8 E10.20511
G1 X272.858 Y113.81 E10.20666
G1 X273.76 Y114.103 E10.24609
G1 X274.635 Y114.47 E10.28554
G1 X275.486 Y114.915 E10.32546
G1 X276.092 Y115.266 E10.35458
G1 X276.384 Y115.442 E10.36875
G1 X276.882 Y115.751 E10.39312
G1 X277.667 Y116.284 E10.43257
G1 X278.433 Y116.909 E10.47367
G1 X278.634 Y117.088 E10.48486
G1 X278.851 Y117.287 E10.4971
G1 X279.275 Y117.685 E10.52128
G1 X279.437 Y117.84 E10.5306
G1 X279.956 Y118.347 E10.56076
G1 X280.606 Y119.037 E10.60018
G1 X281.196 Y119.78 E10.63962
G1 X281.72 Y120.571 E10.67907
G1 X282.047 Y121.147 E10.7066
G1 X282.455 Y122.004 E10.74607
G1 X282.786 Y122.784 E10.78129
G1 X282.94 Y123.165 E10.79838
G1 X283.194 Y123.81 E10.8272
G1 X283.504 Y124.706 E10.86662
G1 X283.664 Y125.299 E10.89215
G1 X283.762 Y125.727 E10.91041
G1 X283.882 Y126.303 E10.93487
G1 X283.982 Y126.808 E10.95627
G1 X284.115 Y127.534 E10.98696
G1 X284.246 Y128.473 E11.02638
G1 X284.298 Y129.42 E11.06581
G1 X284.255 Y130.552 E11.1129
G1 X284.014 Y133.276 E11.2266
G1 X283.868 Y135.746 E11.32947
G1 X283.789 Y138.298 E11.43562
G1 X283.782 Y140.809 E11.54001
G1 X283.845 Y143.283 E11.6429
G1 X283.981 Y145.798 E11.74762
G1 X284.227 Y148.641 E11.86626
G1 X284.262 Y149.082 E11.88465
G1 X284.297 Y150.004 E11.92301
G1 X284.249 Y151.042 E11.96621
G1 X284.163 Y151.967 E12.00483
G1 X283.963 Y154.507 E12.11076
G1 X283.835 Y157.038 E12.21612
G1 X283.779 Y159.533 E12.31988
G1 X283.795 Y162.08 E12.42577
G1 X283.88 Y164.553 E12.52865
G1 X284.039 Y167.083 E12.63404
G1 X284.24 Y169.295 E12.72638
G1 X284.26 Y169.546 E12.73685
G1 X284.296 Y170.494 E12.7763
G1 X284.225 Y171.7 E12.82652
G1 X284.217 Y171.771 E12.82949
G1 X283.987 Y173.096 E12.8854
G1 X283.81 Y173.838 E12.91712
G1 X283.707 Y174.239 E12.93433
G1 X283.518 Y174.945 E12.96472
G1 X283.241 Y175.833 E13.00339
G1 X283.17 Y176.031 E13.01213
G1 X283.05 Y176.35 E13.0263
G1 X282.844 Y176.874 E13.04971
G1 X282.754 Y177.095 E13.05963
G1 X282.477 Y177.758 E13.08951
G1 X282.075 Y178.617 E13.12894
G1 X281.602 Y179.439 E13.16837
G1 X281.061 Y180.218 E13.2078
G1 X280.45 Y180.957 E13.24766
G1 X280.053 Y181.397 E13.2723
G1 X279.837 Y181.63 E13.28551
G1 X279.415 Y182.072 E13.31092
G1 X278.732 Y182.73 E13.35035
G1 X277.743 Y183.51 E13.40271
G1 X277.366 Y183.768 E13.42171
G1 X276.878 Y184.089 E13.44599
G1 X276.663 Y184.227 E13.45661
G1 X276.07 Y184.598 E13.48569
G1 X275.245 Y185.067 E13.52515
G1 X274.384 Y185.465 E13.56458
G1 X273.493 Y185.788 E13.60399
G1 X272.23 Y186.108 E13.65815
G1 X271.24 Y186.297 E13.70006
G1 X271.106 Y186.32 E13.70571
G1 X270.256 Y186.486 E13.74172
G1 X269.912 Y186.547 E13.75624
G1 X269.728 Y186.577 E13.76399
G1 X268.787 Y186.69 E13.8034
G1 X267.95 Y186.724 E13.83822
G1 X266.396 Y186.727 E13.90283
G1 X266.259 Y186.726 E13.90853
G1 X264.677 Y186.747 E13.9743
G1 X264.308 Y186.746 E13.98965
G1 X264.068 Y186.741 E13.99963
G1 X263.118 Y186.708 E14.03915
G1 X261.988 Y186.654 E14.08618
G1 X259.478 Y186.605 E14.19055
G1 X256.869 Y186.629 E14.29903
G1 X256.595 Y186.636 E14.31042
G1 X255.619 Y186.617 E14.35101
G1 X254.605 Y186.553 E14.39325
G1 X253.677 Y186.482 E14.43194
G1 X251.128 Y186.36 E14.53804
G1 X248.975 Y186.312 E14.62757
G1 X248.444 Y186.307 E14.64965
G1 X247.496 Y186.258 E14.68912
G1 X246.557 Y186.129 E14.72852
G1 X245.425 Y185.864 E14.77686
G1 X245.311 Y185.831 E14.78179
G1 X244.881 Y185.698 E14.80051
G1 X244.425 Y185.546 E14.82049
G1 X244.205 Y185.47 E14.83017
G1 X243.4 Y185.183 E14.8657
G1 X242.521 Y184.827 E14.90513
G1 X241.675 Y184.398 E14.94456
G1 X241.084 Y184.043 E14.97322
G1 X240.317 Y183.547 E15.0112
G1 X239.311 Y182.88 E15.06138
G1 X237.191 Y181.559 E15.16523
G1 X235.022 Y180.292 E15.26967
G1 X232.829 Y179.092 E15.3736
G1 X230.582 Y177.944 E15.4785
G1 X228.317 Y176.867 E15.58277
G1 X226.007 Y175.847 E15.68776
G1 X223.682 Y174.898 E15.79216
G1 X221.355 Y174.025 E15.89549
G1 X218.971 Y173.207 E16.00028
G1 X216.573 Y172.458 E16.10473
G1 X214.153 Y171.777 E16.20925
G1 X211.724 Y171.167 E16.31337
G1 X209.241 Y170.616 E16.41911
G1 X206.81 Y170.152 E16.52201
G1 X204.351 Y169.752 E16.62558
G1 X201.841 Y169.416 E16.73087
G1 X199.329 Y169.153 E16.83588
G1 X196.849 Y168.963 E16.93928
G1 X194.341 Y168.842 E17.04368
G1 X191.838 Y168.793 E17.14776
G1 X189.288 Y168.815 E17.25378
G1 X186.817 Y168.906 E17.35658
G1 X184.299 Y169.07 E17.46149
G1 X181.8 Y169.303 E17.56584
G1 X179.323 Y169.607 E17.66959
G1 X176.844 Y169.981 E17.77382
G1 X174.171 Y170.464 E17.88675
G1 X173.806 Y170.535 E17.90221
G1 X172.869 Y170.678 E17.94162
G1 X171.922 Y170.741 E17.98108
G1 X170.798 Y170.712 E18.02782
G1 X168.199 Y170.515 E18.13619
G1 X165.716 Y170.396 E18.23954
G1 X163.161 Y170.346 E18.34578
G1 X162.38 Y170.349 E18.37825
G1 X162.117 Y170.347 E18.38919
G1 X161.637 Y170.334 E18.40915
G1 X160.52 Y170.284 E18.45564
G1 X157.914 Y170.202 E18.56403
G1 X155.404 Y170.194 E18.66839
G1 X152.93 Y170.257 E18.77128
G1 X152.165 Y170.297 E18.80313
G1 X151.136 Y170.336 E18.84594
G1 X150.205 Y170.333 E18.88464
G1 X148.922 Y170.275 E18.93804
G1 X148.747 Y170.276 E18.94532
G1 X147.486 Y170.218 E18.9978
G1 X144.985 Y170.175 E19.10179
G1 X142.474 Y170.203 E19.20619
G1 X139.927 Y170.303 E19.31217
G1 X139.487 Y170.33 E19.3305
G1 X139.171 Y170.345 E19.34365
G1 X138.956 Y170.352 E19.35259
G1 X137.883 Y170.336 E19.39721
G1 X137.74 Y170.327 E19.40316
G1 X137.058 Y170.263 E19.43164
G1 X136.648 Y170.212 E19.44882
G1 X135.398 Y169.984 E19.50165
G1 X134.088 Y169.667 E19.55768
G1 X133.882 Y169.614 E19.56652
G1 X131.445 Y169.062 E19.67041
G1 X128.927 Y168.564 E19.77712
G1 X126.511 Y168.161 E19.87896
G1 X124.008 Y167.813 E19.98402
G1 X121.534 Y167.54 E20.0875
G1 X119.007 Y167.334 E20.19291
G1 X116.54 Y167.202 E20.29562
G1 X112.927 Y167.132 E20.44586
G1 X72.899 Y167.132 E22.11003
G1 X70.301 Y167.169 E22.21806
G1 X67.796 Y167.275 E22.3223
G1 X65.278 Y167.454 E22.42725
G1 X62.795 Y167.7 E22.53098
G1 X60.32 Y168.017 E22.63472
G1 X57.818 Y168.41 E22.74002
G1 X55.337 Y168.871 E22.84493
G1 X52.964 Y169.382 E22.94585
G1 X51.689 Y169.701 E23.00049
G1 X51.433 Y169.754 E23.01136
G1 X50.23 Y170.044 E23.06281
G1 X49.299 Y170.227 E23.10226
G1 X48.356 Y170.332 E23.14171
G1 X47.1 Y170.347 E23.19393
G1 X45.49 Y170.276 E23.26093
G1 X45.266 Y170.263 E23.27026
G1 X42.782 Y170.191 E23.37357
G1 X40.271 Y170.189 E23.47797
G1 X37.737 Y170.259 E23.58336
G1 X35.268 Y170.398 E23.68617
G1 X32.463 Y170.641 E23.80323
G1 X31.917 Y170.675 E23.82597
G1 X31.732 Y170.682 E23.83367
G1 X30.784 Y170.678 E23.87308
G1 X29.839 Y170.594 E23.91253
G1 X28.667 Y170.376 E23.96209
G1 X28.464 Y170.327 E23.97077
G1 X28.183 Y170.255 E23.98283
G1 X27.878 Y170.173 E23.99596
G1 X27.628 Y170.103 E24.00675
G1 X27.097 Y169.947 E24.02976
G1 X26.461 Y169.739 E24.05758
G1 X25.688 Y169.461 E24.09174
G1 X25.337 Y169.328 E24.10734
G1 X24.887 Y169.149 E24.12748
G1 X24.021 Y168.762 E24.16691
G1 X23.191 Y168.303 E24.20634
G1 X22.403 Y167.776 E24.24576
G1 X21.416 Y166.964 E24.29889
G1 X20.859 Y166.45 E24.3304
G1 X20.644 Y166.246 E24.34273
G1 X20.059 Y165.677 E24.37665
G1 X19.408 Y164.988 E24.41606
G1 X18.817 Y164.246 E24.4555
G1 X18.29 Y163.457 E24.49495
G1 X17.7 Y162.352 E24.54703
G1 X17.602 Y162.141 E24.5567
G1 X17.465 Y161.834 E24.57068
G1 X17.306 Y161.462 E24.5875
G1 X17.105 Y160.979 E24.60925
G1 X16.857 Y160.364 E24.63682
G1 X16.54 Y159.471 E24.67621
G1 X16.344 Y158.752 E24.7072
G1 X16.125 Y157.828 E24.74668
G1 X16.047 Y157.47 E24.76191
G1 X15.95 Y156.992 E24.78219
G1 X15.8 Y156.056 E24.8216
G1 X15.731 Y155.11 E24.86103
G1 X15.735 Y154.289 E24.89517
G1 X15.848 Y151.565 E25.00851
G1 X15.892 Y148.578 E25.13271
G1 X15.919 Y147.957 E25.15856
G1 X16.026 Y146.47 E25.22054
G1 X16.045 Y146.246 E25.22988
G1 X16.184 Y143.716 E25.33523
G1 X16.252 Y141.208 E25.43954
G1 X16.248 Y138.698 E25.54389
G1 X16.174 Y136.189 E25.64825
G1 X16.029 Y133.697 E25.75203
G1 X15.748 Y130.525 E25.88442
G1 X15.704 Y129.577 E25.92388
G1 X15.74 Y128.629 E25.96332
G1 X15.929 Y127.294 E26.01937
G1 X15.956 Y127.161 E26.02502
G1 X16.03 Y126.822 E26.03944
G1 X16.16 Y126.276 E26.06278
G1 X16.297 Y125.729 E26.08622
G1 X16.471 Y125.073 E26.11444
G1 X16.858 Y123.885 E26.16638
G1 X17.151 Y123.134 E26.1999
G1 X17.269 Y122.847 E26.2128
G1 X17.521 Y122.247 E26.23986
G1 X17.925 Y121.388 E26.27932
G1 X18.399 Y120.567 E26.31874
G1 X18.941 Y119.789 E26.35816
G1 X19.547 Y119.059 E26.3976
G1 X20.016 Y118.571 E26.42574
G1 X20.773 Y117.831 E26.46975
G1 X21.031 Y117.588 E26.48449
G1 X21.541 Y117.119 E26.51329
G1 X22.265 Y116.507 E26.55271
G1 X23.039 Y115.958 E26.59216
G1 X23.856 Y115.477 E26.63158
G1 X24.421 Y115.195 E26.65783
G1 X25.018 Y114.918 E26.68519
G1 X25.299 Y114.792 E26.69799
G1 X25.851 Y114.554 E26.72299
G1 X27.147 Y114.087 E26.78026
G1 X27.913 Y113.863 E26.81344
G1 X28.274 Y113.764 E26.829
G1 X28.574 Y113.687 E26.84188
G0 F6000 X28.698 Y114.172
G1 F1200 X29.606 Y113.98 E26.88046
G1 X30.526 Y113.867 E26.919
G1 X31.452 Y113.834 E26.95752
G1 X32.378 Y113.881 E26.99607
G1 X33.297 Y114.008 E27.03464
G1 X34.127 Y114.193 E27.07
G1 X34.845 Y114.383 E27.10087
G1 X37.373 Y115.014 E27.2092
G1 X39.829 Y115.555 E27.31376
G1 X42.319 Y116.026 E27.41912
G1 X44.77 Y116.421 E27.52233
G1 X47.313 Y116.756 E27.62897
G1 X49.812 Y117.015 E27.73342
G1 X52.339 Y117.204 E27.83878
G1 X54.807 Y117.318 E27.94149
G1 X57.838 Y117.367 E28.06752
G1 X125.071 Y117.367 E30.86275
G1 X127.689 Y117.33 E30.9716
G1 X130.187 Y117.224 E31.07555
G1 X132.701 Y117.046 E31.18033
G1 X135.242 Y116.794 E31.28649
G1 X137.718 Y116.477 E31.39027
G1 X140.232 Y116.082 E31.49608
G1 X142.688 Y115.625 E31.59994
G1 X146.218 Y114.845 E31.75024
G1 X147.385 Y114.562 E31.80016
G1 X147.656 Y114.5 E31.81172
G1 X148.014 Y114.423 E31.82694
G1 X148.928 Y114.268 E31.86549
G1 X149.852 Y114.191 E31.90403
G1 X150.779 Y114.195 E31.94258
G1 X151.702 Y114.278 E31.9811
G1 X152.795 Y114.483 E32.02734
G1 X154.095 Y114.798 E32.08295
G1 X154.382 Y114.872 E32.09527
G1 X156.857 Y115.432 E32.20077
G1 X159.361 Y115.927 E32.30689
G1 X161.818 Y116.337 E32.41045
G1 X164.319 Y116.683 E32.51542
G1 X166.837 Y116.961 E32.62075
G1 X169.333 Y117.165 E32.72486
G1 X171.833 Y117.296 E32.82894
G1 X175.444 Y117.367 E32.9791
G1 X242.985 Y117.367 E35.78713
G1 X245.604 Y117.33 E35.89603
G1 X248.104 Y117.224 E36.00006
G1 X250.61 Y117.046 E36.10451
G1 X253.163 Y116.793 E36.21117
G1 X255.628 Y116.478 E36.31448
G1 X258.152 Y116.081 E36.42071
G1 X260.631 Y115.62 E36.52554
G1 X263.062 Y115.097 E36.62892
G1 X265.675 Y114.456 E36.74078
G1 X266.525 Y114.235 E36.77729
G1 X267.432 Y114.041 E36.81586
G1 X268.352 Y113.926 E36.8544
G1 X268.899 Y113.895 E36.87718
G1 X269.096 Y113.889 E36.88537
G1 X269.589 Y113.885 E36.90587
G1 X269.977 Y113.891 E36.92201
G1 X270.903 Y113.946 E36.96057
G1 X271.82 Y114.079 E36.99909
G1 X272.688 Y114.282 E37.03616
G1 X272.724 Y114.292 E37.03771
G1 X273.606 Y114.579 E37.07627
G1 X274.46 Y114.94 E37.11482
G1 X275.235 Y115.348 E37.15123
G1 X275.841 Y115.699 E37.18035
G1 X276.121 Y115.867 E37.19392
G1 X276.619 Y116.176 E37.21829
G1 X277.385 Y116.698 E37.25683
G1 X278.1 Y117.282 E37.29521
G1 X278.301 Y117.461 E37.3064
G1 X278.509 Y117.651 E37.31811
G1 X279.088 Y118.197 E37.3512
G1 X279.607 Y118.704 E37.38136
G1 X280.242 Y119.38 E37.41992
G1 X280.816 Y120.108 E37.45847
G1 X281.325 Y120.883 E37.49701
G1 X281.605 Y121.381 E37.52077
G1 X281.995 Y122.2 E37.55848
G1 X282.256 Y122.813 E37.58618
G1 X282.474 Y123.348 E37.6102
G1 X282.728 Y123.993 E37.63902
G1 X283.031 Y124.87 E37.67759
G1 X283.177 Y125.416 E37.70109
G1 X283.272 Y125.83 E37.71875
G1 X283.392 Y126.401 E37.74301
G1 X283.49 Y126.898 E37.76407
G1 X283.623 Y127.624 E37.79476
G1 X283.751 Y128.542 E37.83329
G1 X283.799 Y129.468 E37.87184
G1 X283.757 Y130.508 E37.91512
G1 X283.516 Y133.238 E38.02906
G1 X283.368 Y135.735 E38.13305
G1 X283.289 Y138.282 E38.239
G1 X283.282 Y140.784 E38.34302
G1 X283.348 Y143.358 E38.45007
G1 X283.48 Y145.806 E38.55199
G1 X283.728 Y148.68 E38.67192
G1 X283.763 Y149.121 E38.69031
G1 X283.797 Y150.004 E38.72705
G1 X283.751 Y150.996 E38.76834
G1 X283.671 Y151.86 E38.80441
G1 X283.462 Y154.516 E38.91518
G1 X283.335 Y157.025 E39.01962
G1 X283.279 Y159.525 E39.12359
G1 X283.295 Y162.064 E39.22915
G1 X283.382 Y164.601 E39.33469
G1 X283.541 Y167.127 E39.43991
G1 X283.742 Y169.335 E39.53209
G1 X283.762 Y169.586 E39.54256
G1 X283.796 Y170.513 E39.58113
G1 X283.728 Y171.644 E39.62823
G1 X283.72 Y171.715 E39.6312
G1 X283.5 Y172.982 E39.68467
G1 X283.326 Y173.715 E39.71599
G1 X283.224 Y174.11 E39.73295
G1 X283.035 Y174.816 E39.76334
G1 X282.77 Y175.665 E39.80031
G1 X282.699 Y175.863 E39.80906
G1 X282.585 Y176.167 E39.82256
G1 X282.379 Y176.691 E39.84596
G1 X282.293 Y176.902 E39.85544
G1 X282.016 Y177.565 E39.88531
G1 X281.622 Y178.404 E39.92385
G1 X281.157 Y179.207 E39.96242
G1 X280.625 Y179.966 E40.00096
G1 X280.078 Y180.622 E40.03647
G1 X279.681 Y181.062 E40.06111
G1 X279.475 Y181.284 E40.0737
G1 X279.053 Y181.726 E40.09911
G1 X278.385 Y182.369 E40.13766
G1 X277.455 Y183.101 E40.18686
G1 X277.092 Y183.35 E40.20516
G1 X276.604 Y183.671 E40.22945
G1 X276.398 Y183.803 E40.23962
G1 X275.805 Y184.174 E40.2687
G1 X274.998 Y184.632 E40.30728
G1 X274.155 Y185.018 E40.34582
G1 X273.282 Y185.33 E40.38437
G1 X272.136 Y185.617 E40.43348
G1 X271.357 Y185.767 E40.46647
G1 X271.015 Y185.828 E40.48091
