;FLAVOR:Marlin
;TIME:3222
;Filament used: 2.05353m
;Layer height: 0.2
;MINX:208.507
;MINY:15.331
;MINZ:0.2
;MAXX:271.007
;MAXY:131.827
;MAXZ:5
;Generated with Cura_SteamEngine 4.10.0
M140 S60
M105
M190 S60
M104 S200
M105
M109 S200
M82 ;absolute extrusion mode
M201 X500.00 Y500.00 Z100.00 E5000.00 ;Setup machine max acceleration
M203 X500.00 Y500.00 Z10.00 E50.00 ;Setup machine max feedrate
M204 P500.00 R1000.00 T500.00 ;Setup Print/Retract/Travel acceleration
M205 X8.00 Y8.00 Z0.40 E5.00 ;Setup Jerk
M220 S100 ;Reset Feedrate
M221 S100 ;Reset Flowrate

G28 ;Home
G29 ;Auto bed Level

G92 E0 ;Reset Extruder
G1 Z2.0 F3000 ;Move Z Axis up
G1 X10.1 Y20 Z0.28 F5000.0 ;Move to start position
G1 X10.1 Y200.0 Z0.28 F1500.0 E15 ;Draw the first line
G1 X10.4 Y200.0 Z0.28 F5000.0 ;Move to side a little
G1 X10.4 Y20 Z0.28 F1500.0 E30 ;Draw the second line
G92 E0 ;Reset Extruder
G1 Z2.0 F3000 ;Move Z Axis up

G92 E0
G92 E0
G1 F2700 E-5
;LAYER_COUNT:25
;LAYER:0
M107
G0 F6000 X208.576 Y26.397 Z0.2
;TYPE:SKIRT
G1 F2700 E0
G1 F1200 X208.807 Y25 E0.05887
G1 X208.881 Y24.679 E0.07256
G1 X209.132 Y23.764 E0.11201
G1 X209.46 Y22.874 E0.15145
G1 X209.982 Y21.791 E0.20143
G1 X210.105 Y21.567 E0.21205
G1 X210.596 Y20.756 E0.25147
G1 X211.154 Y19.989 E0.2909
G1 X211.856 Y19.186 E0.33525
G1 X212.005 Y19.031 E0.34419
G1 X212.69 Y18.375 E0.38362
G1 X213.703 Y17.583 E0.43708
G1 X213.876 Y17.463 E0.44583
G1 X214.677 Y16.956 E0.48524
G1 X215.519 Y16.518 E0.5247
G1 X215.977 Y16.316 E0.54551
G1 X216.165 Y16.238 E0.55398
G1 X217.055 Y15.912 E0.59338
G1 X217.747 Y15.715 E0.62329
G1 X217.835 Y15.693 E0.62707
G1 X218.765 Y15.502 E0.66654
G1 X219.495 Y15.408 E0.69714
G1 X219.715 Y15.387 E0.70633
G1 X220.632 Y15.337 E0.74451
G1 X221.076 Y15.331 E0.76297
G1 X221.38 Y15.331 E0.77561
G1 X222.419 Y15.346 E0.81881
G1 X224.59 Y15.405 E0.9091
G1 X227.103 Y15.403 E1.01358
G1 X229.093 Y15.346 E1.09635
G1 X230.116 Y15.332 E1.13888
G1 X230.438 Y15.332 E1.15227
G1 X230.975 Y15.34 E1.1746
G1 X231.922 Y15.394 E1.21404
G1 X232.702 Y15.5 E1.24676
G1 X232.901 Y15.534 E1.25516
G1 X233.828 Y15.733 E1.29457
G1 X234.735 Y16.009 E1.33399
G1 X235.63 Y16.367 E1.37407
G1 X235.905 Y16.491 E1.38661
G1 X236.753 Y16.917 E1.42606
G1 X237.42 Y17.32 E1.45846
G1 X237.506 Y17.376 E1.46273
G1 X238.278 Y17.926 E1.50214
G1 X239.132 Y18.663 E1.54903
G1 X239.284 Y18.808 E1.55777
G1 X239.942 Y19.491 E1.5972
G1 X240.541 Y20.227 E1.63665
G1 X241.075 Y21.011 E1.67609
G1 X241.34 Y21.461 E1.6978
G1 X241.497 Y21.742 E1.71118
G1 X241.924 Y22.589 E1.75062
G1 X242.279 Y23.468 E1.79003
G1 X242.46 Y24.026 E1.81442
G1 X242.52 Y24.228 E1.82318
G1 X242.752 Y25.148 E1.86263
G1 X242.952 Y26.553 E1.92163
G1 X242.965 Y26.719 E1.92855
G1 X242.998 Y27.444 E1.95872
G1 X243.006 Y28.113 E1.98654
G1 X243.006 Y46.676 E2.7583
G1 X243.043 Y49.274 E2.86632
G1 X243.149 Y51.779 E2.97056
G1 X243.328 Y54.296 E3.07547
G1 X243.574 Y56.779 E3.17921
G1 X243.891 Y59.254 E3.28295
G1 X244.284 Y61.756 E3.38824
G1 X244.745 Y64.237 E3.49316
G1 X245.262 Y66.64 E3.59535
G1 X245.87 Y69.12 E3.70151
G1 X246.535 Y71.539 E3.80581
G1 X247.269 Y73.937 E3.91007
G1 X248.068 Y76.305 E4.01398
G1 X248.934 Y78.652 E4.11798
G1 X249.877 Y81.001 E4.22322
G1 X250.874 Y83.292 E4.3271
G1 X251.94 Y85.566 E4.43151
G1 X253.071 Y87.812 E4.53606
G1 X254.265 Y90.024 E4.64057
G1 X255.511 Y92.184 E4.74424
G1 X256.834 Y94.333 E4.84916
G1 X258.218 Y96.447 E4.95421
G1 X259.638 Y98.486 E5.05751
G1 X261.131 Y100.508 E5.16201
G1 X262.67 Y102.471 E5.26571
G1 X264.288 Y104.42 E5.37103
G1 X265.992 Y106.357 E5.47828
G1 X266.833 Y107.274 E5.53001
G1 X267.745 Y108.255 E5.5857
G1 X268.361 Y108.976 E5.62513
G1 X268.859 Y109.663 E5.6604
G1 X268.988 Y109.856 E5.67006
G1 X269.481 Y110.667 E5.70951
G1 X269.905 Y111.515 E5.74893
G1 X270.394 Y112.822 E5.80695
G1 X270.496 Y113.156 E5.82147
G1 X270.735 Y114.074 E5.86091
G1 X270.895 Y115.009 E5.90034
G1 X270.965 Y115.746 E5.93112
G1 X270.979 Y115.972 E5.94054
G1 X271 Y116.534 E5.96392
G1 X271.007 Y117.177 E5.99065
G1 X271.005 Y119.109 E6.07098
G1 X270.996 Y119.765 E6.09825
G1 X270.943 Y120.712 E6.13769
G1 X270.779 Y121.817 E6.18413
G1 X270.723 Y122.097 E6.196
G1 X270.497 Y123.019 E6.23547
G1 X270.196 Y123.918 E6.27488
G1 X269.958 Y124.49 E6.30064
G1 X269.872 Y124.682 E6.30939
G1 X269.448 Y125.53 E6.3488
G1 X268.954 Y126.34 E6.38825
G1 X268.478 Y127 E6.42208
G1 X268.333 Y127.186 E6.43189
G1 X267.718 Y127.909 E6.47135
G1 X266.715 Y128.867 E6.52901
G1 X266.651 Y128.921 E6.53249
G1 X266.104 Y129.355 E6.56152
G1 X265.933 Y129.482 E6.57038
G1 X265.148 Y130.015 E6.60983
G1 X264.321 Y130.479 E6.64925
G1 X263.458 Y130.873 E6.6887
G1 X262.704 Y131.149 E6.72208
G1 X262.378 Y131.255 E6.73633
G1 X261.464 Y131.51 E6.77578
G1 X260.532 Y131.687 E6.81522
G1 X260.027 Y131.749 E6.83637
G1 X259.898 Y131.762 E6.84176
G1 X258.92 Y131.818 E6.88249
G1 X258.171 Y131.827 E6.91363
G1 X222.189 Y131.827 E8.40959
G1 X221.785 Y131.823 E8.42639
G1 X221.416 Y131.814 E8.44173
G1 X221.252 Y131.807 E8.44856
G1 X220.633 Y131.763 E8.47436
G1 X220.307 Y131.731 E8.48798
G1 X219.368 Y131.599 E8.5274
G1 X218.295 Y131.346 E8.57323
G1 X217.937 Y131.243 E8.58872
G1 X217.314 Y131.044 E8.61591
G1 X217.26 Y131.025 E8.61829
G1 X216.379 Y130.673 E8.65773
G1 X215.673 Y130.325 E8.69046
G1 X215.401 Y130.179 E8.70329
G1 X214.482 Y129.628 E8.74784
G1 X214.251 Y129.474 E8.75938
G1 X213.484 Y128.915 E8.79884
G1 X212.773 Y128.298 E8.83798
G1 X212.563 Y128.1 E8.84998
G1 X211.901 Y127.421 E8.88941
G1 X211.533 Y126.989 E8.913
G1 X211.402 Y126.827 E8.92166
G1 X210.719 Y125.886 E8.97
G1 X210.6 Y125.703 E8.97908
G1 X210.117 Y124.887 E9.0185
G1 X209.885 Y124.431 E9.03977
G1 X209.759 Y124.168 E9.0519
G1 X209.406 Y123.349 E9.08898
G1 X208.975 Y121.994 E9.14809
G1 X208.866 Y121.557 E9.16682
G1 X208.676 Y120.628 E9.20624
G1 X208.561 Y119.636 E9.24776
G1 X208.541 Y119.356 E9.25943
G1 X208.512 Y118.655 E9.2886
G1 X208.507 Y117.999 E9.31587
G1 X208.509 Y28.017 E13.05689
G1 X208.52 Y27.343 E13.08491
G1 X208.576 Y26.397 E13.12431
G0 F6000 X209.076 Y26.426
G1 F1200 X209.294 Y25.112 E13.17969
G1 X209.368 Y24.791 E13.19338
G1 X209.615 Y23.898 E13.23191
G1 X209.938 Y23.028 E13.27049
G1 X210.42 Y22.032 E13.31649
G1 X210.543 Y21.808 E13.32712
G1 X211.024 Y21.015 E13.36568
G1 X211.571 Y20.267 E13.4042
G1 X212.216 Y19.532 E13.44486
G1 X212.365 Y19.377 E13.4538
G1 X213.036 Y18.737 E13.49235
G1 X213.988 Y17.994 E13.54255
G1 X214.161 Y17.874 E13.55131
G1 X214.945 Y17.379 E13.58986
G1 X216.168 Y16.778 E13.64651
G1 X216.356 Y16.7 E13.65497
G1 X217.227 Y16.382 E13.69352
G1 X217.869 Y16.2 E13.72127
G1 X217.957 Y16.178 E13.72504
G1 X218.865 Y15.992 E13.76357
G1 X219.543 Y15.906 E13.79198
G1 X219.763 Y15.885 E13.80117
G1 X220.639 Y15.837 E13.83765
G1 X221.083 Y15.831 E13.85611
G1 X221.374 Y15.831 E13.86821
G1 X222.405 Y15.846 E13.91108
G1 X224.577 Y15.905 E14.00141
G1 X227.119 Y15.903 E14.10709
G1 X229.1 Y15.846 E14.18949
G1 X230.123 Y15.832 E14.23202
G1 X230.43 Y15.832 E14.24479
G1 X230.967 Y15.84 E14.26712
G1 X231.893 Y15.894 E14.30568
G1 X232.617 Y15.993 E14.33606
G1 X232.816 Y16.027 E14.34445
G1 X233.723 Y16.222 E14.38302
G1 X234.609 Y16.495 E14.42157
G1 X235.425 Y16.823 E14.45813
G1 X235.7 Y16.947 E14.47067
G1 X236.528 Y17.364 E14.50922
G1 X237.147 Y17.739 E14.53931
G1 X237.233 Y17.795 E14.54357
G1 X237.987 Y18.333 E14.58208
G1 X238.787 Y19.025 E14.62606
G1 X238.939 Y19.17 E14.63479
G1 X239.582 Y19.838 E14.67334
G1 X240.164 Y20.559 E14.71186
G1 X240.904 Y21.705 E14.76858
G1 X241.061 Y21.986 E14.78196
G1 X241.477 Y22.814 E14.82049
G1 X241.821 Y23.675 E14.85903
G1 X241.981 Y24.168 E14.88058
G1 X242.041 Y24.37 E14.88934
G1 X242.266 Y25.269 E14.92787
G1 X242.453 Y26.592 E14.98342
G1 X242.466 Y26.758 E14.99035
G1 X242.498 Y27.451 E15.01919
G1 X242.506 Y28.113 E15.04671
G1 X242.506 Y46.683 E15.81876
G1 X242.543 Y49.302 E15.92766
G1 X242.649 Y51.799 E16.03157
G1 X242.827 Y54.309 E16.13618
G1 X243.08 Y56.86 E16.24276
G1 X243.395 Y59.325 E16.34608
G1 X243.792 Y61.849 E16.4523
G1 X244.253 Y64.328 E16.55713
G1 X244.776 Y66.76 E16.66056
G1 X245.38 Y69.225 E16.76607
G1 X246.059 Y71.69 E16.87237
G1 X246.785 Y74.064 E16.97558
G1 X247.604 Y76.491 E17.08208
G1 X248.467 Y78.831 E17.18577
G1 X249.414 Y81.189 E17.29141
G1 X250.424 Y83.51 E17.39665
G1 X251.495 Y85.793 E17.50149
G1 X252.617 Y88.023 E17.60528
G1 X253.824 Y90.259 E17.71092
G1 X255.102 Y92.475 E17.81727
G1 X256.411 Y94.601 E17.92107
G1 X257.789 Y96.705 E18.02564
G1 X259.23 Y98.775 E18.1305
G1 X260.736 Y100.814 E18.23588
G1 X262.296 Y102.805 E18.34104
G1 X263.915 Y104.754 E18.44638
G1 X265.58 Y106.647 E18.5512
G1 X266.514 Y107.665 E18.60863
G1 X267.379 Y108.596 E18.66147
G1 X267.981 Y109.301 E18.70001
G1 X268.443 Y109.941 E18.73283
G1 X268.572 Y110.134 E18.74248
G1 X269.054 Y110.927 E18.78106
G1 X269.465 Y111.757 E18.81957
G1 X269.916 Y112.968 E18.87329
G1 X270.018 Y113.302 E18.88781
G1 X270.251 Y114.2 E18.92638
G1 X270.405 Y115.114 E18.96492
G1 X270.466 Y115.777 E18.9926
G1 X270.48 Y116.003 E19.00201
G1 X270.5 Y116.54 E19.02435
G1 X270.507 Y117.177 E19.05084
G1 X270.505 Y119.102 E19.13087
G1 X270.496 Y119.758 E19.15815
G1 X270.443 Y120.684 E19.19671
G1 X270.288 Y121.719 E19.24022
G1 X270.232 Y121.999 E19.25209
G1 X270.011 Y122.9 E19.29066
G1 X269.714 Y123.778 E19.32919
G1 X269.502 Y124.285 E19.35204
G1 X269.416 Y124.477 E19.36079
G1 X269.001 Y125.306 E19.39933
G1 X268.516 Y126.097 E19.43791
G1 X268.083 Y126.692 E19.4685
G1 X267.938 Y126.878 E19.47831
G1 X267.337 Y127.584 E19.51685
G1 X266.392 Y128.485 E19.57114
G1 X266.328 Y128.539 E19.57462
G1 X265.806 Y128.953 E19.60232
G1 X265.635 Y129.08 E19.61117
G1 X264.867 Y129.6 E19.64973
G1 X264.058 Y130.052 E19.68826
G1 X263.212 Y130.433 E19.72684
G1 X262.549 Y130.673 E19.75615
G1 X262.223 Y130.779 E19.7704
G1 X261.33 Y131.028 E19.80895
G1 X259.977 Y131.252 E19.86596
G1 X259.848 Y131.265 E19.87135
G1 X258.914 Y131.318 E19.91025
G1 X258.171 Y131.327 E19.94114
G1 X222.194 Y131.327 E21.43689
G1 X221.79 Y131.323 E21.45369
G1 X221.438 Y131.314 E21.46833
G1 X221.274 Y131.307 E21.47515
G1 X220.682 Y131.266 E21.49982
G1 X220.356 Y131.234 E21.51344
G1 X219.438 Y131.103 E21.55199
G1 X218.434 Y130.866 E21.59488
G1 X218.076 Y130.763 E21.61037
G1 X217.48 Y130.573 E21.63638
G1 X217.426 Y130.554 E21.63876
G1 X216.566 Y130.208 E21.6773
G1 X215.91 Y129.885 E21.7077
G1 X215.638 Y129.739 E21.72053
G1 X214.759 Y129.212 E21.76314
G1 X214.528 Y129.058 E21.77468
G1 X213.779 Y128.51 E21.81327
G1 X213.116 Y127.935 E21.84976
G1 X212.906 Y127.737 E21.86176
G1 X212.26 Y127.072 E21.9003
G1 X211.922 Y126.674 E21.92201
G1 X211.791 Y126.512 E21.93067
G1 X211.138 Y125.613 E21.97687
G1 X211.019 Y125.43 E21.98594
G1 X210.547 Y124.632 E22.02449
G1 X210.336 Y124.215 E22.04392
G1 X210.21 Y123.952 E22.05604
G1 X209.872 Y123.167 E22.09157
G1 X209.461 Y121.873 E22.14802
G1 X209.352 Y121.436 E22.16675
G1 X209.166 Y120.527 E22.20532
G1 X209.059 Y119.6 E22.24412
G1 X209.039 Y119.32 E22.25579
G1 X209.012 Y118.651 E22.28362
G1 X209.007 Y117.999 E22.31073
G1 X209.009 Y28.026 E26.05137
G1 X209.02 Y27.352 E26.0794
G1 X209.076 Y26.426 E26.11797
G0 F6000 X209.575 Y26.456
G1 F1200 X209.781 Y25.224 E26.1699
G1 X209.855 Y24.903 E26.1836
G1 X210.097 Y24.031 E26.22122
G1 X210.415 Y23.184 E26.25883
G1 X210.858 Y22.272 E26.30099
G1 X210.981 Y22.048 E26.31161
G1 X211.452 Y21.275 E26.34925
G1 X211.989 Y20.546 E26.38689
G1 X212.577 Y19.879 E26.42386
G1 X212.726 Y19.724 E26.4328
G1 X213.381 Y19.099 E26.47044
G1 X214.273 Y18.405 E26.51742
G1 X214.446 Y18.285 E26.52618
G1 X215.212 Y17.802 E26.56383
G1 X216.36 Y17.24 E26.61697
G1 X216.548 Y17.162 E26.62543
G1 X217.399 Y16.852 E26.66308
G1 X217.99 Y16.685 E26.68862
G1 X218.078 Y16.663 E26.69239
G1 X218.965 Y16.482 E26.73002
G1 X219.59 Y16.403 E26.75622
G1 X219.81 Y16.382 E26.7654
G1 X220.645 Y16.337 E26.80017
G1 X221.089 Y16.331 E26.81863
G1 X221.367 Y16.331 E26.83019
G1 X222.392 Y16.346 E26.87281
G1 X224.564 Y16.405 E26.96314
G1 X227.098 Y16.403 E27.06849
G1 X228.947 Y16.349 E27.1454
G1 X230.13 Y16.332 E27.19459
G1 X230.423 Y16.332 E27.20677
G1 X230.96 Y16.34 E27.2291
G1 X231.863 Y16.394 E27.26671
G1 X232.533 Y16.485 E27.29482
G1 X232.732 Y16.519 E27.30321
G1 X233.617 Y16.711 E27.34086
G1 X234.481 Y16.98 E27.37848
G1 X235.219 Y17.279 E27.41159
G1 X235.494 Y17.403 E27.42413
G1 X236.302 Y17.811 E27.46176
G1 X236.874 Y18.158 E27.48958
G1 X236.96 Y18.214 E27.49384
G1 X237.696 Y18.741 E27.53148
G1 X238.442 Y19.386 E27.57248
G1 X238.594 Y19.531 E27.58121
G1 X239.221 Y20.185 E27.61888
G1 X239.788 Y20.891 E27.65653
G1 X240.467 Y21.949 E27.70879
G1 X240.624 Y22.23 E27.72217
G1 X241.03 Y23.039 E27.75981
G1 X241.502 Y24.31 E27.81617
G1 X241.562 Y24.512 E27.82493
G1 X241.781 Y25.391 E27.8626
G1 X241.955 Y26.631 E27.91465
G1 X241.968 Y26.797 E27.92158
G1 X241.998 Y27.458 E27.94909
G1 X242.006 Y28.113 E27.97632
G1 X242.006 Y46.69 E28.74866
G1 X242.043 Y49.295 E28.85698
G1 X242.152 Y51.858 E28.96363
G1 X242.329 Y54.359 E29.06787
G1 X242.581 Y56.899 E29.17399
G1 X242.9 Y59.395 E29.2786
G1 X243.301 Y61.947 E29.38601
G1 X243.761 Y64.42 E29.49059
G1 X244.29 Y66.879 E29.59516
G1 X244.893 Y69.339 E29.70046
G1 X245.576 Y71.822 E29.80753
G1 X246.314 Y74.233 E29.91235
G1 X247.128 Y76.644 E30.01815
G1 X248.005 Y79.023 E30.12356
G1 X248.953 Y81.383 E30.2293
G1 X249.959 Y83.697 E30.33421
G1 X251.036 Y85.993 E30.43964
G1 X252.192 Y88.29 E30.54655
G1 X253.383 Y90.495 E30.65074
G1 X254.675 Y92.735 E30.75825
G1 X255.983 Y94.86 E30.86199
G1 X257.365 Y96.971 E30.96689
G1 X258.835 Y99.08 E31.07377
G1 X260.344 Y101.124 E31.1794
G1 X261.904 Y103.115 E31.28456
G1 X263.524 Y105.066 E31.38999
G1 X265.235 Y107.012 E31.49772
G1 X266.101 Y107.955 E31.55095
G1 X267.013 Y108.936 E31.60664
G1 X267.6 Y109.626 E31.6443
G1 X268.028 Y110.219 E31.67471
G1 X268.157 Y110.412 E31.68436
G1 X268.626 Y111.186 E31.72199
G1 X269.025 Y111.999 E31.75964
G1 X269.438 Y113.114 E31.80907
G1 X269.54 Y113.448 E31.82359
G1 X269.766 Y114.325 E31.86124
G1 X269.914 Y115.218 E31.89888
G1 X269.967 Y115.808 E31.9235
G1 X269.981 Y116.034 E31.93292
G1 X270 Y116.546 E31.95422
G1 X270.007 Y117.177 E31.98046
G1 X270.005 Y119.096 E32.06024
G1 X269.996 Y119.752 E32.08751
G1 X269.944 Y120.655 E32.12512
G1 X269.798 Y121.621 E32.16574
G1 X269.742 Y121.901 E32.17761
G1 X269.525 Y122.78 E32.21525
G1 X269.232 Y123.637 E32.2529
G1 X269.045 Y124.081 E32.27293
G1 X268.959 Y124.273 E32.28168
G1 X268.553 Y125.082 E32.31931
G1 X268.077 Y125.852 E32.35695
G1 X267.689 Y126.385 E32.38436
G1 X267.544 Y126.571 E32.39416
G1 X266.956 Y127.26 E32.43182
G1 X266.07 Y128.103 E32.48267
G1 X266.006 Y128.157 E32.48615
G1 X265.507 Y128.552 E32.51261
G1 X265.336 Y128.679 E32.52146
G1 X264.587 Y129.186 E32.55907
G1 X263.795 Y129.625 E32.59671
G1 X262.967 Y129.992 E32.63437
G1 X262.394 Y130.198 E32.65968
G1 X262.068 Y130.304 E32.67393
G1 X261.196 Y130.545 E32.71155
G1 X259.927 Y130.754 E32.76502
G1 X259.798 Y130.767 E32.77041
G1 X258.907 Y130.818 E32.80751
G1 X258.171 Y130.827 E32.83811
G1 X222.3 Y130.828 E34.32946
G1 X221.795 Y130.823 E34.35045
G1 X221.459 Y130.815 E34.36443
G1 X221.295 Y130.808 E34.37125
G1 X220.731 Y130.768 E34.39476
G1 X220.405 Y130.736 E34.40838
G1 X219.508 Y130.608 E34.44605
G1 X218.572 Y130.385 E34.48605
G1 X218.214 Y130.282 E34.50154
G1 X217.646 Y130.101 E34.52632
G1 X217.592 Y130.082 E34.5287
G1 X216.752 Y129.744 E34.56635
G1 X216.146 Y129.444 E34.59446
G1 X215.874 Y129.298 E34.60729
G1 X215.036 Y128.796 E34.64791
G1 X214.805 Y128.642 E34.65945
G1 X214.075 Y128.107 E34.69708
G1 X213.459 Y127.571 E34.73103
G1 X213.249 Y127.373 E34.74303
G1 X212.619 Y126.723 E34.78066
G1 X212.311 Y126.36 E34.80045
G1 X212.18 Y126.198 E34.80911
G1 X211.557 Y125.341 E34.85316
G1 X211.438 Y125.158 E34.86224
G1 X210.787 Y123.999 E34.91751
G1 X210.661 Y123.736 E34.92963
G1 X210.338 Y122.986 E34.96358
G1 X209.946 Y121.752 E35.01741
G1 X209.837 Y121.315 E35.03613
G1 X209.657 Y120.427 E35.0738
G1 X209.558 Y119.564 E35.10992
G1 X209.538 Y119.284 E35.12159
G1 X209.512 Y118.646 E35.14814
G1 X209.507 Y117.999 E35.17504
G1 X209.509 Y28.034 E38.91535
G1 X209.52 Y27.36 E38.94337
G1 X209.575 Y26.456 E38.98103
G1 F2700 E33.98103
