;FLAVOR:Marlin
;TIME:2684
;Filament used: 1.78032m
;Layer height: 0.2
;MINX:84.016
;MINY:45.131
;MINZ:0.2
;MAXX:161.515
;MAXY:92.631
;MAXZ:10
;Generated with Cura_SteamEngine 4.10.0
M140 S60
M105
M190 S60
M104 S200
M105
M109 S200
M82 ;absolute extrusion mode
M201 X500.00 Y500.00 Z100.00 E5000.00 ;Setup machine max acceleration
M203 X500.00 Y500.00 Z10.00 E50.00 ;Setup machine max feedrate
M204 P500.00 R1000.00 T500.00 ;Setup Print/Retract/Travel acceleration
M205 X8.00 Y8.00 Z0.40 E5.00 ;Setup Jerk
M220 S100 ;Reset Feedrate
M221 S100 ;Reset Flowrate

G28 ;Home
G29 ;Auto bed Level

G92 E0 ;Reset Extruder
G1 Z2.0 F3000 ;Move Z Axis up
G1 X10.1 Y20 Z0.28 F5000.0 ;Move to start position
G1 X10.1 Y200.0 Z0.28 F1500.0 E15 ;Draw the first line
G1 X10.4 Y200.0 Z0.28 F5000.0 ;Move to side a little
G1 X10.4 Y20 Z0.28 F1500.0 E30 ;Draw the second line
G92 E0 ;Reset Extruder
G1 Z2.0 F3000 ;Move Z Axis up

G92 E0
G92 E0
G1 F2700 E-5
;LAYER_COUNT:50
;LAYER:0
M107
G0 F6000 X86.025 Y51.403 Z0.2
;TYPE:SKIRT
G1 F2700 E0
G1 F1200 X86.545 Y50.61 E0.03943
G1 X87.084 Y49.918 E0.07589
G1 X87.214 Y49.764 E0.08427
G1 X88.198 Y48.738 E0.14337
G1 X88.408 Y48.545 E0.15523
G1 X89.42 Y47.718 E0.20957
G1 X89.587 Y47.597 E0.21814
G1 X90.565 Y46.963 E0.2666
G1 X90.74 Y46.862 E0.275
G1 X91.58 Y46.423 E0.3144
G1 X92.504 Y46.039 E0.35601
G1 X92.86 Y45.909 E0.37176
G1 X93.96 Y45.57 E0.41962
G1 X94.213 Y45.506 E0.43047
G1 X95.142 Y45.312 E0.46992
G1 X96.035 Y45.201 E0.50734
G1 X96.346 Y45.175 E0.52031
G1 X97.176 Y45.137 E0.55485
G1 X97.808 Y45.131 E0.58113
G1 X118.219 Y45.131 E1.42972
G1 X119.084 Y45.142 E1.46569
G1 X119.4 Y45.151 E1.47883
G1 X120.317 Y45.191 E1.51699
G1 X121.522 Y45.259 E1.56717
G1 X124.058 Y45.33 E1.67264
G1 X126.57 Y45.328 E1.77708
G1 X129.049 Y45.257 E1.88019
G1 X130.291 Y45.188 E1.9319
G1 X131.119 Y45.152 E1.96636
G1 X131.444 Y45.142 E1.97988
G1 X132.295 Y45.131 E2.01526
G1 X134.128 Y45.132 E2.09147
G1 X134.834 Y45.142 E2.12083
G1 X135.154 Y45.151 E2.13413
G1 X136.037 Y45.19 E2.17088
G1 X137.24 Y45.258 E2.22098
G1 X139.779 Y45.329 E2.32658
G1 X142.29 Y45.329 E2.43097
G1 X144.774 Y45.258 E2.53429
G1 X146.07 Y45.185 E2.58825
G1 X146.811 Y45.153 E2.61909
G1 X147.146 Y45.144 E2.63302
G1 X147.745 Y45.136 E2.65793
G1 X148.059 Y45.136 E2.67098
G1 X148.401 Y45.141 E2.6852
G1 X149.353 Y45.196 E2.72485
G1 X149.724 Y45.233 E2.74035
G1 X150.663 Y45.366 E2.77978
G1 X151.346 Y45.515 E2.80884
G1 X151.625 Y45.585 E2.8208
G1 X152.534 Y45.855 E2.86022
G1 X153.225 Y46.117 E2.89095
G1 X153.572 Y46.262 E2.90658
G1 X154.43 Y46.664 E2.94598
G1 X155.43 Y47.252 E2.99421
G1 X155.677 Y47.415 E3.00651
G1 X156.753 Y48.221 E3.0624
G1 X156.91 Y48.354 E3.07096
G1 X157.776 Y49.17 E3.12043
G1 X158.36 Y49.829 E3.15704
G1 X158.587 Y50.106 E3.17193
G1 X159.157 Y50.865 E3.21139
G1 X159.554 Y51.484 E3.24196
G1 X159.745 Y51.805 E3.25749
G1 X160.195 Y52.64 E3.29693
G1 X160.66 Y53.743 E3.34669
G1 X160.722 Y53.915 E3.35429
G1 X160.955 Y54.634 E3.38572
G1 X161.032 Y54.903 E3.39735
G1 X161.306 Y56.106 E3.44865
G1 X161.415 Y56.903 E3.48209
G1 X161.441 Y57.159 E3.49279
G1 X161.491 Y57.867 E3.5223
G1 X161.504 Y58.208 E3.53648
G1 X161.511 Y58.512 E3.54913
G1 X161.515 Y58.909 E3.56563
G1 X161.513 Y78.928 E4.39793
G1 X161.504 Y79.578 E4.42495
G1 X161.439 Y80.638 E4.4691
G1 X161.429 Y80.73 E4.47295
G1 X161.378 Y81.129 E4.48968
G1 X161.331 Y81.453 E4.50329
G1 X161.23 Y82.044 E4.52821
G1 X161.219 Y82.099 E4.53055
G1 X160.993 Y83.021 E4.57001
G1 X160.77 Y83.708 E4.60004
G1 X160.655 Y84.027 E4.61414
G1 X160.296 Y84.905 E4.65358
G1 X159.728 Y85.985 E4.70431
G1 X159.563 Y86.261 E4.71768
G1 X158.934 Y87.202 E4.76474
G1 X158.754 Y87.444 E4.77727
G1 X158.156 Y88.181 E4.81673
G1 X157.295 Y89.054 E4.86771
G1 X157.097 Y89.234 E4.87884
G1 X156.25 Y89.932 E4.92447
G1 X156.054 Y90.078 E4.93463
G1 X155.27 Y90.612 E4.97406
G1 X154.617 Y90.988 E5.00539
G1 X154.32 Y91.146 E5.01938
G1 X153.464 Y91.556 E5.05884
G1 X152.838 Y91.802 E5.0868
G1 X152.657 Y91.867 E5.0948
G1 X151.752 Y92.15 E5.13422
G1 X151.032 Y92.316 E5.16494
G1 X150.667 Y92.388 E5.18041
G1 X149.73 Y92.532 E5.21982
G1 X149.08 Y92.586 E5.24694
G1 X148.699 Y92.606 E5.2628
G1 X148.283 Y92.62 E5.2801
G1 X147.461 Y92.631 E5.31428
G1 X97.845 Y92.63 E7.37708
G1 X97.267 Y92.621 E7.40111
G1 X96.883 Y92.608 E7.41708
G1 X96.481 Y92.588 E7.43382
G1 X95.537 Y92.501 E7.47323
G1 X94.853 Y92.387 E7.50206
G1 X94.53 Y92.323 E7.51575
G1 X93.609 Y92.1 E7.55515
G1 X92.985 Y91.901 E7.58238
G1 X92.749 Y91.818 E7.59278
G1 X91.868 Y91.466 E7.63222
G1 X91.173 Y91.124 E7.66442
G1 X90.846 Y90.949 E7.67984
G1 X89.703 Y90.246 E7.73563
G1 X89.603 Y90.176 E7.74071
G1 X88.493 Y89.291 E7.79973
G1 X88.255 Y89.075 E7.81309
G1 X87.631 Y88.462 E7.84946
G1 X87.598 Y88.427 E7.85146
G1 X86.778 Y87.453 E7.90439
G1 X86.608 Y87.226 E7.91618
G1 X85.941 Y86.227 E7.96612
G1 X85.802 Y85.993 E7.97744
G1 X85.157 Y84.734 E8.03625
G1 X84.884 Y84.048 E8.06695
G1 X84.798 Y83.81 E8.07747
G1 X84.473 Y82.752 E8.12348
G1 X84.402 Y82.472 E8.13549
G1 X84.208 Y81.544 E8.17491
G1 X84.115 Y80.852 E8.20394
G1 X84.08 Y80.51 E8.21823
G1 X84.025 Y79.645 E8.25427
G1 X84.019 Y79.404 E8.26429
G1 X84.016 Y79.124 E8.27593
G1 X84.017 Y58.828 E9.11974
G1 X84.026 Y58.195 E9.14606
G1 X84.054 Y57.553 E9.17278
G1 X84.059 Y57.483 E9.17569
G1 X84.145 Y56.679 E9.20931
G1 X84.19 Y56.367 E9.22242
G1 X84.42 Y55.209 E9.2715
G1 X84.457 Y55.063 E9.27776
G1 X84.767 Y54.043 E9.32208
G1 X84.872 Y53.749 E9.33506
G1 X85.229 Y52.87 E9.37451
G1 X85.811 Y51.761 E9.42658
G1 X86.025 Y51.403 E9.44392
G0 F6000 X86.454 Y51.659
G1 F1200 X86.963 Y50.885 E9.48243
G1 X87.467 Y50.241 E9.51643
G1 X87.597 Y50.087 E9.52481
G1 X88.537 Y49.106 E9.5813
G1 X88.747 Y48.913 E9.59315
G1 X89.714 Y48.123 E9.64507
G1 X89.881 Y48.002 E9.65364
G1 X90.814 Y47.396 E9.6999
G1 X90.989 Y47.295 E9.7083
G1 X91.812 Y46.867 E9.74686
G1 X92.676 Y46.508 E9.78576
G1 X93.032 Y46.378 E9.80152
G1 X94.083 Y46.054 E9.84724
G1 X94.336 Y45.99 E9.85809
G1 X95.243 Y45.802 E9.8966
G1 X96.076 Y45.699 E9.9315
G1 X96.387 Y45.673 E9.94447
G1 X97.181 Y45.636 E9.97752
G1 X97.706 Y45.631 E9.99935
G1 X118.219 Y45.631 E10.85218
G1 X119.077 Y45.642 E10.88785
G1 X119.378 Y45.651 E10.90037
G1 X120.289 Y45.69 E10.93828
G1 X121.515 Y45.759 E10.98934
G1 X124.045 Y45.83 E11.09456
G1 X126.548 Y45.828 E11.19863
G1 X129.094 Y45.755 E11.30452
G1 X130.313 Y45.687 E11.35528
G1 X131.141 Y45.651 E11.38973
G1 X131.452 Y45.642 E11.40267
G1 X132.295 Y45.631 E11.43772
G1 X134.121 Y45.632 E11.51364
G1 X134.827 Y45.642 E11.54299
G1 X135.133 Y45.651 E11.55572
G1 X136.009 Y45.689 E11.59217
G1 X137.234 Y45.758 E11.64318
G1 X139.765 Y45.829 E11.74845
G1 X142.269 Y45.829 E11.85256
G1 X144.816 Y45.756 E11.95849
G1 X146.091 Y45.685 E12.01158
G1 X146.832 Y45.653 E12.04242
G1 X147.152 Y45.644 E12.05573
G1 X147.751 Y45.636 E12.08063
G1 X148.052 Y45.636 E12.09315
G1 X148.394 Y45.641 E12.10737
G1 X149.304 Y45.693 E12.14526
G1 X149.675 Y45.73 E12.16076
G1 X150.593 Y45.862 E12.19932
G1 X151.224 Y46 E12.22618
G1 X151.503 Y46.07 E12.23814
G1 X152.392 Y46.334 E12.27669
G1 X153.032 Y46.578 E12.30517
G1 X153.379 Y46.723 E12.3208
G1 X154.218 Y47.117 E12.35934
G1 X155.155 Y47.67 E12.40457
G1 X155.402 Y47.833 E12.41688
G1 X156.43 Y48.603 E12.47028
G1 X156.587 Y48.736 E12.47883
G1 X157.414 Y49.515 E12.52606
G1 X157.974 Y50.146 E12.56114
G1 X158.201 Y50.423 E12.57603
G1 X158.757 Y51.165 E12.61458
G1 X159.124 Y51.74 E12.64294
G1 X159.315 Y52.061 E12.65847
G1 X159.755 Y52.878 E12.69705
G1 X160.19 Y53.913 E12.74372
G1 X160.252 Y54.085 E12.75132
G1 X160.474 Y54.772 E12.78134
G1 X160.551 Y55.041 E12.79297
G1 X160.813 Y56.19 E12.84197
G1 X160.918 Y56.954 E12.87403
G1 X160.944 Y57.21 E12.88473
G1 X160.991 Y57.886 E12.9129
G1 X161.004 Y58.227 E12.92709
G1 X161.011 Y58.518 E12.93919
G1 X161.015 Y58.909 E12.95545
G1 X161.013 Y78.921 E13.78745
G1 X161.004 Y79.571 E13.81448
G1 X160.942 Y80.584 E13.85667
G1 X160.884 Y81.057 E13.87648
G1 X160.837 Y81.381 E13.8901
G1 X160.728 Y82.001 E13.91627
G1 X160.507 Y82.902 E13.95484
G1 X160.3 Y83.539 E13.98268
G1 X160.185 Y83.858 E13.99678
G1 X159.833 Y84.716 E14.03534
G1 X159.299 Y85.728 E14.08291
G1 X159.134 Y86.004 E14.09628
G1 X158.533 Y86.904 E14.14127
G1 X158.353 Y87.146 E14.15381
G1 X157.768 Y87.865 E14.19235
G1 X156.958 Y88.684 E14.24024
G1 X156.76 Y88.864 E14.25136
G1 X155.951 Y89.531 E14.29496
G1 X155.755 Y89.677 E14.30512
G1 X154.988 Y90.198 E14.34367
G1 X154.382 Y90.547 E14.37274
G1 X154.085 Y90.705 E14.38673
G1 X153.248 Y91.104 E14.42528
G1 X152.669 Y91.331 E14.45113
G1 X152.488 Y91.396 E14.45913
G1 X151.603 Y91.672 E14.49767
G1 X150.935 Y91.826 E14.52617
G1 X150.57 Y91.898 E14.54164
G1 X149.654 Y92.038 E14.58016
G1 X149.054 Y92.086 E14.60519
G1 X148.673 Y92.106 E14.62105
G1 X148.275 Y92.12 E14.63761
G1 X147.461 Y92.131 E14.67145
G1 X97.853 Y92.13 E16.73391
G1 X97.275 Y92.121 E16.75795
G1 X96.908 Y92.109 E16.77321
G1 X96.506 Y92.089 E16.78995
G1 X95.583 Y92.003 E16.82849
G1 X94.951 Y91.897 E16.85513
G1 X94.628 Y91.833 E16.86882
G1 X93.727 Y91.614 E16.90737
G1 X93.15 Y91.429 E16.93256
G1 X92.914 Y91.346 E16.94296
G1 X92.054 Y91.001 E16.98149
G1 X91.409 Y90.683 E17.01138
G1 X91.082 Y90.508 E17.0268
G1 X89.989 Y89.837 E17.08013
G1 X89.889 Y89.767 E17.0852
G1 X88.829 Y88.92 E17.14161
G1 X88.591 Y88.704 E17.15497
G1 X87.994 Y88.119 E17.18972
G1 X87.961 Y88.084 E17.19172
G1 X87.178 Y87.153 E17.2423
G1 X87.008 Y86.926 E17.25409
G1 X86.371 Y85.972 E17.30178
G1 X86.232 Y85.738 E17.3131
G1 X85.615 Y84.534 E17.36934
G1 X85.354 Y83.878 E17.3987
G1 X85.268 Y83.64 E17.40922
G1 X84.958 Y82.629 E17.45318
G1 X84.887 Y82.349 E17.46519
G1 X84.698 Y81.442 E17.50371
G1 X84.613 Y80.801 E17.53059
G1 X84.578 Y80.459 E17.54489
G1 X84.525 Y79.633 E17.5793
G1 X84.519 Y79.392 E17.58932
G1 X84.516 Y79.124 E17.60046
G1 X84.517 Y58.835 E18.44398
G1 X84.526 Y58.202 E18.4703
G1 X84.552 Y57.589 E18.49581
G1 X84.557 Y57.519 E18.49873
G1 X84.64 Y56.75 E18.53089
G1 X84.685 Y56.438 E18.54399
G1 X84.904 Y55.332 E18.59087
G1 X84.941 Y55.186 E18.59713
G1 X85.238 Y54.211 E18.6395
G1 X85.343 Y53.917 E18.65248
G1 X85.692 Y53.059 E18.69099
G1 X86.24 Y52.017 E18.73994
G1 X86.454 Y51.659 E18.75728
G0 F6000 X86.883 Y51.916
G1 F1200 X87.381 Y51.16 E18.79492
G1 X87.849 Y50.563 E18.82645
G1 X87.979 Y50.409 E18.83483
G1 X88.875 Y49.474 E18.88867
G1 X89.085 Y49.281 E18.90053
G1 X90.007 Y48.528 E18.95002
G1 X90.174 Y48.407 E18.9586
G1 X91.064 Y47.829 E19.00272
G1 X91.239 Y47.728 E19.01112
G1 X92.043 Y47.311 E19.04877
G1 X92.847 Y46.978 E19.08495
G1 X93.203 Y46.848 E19.10071
G1 X94.205 Y46.539 E19.1443
G1 X94.458 Y46.475 E19.15515
G1 X95.345 Y46.292 E19.19281
G1 X96.118 Y46.198 E19.22518
G1 X96.429 Y46.172 E19.23816
G1 X97.185 Y46.136 E19.26962
G1 X97.71 Y46.131 E19.29145
G1 X118.219 Y46.131 E20.14412
G1 X119.07 Y46.142 E20.1795
G1 X119.357 Y46.15 E20.19144
G1 X120.261 Y46.189 E20.22905
G1 X121.508 Y46.259 E20.28098
G1 X124.031 Y46.33 E20.38592
G1 X126.563 Y46.328 E20.49118
G1 X129.1 Y46.255 E20.5967
G1 X130.199 Y46.193 E20.64247
G1 X131.163 Y46.151 E20.68258
G1 X131.459 Y46.142 E20.6949
G1 X132.295 Y46.131 E20.72966
G1 X134.114 Y46.132 E20.80528
G1 X134.82 Y46.142 E20.83464
G1 X135.112 Y46.15 E20.84678
G1 X135.981 Y46.188 E20.88294
G1 X137.227 Y46.258 E20.93483
G1 X139.751 Y46.329 E21.03981
G1 X142.283 Y46.329 E21.14507
G1 X144.822 Y46.256 E21.25068
G1 X145.976 Y46.191 E21.29873
G1 X146.854 Y46.153 E21.33527
G1 X147.159 Y46.144 E21.34795
G1 X147.758 Y46.136 E21.37286
G1 X148.045 Y46.136 E21.38479
G1 X148.387 Y46.141 E21.39901
G1 X149.254 Y46.191 E21.43512
G1 X149.625 Y46.228 E21.45062
G1 X150.521 Y46.357 E21.48825
G1 X151.102 Y46.485 E21.51299
G1 X151.381 Y46.555 E21.52495
G1 X152.249 Y46.814 E21.56261
G1 X152.839 Y47.039 E21.58886
G1 X153.186 Y47.184 E21.6045
G1 X154.005 Y47.57 E21.64214
G1 X154.88 Y48.087 E21.68439
G1 X155.127 Y48.25 E21.69669
G1 X156.106 Y48.984 E21.74757
G1 X156.263 Y49.117 E21.75612
G1 X157.052 Y49.861 E21.80121
G1 X157.587 Y50.463 E21.83469
G1 X157.814 Y50.74 E21.84958
G1 X158.356 Y51.465 E21.88721
G1 X158.695 Y51.996 E21.91341
G1 X158.886 Y52.317 E21.92894
G1 X159.314 Y53.114 E21.96655
G1 X159.72 Y54.082 E22.01019
G1 X159.782 Y54.254 E22.01779
G1 X159.993 Y54.909 E22.0464
G1 X160.07 Y55.178 E22.05803
G1 X160.32 Y56.274 E22.10477
G1 X160.421 Y57.004 E22.13541
G1 X160.447 Y57.26 E22.14611
G1 X160.492 Y57.906 E22.17303
G1 X160.505 Y58.247 E22.18722
G1 X160.511 Y58.524 E22.19873
G1 X160.515 Y58.909 E22.21474
G1 X160.513 Y78.914 E23.04645
G1 X160.504 Y79.564 E23.07348
G1 X160.445 Y80.53 E23.11372
G1 X160.389 Y80.985 E23.13278
G1 X160.342 Y81.309 E23.14639
G1 X160.238 Y81.903 E23.17146
G1 X160.021 Y82.782 E23.2091
G1 X159.83 Y83.369 E23.23476
G1 X159.715 Y83.688 E23.24886
G1 X159.37 Y84.525 E23.2865
G1 X158.87 Y85.472 E23.33102
G1 X158.705 Y85.748 E23.34439
G1 X158.131 Y86.605 E23.38728
G1 X157.951 Y86.847 E23.39981
G1 X157.38 Y87.549 E23.43744
G1 X156.622 Y88.314 E23.48221
G1 X156.424 Y88.494 E23.49333
G1 X155.652 Y89.13 E23.53492
G1 X155.456 Y89.276 E23.54508
G1 X154.707 Y89.784 E23.58271
G1 X154.147 Y90.105 E23.60954
G1 X153.85 Y90.263 E23.62353
G1 X153.033 Y90.653 E23.66117
G1 X152.5 Y90.861 E23.68496
G1 X152.319 Y90.926 E23.69295
G1 X151.455 Y91.194 E23.73056
G1 X150.839 Y91.335 E23.75683
G1 X150.474 Y91.407 E23.7723
G1 X149.579 Y91.543 E23.80994
G1 X149.027 Y91.587 E23.83296
G1 X148.646 Y91.607 E23.84882
G1 X148.267 Y91.62 E23.86459
G1 X147.461 Y91.631 E23.8981
G1 X97.86 Y91.63 E25.96027
G1 X97.282 Y91.621 E25.9843
G1 X96.933 Y91.609 E25.99882
G1 X96.531 Y91.589 E26.01556
G1 X95.629 Y91.504 E26.05322
G1 X95.048 Y91.407 E26.07771
G1 X94.725 Y91.343 E26.0914
G1 X93.845 Y91.128 E26.12906
G1 X93.316 Y90.957 E26.15218
G1 X93.08 Y90.874 E26.16258
G1 X92.24 Y90.537 E26.20021
G1 X91.645 Y90.242 E26.22782
G1 X91.318 Y90.067 E26.24324
G1 X90.276 Y89.427 E26.29408
G1 X90.176 Y89.357 E26.29915
G1 X89.165 Y88.55 E26.35293
G1 X88.927 Y88.334 E26.3663
G1 X88.358 Y87.776 E26.39943
G1 X88.325 Y87.741 E26.40143
G1 X87.579 Y86.853 E26.44965
G1 X87.409 Y86.626 E26.46144
G1 X86.801 Y85.717 E26.5069
G1 X86.662 Y85.483 E26.51822
G1 X86.074 Y84.335 E26.57184
G1 X85.824 Y83.708 E26.59991
G1 X85.738 Y83.47 E26.61043
G1 X85.442 Y82.506 E26.65235
G1 X85.371 Y82.226 E26.66436
G1 X85.188 Y81.34 E26.70198
G1 X85.11 Y80.751 E26.72668
G1 X85.075 Y80.409 E26.74097
G1 X85.025 Y79.62 E26.77384
G1 X85.019 Y79.379 E26.78386
G1 X85.016 Y79.124 E26.79447
G1 X85.017 Y58.842 E27.63769
G1 X85.026 Y58.209 E27.66401
G1 X85.051 Y57.625 E27.68831
G1 X85.056 Y57.555 E27.69123
G1 X85.135 Y56.822 E27.72188
G1 X85.18 Y56.51 E27.73499
G1 X85.389 Y55.455 E27.7797
G1 X85.426 Y55.309 E27.78597
G1 X85.709 Y54.38 E27.82634
G1 X85.814 Y54.086 E27.83932
G1 X86.156 Y53.247 E27.87699
G1 X86.669 Y52.274 E27.92272
G1 X86.883 Y51.916 E27.94006
G1 F2700 E22.94006
;MESH:Mains block-BodyFillet.stl
G0 F6000 X94.764 Y80.3
G0 X95.139 Y80.986
G0 X95.74 Y81.566
G0 X96.524 Y81.94
G0 X97.099 Y82.024
G0 X133.519 Y82.046
G0 X133.519 Y75.783
G0 X133.99 Y76.768
G0 X134.328 Y77.12
;TYPE:WALL-INNER
G1 F2700 E27.94006
G1 F1200 X134.063 Y77.122 E27.95108
G1 X134.01 Y77.076 E27.95399
G1 X133.897 Y76.979 E27.96019
G1 X133.888 Y76.953 E27.96133
G1 X133.773 Y76.625 E27.97578
G1 X133.747 Y76.37 E27.98644
G1 X133.75 Y76.163 E27.99504
G1 X133.793 Y75.85 E28.00818
G1 X133.944 Y75.541 E28.02248
G1 X133.949 Y75.531 E28.02294
G1 X134.198 Y75.428 E28.03415
G1 X134.435 Y75.519 E28.0447
G1 X134.44 Y75.529 E28.04517
G1 X134.607 Y75.851 E28.06025
G1 X134.656 Y76.326 E28.0801
G1 X134.589 Y76.788 E28.09951
G1 X134.473 Y76.993 E28.1093
G1 X134.438 Y77.054 E28.11222
G1 X134.352 Y77.106 E28.1164
G1 X134.328 Y77.12 E28.11756
G0 F6000 X134.49 Y77.605
;TYPE:WALL-OUTER
G1 F1200 X134.134 Y77.645 E28.13245
G1 X133.882 Y77.595 E28.14313
G1 X133.651 Y77.46 E28.15426
G1 X133.477 Y77.257 E28.16537
G1 X133.357 Y77.015 E28.1766
G1 X133.278 Y76.707 E28.18982
G1 X133.247 Y76.395 E28.20286
G1 X133.25 Y76.127 E28.214
G1 X133.305 Y75.733 E28.23054
G1 X133.397 Y75.464 E28.24236
G1 X133.577 Y75.187 E28.25609
G1 X133.785 Y75.023 E28.26711
G1 X134.123 Y74.93 E28.28168
G1 X134.238 Y74.926 E28.28646
