;FLAVOR:Marlin
;TIME:6494
;Filament used: 4.54315m
;Layer height: 0.2
;MINX:29.502
;MINY:23.527
;MINZ:0.2
;MAXX:166.5
;MAXY:125.526
;MAXZ:5
;Generated with Cura_SteamEngine 4.11.0
M140 S50
M105
M190 S50
M104 S200
M105
M109 S200
M82 ;absolute extrusion mode
M201 X500.00 Y500.00 Z100.00 E5000.00 ;Setup machine max acceleration
M203 X500.00 Y500.00 Z10.00 E50.00 ;Setup machine max feedrate
M204 P500.00 R1000.00 T500.00 ;Setup Print/Retract/Travel acceleration
M205 X8.00 Y8.00 Z0.40 E5.00 ;Setup Jerk
M220 S100 ;Reset Feedrate
M221 S100 ;Reset Flowrate

G28 ;Home
G29 ;Auto bed Level

G92 E0 ;Reset Extruder
G1 Z2.0 F3000 ;Move Z Axis up
G1 X10.1 Y20 Z0.28 F5000.0 ;Move to start position
G1 X10.1 Y200.0 Z0.28 F1500.0 E15 ;Draw the first line
G1 X10.4 Y200.0 Z0.28 F5000.0 ;Move to side a little
G1 X10.4 Y20 Z0.28 F1500.0 E30 ;Draw the second line
G92 E0 ;Reset Extruder
G1 Z2.0 F3000 ;Move Z Axis up

G92 E0
G92 E0
G1 F2700 E-5
;LAYER_COUNT:25
;LAYER:0
M107
G0 F6000 X32.85 Y27.832 Z0.2
;TYPE:SKIRT
G1 F2700 E0
G1 F1200 X33.19 Y27.475 E0.0164
G1 X33.397 Y27.267 E0.02616
G1 X34.291 Y26.461 E0.06619
G1 X34.425 Y26.353 E0.07192
G1 X35.18 Y25.797 E0.1031
G1 X35.69 Y25.473 E0.1232
G1 X35.886 Y25.356 E0.13079
G1 X36.801 Y24.867 E0.1653
G1 X37.127 Y24.712 E0.1773
G1 X37.99 Y24.345 E0.20849
G1 X39.221 Y23.965 E0.25134
G1 X39.542 Y23.886 E0.26234
G1 X40.462 Y23.701 E0.29355
G1 X41.037 Y23.626 E0.31284
G1 X41.259 Y23.603 E0.32026
G1 X41.995 Y23.551 E0.3448
G1 X42.382 Y23.537 E0.35768
G1 X42.655 Y23.531 E0.36676
G1 X43.045 Y23.527 E0.37974
G1 X154.001 Y23.529 E4.07015
G1 X154.705 Y23.539 E4.09356
G1 X155.642 Y23.592 E4.12478
G1 X156.175 Y23.659 E4.14265
G1 X156.369 Y23.688 E4.14917
G1 X157.29 Y23.866 E4.18037
G1 X158.192 Y24.122 E4.21156
G1 X159.01 Y24.428 E4.2406
G1 X159.288 Y24.545 E4.25064
G1 X160.136 Y24.946 E4.28183
G1 X160.947 Y25.417 E4.31303
G1 X161.824 Y26.04 E4.34881
G1 X161.993 Y26.173 E4.35596
G1 X162.968 Y27.039 E4.39933
G1 X163.018 Y27.089 E4.40169
G1 X163.652 Y27.78 E4.43288
G1 X164.289 Y28.613 E4.46775
G1 X164.421 Y28.804 E4.47548
G1 X164.921 Y29.598 E4.50669
G1 X165.537 Y30.854 E4.55321
G1 X165.616 Y31.045 E4.56009
G1 X166.04 Y32.271 E4.60323
G1 X166.264 Y33.216 E4.63554
G1 X166.382 Y33.972 E4.66099
G1 X166.414 Y34.239 E4.66993
G1 X166.489 Y35.294 E4.70511
G1 X166.497 Y35.64 E4.71662
G1 X166.5 Y35.893 E4.72503
G1 X166.5 Y47.568 E5.11335
G1 X166.482 Y48.777 E5.15356
G1 X166.425 Y50.769 E5.21984
G1 X166.425 Y53.255 E5.30253
G1 X166.482 Y55.324 E5.37137
G1 X166.497 Y56.384 E5.40663
G1 X166.497 Y56.707 E5.41737
G1 X166.489 Y57.234 E5.4349
G1 X166.435 Y58.17 E5.46609
G1 X166.372 Y58.673 E5.48295
G1 X166.341 Y58.883 E5.49001
G1 X166.165 Y59.805 E5.52123
G1 X165.91 Y60.707 E5.5524
G1 X165.505 Y61.758 E5.58986
G1 X165.377 Y62.045 E5.60032
G1 X164.959 Y62.884 E5.63149
G1 X164.471 Y63.685 E5.66269
G1 X163.916 Y64.441 E5.69388
G1 X163.285 Y65.162 E5.72575
G1 X163.05 Y65.408 E5.73706
G1 X162.374 Y66.058 E5.76826
G1 X161.44 Y66.797 E5.80787
G1 X161.338 Y66.869 E5.81202
G1 X160.549 Y67.376 E5.84321
G1 X159.403 Y67.96 E5.88599
G1 X159.211 Y68.044 E5.89297
G1 X158.337 Y68.383 E5.92414
G1 X157.436 Y68.646 E5.95536
G1 X156.553 Y68.826 E5.98534
G1 X156.218 Y68.88 E5.99662
G1 X155.286 Y68.989 E6.02783
G1 X154.593 Y69.019 E6.0509
G1 X153.945 Y69.026 E6.07246
G1 X140.249 Y69.027 E6.52799
G1 X137.64 Y69.064 E6.61477
G1 X135.118 Y69.171 E6.69873
G1 X132.639 Y69.347 E6.78139
G1 X130.113 Y69.598 E6.86582
G1 X127.636 Y69.915 E6.94887
G1 X125.127 Y70.309 E7.03335
G1 X122.661 Y70.768 E7.11677
G1 X120.21 Y71.295 E7.20016
G1 X117.755 Y71.897 E7.28423
G1 X115.315 Y72.569 E7.36841
G1 X112.937 Y73.297 E7.45112
G1 X110.52 Y74.113 E7.53597
G1 X108.183 Y74.975 E7.61882
G1 X105.848 Y75.913 E7.70251
G1 X103.508 Y76.931 E7.78739
G1 X101.242 Y77.994 E7.87064
G1 X99.012 Y79.117 E7.95368
G1 X96.774 Y80.324 E8.03825
G1 X94.623 Y81.566 E8.12086
G1 X92.439 Y82.91 E8.20616
G1 X90.38 Y84.259 E8.28803
G1 X88.265 Y85.732 E8.37375
G1 X86.266 Y87.209 E8.45642
G1 X84.288 Y88.758 E8.53998
G1 X82.343 Y90.374 E8.62409
G1 X80.469 Y92.023 E8.70711
G1 X78.617 Y93.746 E8.79124
G1 X76.831 Y95.505 E8.87462
G1 X75.085 Y97.325 E8.9585
G1 X73.385 Y99.2 E9.04268
G1 X71.748 Y101.113 E9.12643
G1 X70.177 Y103.055 E9.20951
G1 X68.634 Y105.08 E9.29418
G1 X67.176 Y107.109 E9.37728
G1 X65.765 Y109.193 E9.46099
G1 X64.411 Y111.323 E9.54494
G1 X63.113 Y113.496 E9.62912
G1 X61.903 Y115.658 E9.71153
G1 X60.714 Y117.932 E9.79688
G1 X60.389 Y118.59 E9.82128
G1 X60.165 Y119.026 E9.83759
G1 X59.656 Y119.906 E9.8714
G1 X59.545 Y120.079 E9.87824
G1 X59.006 Y120.846 E9.90942
G1 X58.09 Y121.892 E9.95566
G1 X57.933 Y122.05 E9.96307
G1 X57.244 Y122.687 E9.99428
G1 X56.503 Y123.262 E10.02547
G1 X55.75 Y123.753 E10.05537
G1 X55.506 Y123.898 E10.06481
G1 X54.68 Y124.343 E10.09602
G1 X53.504 Y124.83 E10.13835
G1 X53.415 Y124.861 E10.14149
G1 X52.517 Y125.131 E10.17268
G1 X51.599 Y125.324 E10.20388
G1 X51.34 Y125.367 E10.21261
G1 X50.409 Y125.481 E10.24381
G1 X49.698 Y125.515 E10.26748
G1 X48.853 Y125.526 E10.29559
G1 X41.922 Y125.526 E10.52611
G1 X41.292 Y125.517 E10.54707
G1 X41.087 Y125.51 E10.55389
G1 X40.152 Y125.438 E10.58508
G1 X39.277 Y125.297 E10.61456
G1 X38.976 Y125.236 E10.62478
G1 X38.066 Y125.011 E10.65595
G1 X37.178 Y124.709 E10.68715
G1 X36.135 Y124.24 E10.72519
G1 X35.915 Y124.127 E10.73341
G1 X35.1 Y123.663 E10.76461
G1 X34.327 Y123.132 E10.7958
G1 X33.812 Y122.719 E10.81775
G1 X33.651 Y122.582 E10.82478
G1 X32.964 Y121.945 E10.85595
G1 X32.333 Y121.251 E10.88714
G1 X31.763 Y120.506 E10.91834
G1 X31.461 Y120.05 E10.93653
G1 X31.286 Y119.771 E10.94749
G1 X30.822 Y118.956 E10.97868
G1 X30.429 Y118.104 E11.00989
G1 X30.19 Y117.466 E11.03255
G1 X30.121 Y117.263 E11.03968
G1 X29.857 Y116.363 E11.07087
G1 X29.613 Y115.02 E11.11627
G1 X29.587 Y114.801 E11.12361
G1 X29.514 Y113.811 E11.15662
G1 X29.504 Y113.38 E11.17096
G1 X29.502 Y113.047 E11.18204
G1 X29.502 Y36.904 E13.71457
G1 X29.507 Y36.495 E13.72817
G1 X29.513 Y36.23 E13.73699
G1 X29.522 Y35.982 E13.74524
G1 X29.625 Y34.831 E13.78368
G1 X29.662 Y34.571 E13.79241
G1 X29.924 Y33.283 E13.83613
G1 X29.979 Y33.077 E13.84322
G1 X30.425 Y31.753 E13.88969
G1 X30.537 Y31.479 E13.89953
G1 X30.928 Y30.627 E13.93071
G1 X31.213 Y30.106 E13.95046
G1 X31.351 Y29.869 E13.95958
G1 X32.119 Y28.722 E14.0055
G1 X32.249 Y28.552 E14.01261
G1 X32.85 Y27.832 E14.04381
G0 F6000 X33.474 Y27.757
G1 F1200 X33.681 Y27.549 E14.05357
G1 X34.542 Y26.773 E14.09212
G1 X34.676 Y26.665 E14.09784
G1 X35.417 Y26.119 E14.12846
G1 X35.895 Y25.816 E14.14728
G1 X36.091 Y25.699 E14.15487
G1 X36.972 Y25.228 E14.1881
G1 X37.298 Y25.073 E14.20011
G1 X38.146 Y24.714 E14.23073
G1 X39.317 Y24.353 E14.27149
G1 X39.638 Y24.274 E14.28248
G1 X40.541 Y24.093 E14.31312
G1 X41.079 Y24.023 E14.33116
G1 X41.301 Y24 E14.33858
G1 X42.01 Y23.951 E14.36222
G1 X42.397 Y23.937 E14.3751
G1 X42.66 Y23.931 E14.38385
G1 X43.045 Y23.927 E14.39666
G1 X153.996 Y23.929 E18.0869
G1 X154.7 Y23.939 E18.11032
G1 X155.619 Y23.992 E18.14094
G1 X156.116 Y24.054 E18.1576
G1 X156.31 Y24.083 E18.16412
G1 X157.214 Y24.259 E18.19475
G1 X158.099 Y24.512 E18.22537
G1 X158.855 Y24.797 E18.25224
G1 X159.133 Y24.914 E18.26227
G1 X159.965 Y25.308 E18.29289
G1 X160.76 Y25.772 E18.3235
G1 X161.576 Y26.354 E18.35684
G1 X161.745 Y26.487 E18.36399
G1 X162.685 Y27.322 E18.40581
G1 X162.735 Y27.372 E18.40816
G1 X163.357 Y28.05 E18.43877
G1 X163.96 Y28.84 E18.47182
G1 X164.092 Y29.031 E18.47954
G1 X164.582 Y29.811 E18.51018
G1 X165.167 Y31.007 E18.55446
G1 X165.246 Y31.198 E18.56134
G1 X165.655 Y32.379 E18.60291
G1 X165.875 Y33.307 E18.63463
G1 X165.985 Y34.02 E18.65862
G1 X166.017 Y34.287 E18.66757
G1 X166.089 Y35.303 E18.70144
G1 X166.097 Y35.649 E18.71295
G1 X166.1 Y35.893 E18.72107
G1 X166.1 Y47.562 E19.10918
G1 X166.082 Y48.765 E19.1492
G1 X166.025 Y50.757 E19.21548
G1 X166.025 Y53.266 E19.29893
G1 X166.082 Y55.33 E19.36761
G1 X166.097 Y56.39 E19.40287
G1 X166.097 Y56.701 E19.41321
G1 X166.089 Y57.228 E19.43074
G1 X166.035 Y58.147 E19.46136
G1 X165.976 Y58.615 E19.47705
G1 X165.945 Y58.825 E19.48411
G1 X165.771 Y59.729 E19.51473
G1 X165.52 Y60.615 E19.54535
G1 X165.14 Y61.595 E19.58031
G1 X165.012 Y61.882 E19.59077
G1 X164.601 Y62.705 E19.62136
G1 X164.12 Y63.49 E19.65198
G1 X163.572 Y64.231 E19.68264
G1 X162.996 Y64.886 E19.71165
G1 X162.761 Y65.132 E19.72296
G1 X162.096 Y65.769 E19.75359
G1 X161.209 Y66.47 E19.79119
G1 X161.107 Y66.542 E19.79535
G1 X160.332 Y67.04 E19.82599
G1 X159.243 Y67.593 E19.86661
G1 X159.051 Y67.677 E19.87358
G1 X158.192 Y68.009 E19.90421
G1 X157.308 Y68.266 E19.93483
G1 X156.489 Y68.431 E19.96262
G1 X156.154 Y68.485 E19.9739
G1 X155.239 Y68.592 E20.00454
G1 X154.589 Y68.619 E20.02618
G1 X153.945 Y68.626 E20.0476
G1 X140.243 Y68.627 E20.50333
G1 X137.617 Y68.664 E20.59068
G1 X135.109 Y68.771 E20.67417
G1 X132.608 Y68.948 E20.75756
G1 X130.056 Y69.202 E20.84286
G1 X127.56 Y69.521 E20.92656
G1 X125.098 Y69.908 E21.00945
G1 X122.576 Y70.377 E21.09477
G1 X120.102 Y70.909 E21.17894
G1 X117.65 Y71.51 E21.2629
G1 X115.238 Y72.175 E21.34612
G1 X112.797 Y72.922 E21.43102
G1 X110.401 Y73.73 E21.51512
G1 X108.032 Y74.605 E21.59912
G1 X105.676 Y75.551 E21.68356
G1 X103.37 Y76.554 E21.7672
G1 X101.057 Y77.639 E21.85218
G1 X98.821 Y78.765 E21.93544
G1 X96.59 Y79.969 E22.01976
G1 X94.393 Y81.238 E22.10415
G1 X92.257 Y82.552 E22.18756
G1 X90.114 Y83.956 E22.27277
G1 X88.086 Y85.369 E22.35498
G1 X85.988 Y86.918 E22.44172
G1 X84.049 Y88.437 E22.52364
G1 X82.089 Y90.065 E22.60839
G1 X80.196 Y91.731 E22.69226
G1 X78.347 Y93.451 E22.77625
G1 X76.527 Y95.243 E22.8612
G1 X74.782 Y97.063 E22.94506
G1 X73.085 Y98.934 E23.02908
G1 X71.449 Y100.846 E23.11277
G1 X69.864 Y102.806 E23.19661
G1 X68.32 Y104.832 E23.28133
G1 X66.852 Y106.874 E23.36498
G1 X65.43 Y108.976 E23.44939
G1 X64.074 Y111.108 E23.53343
G1 X62.764 Y113.302 E23.61842
G1 X61.543 Y115.484 E23.70158
G1 X60.358 Y117.749 E23.7866
G1 X60.03 Y118.413 E23.81123
G1 X59.81 Y118.842 E23.82727
G1 X59.32 Y119.69 E23.85984
G1 X59.209 Y119.863 E23.86668
G1 X58.678 Y120.616 E23.89733
G1 X57.806 Y121.61 E23.94131
G1 X57.649 Y121.768 E23.94871
G1 X56.972 Y122.393 E23.97936
G1 X56.244 Y122.956 E24.00997
G1 X55.545 Y123.409 E24.03767
G1 X55.301 Y123.554 E24.04711
G1 X54.49 Y123.99 E24.07774
G1 X53.373 Y124.452 E24.11794
G1 X53.284 Y124.483 E24.12108
G1 X52.402 Y124.748 E24.15171
G1 X51.533 Y124.93 E24.18124
G1 X51.274 Y124.973 E24.18997
G1 X50.36 Y125.084 E24.22059
G1 X49.692 Y125.115 E24.24284
G1 X48.853 Y125.126 E24.27074
G1 X41.926 Y125.126 E24.50114
G1 X41.305 Y125.117 E24.52179
G1 X41.1 Y125.11 E24.52861
G1 X40.182 Y125.038 E24.55924
G1 X39.357 Y124.905 E24.58704
G1 X39.056 Y124.844 E24.59725
G1 X38.162 Y124.622 E24.62789
G1 X37.291 Y124.323 E24.65852
G1 X36.318 Y123.884 E24.69402
G1 X36.098 Y123.771 E24.70225
G1 X35.298 Y123.315 E24.73287
G1 X34.541 Y122.792 E24.76348
G1 X34.072 Y122.415 E24.78349
G1 X33.911 Y122.278 E24.79052
G1 X33.236 Y121.651 E24.82116
G1 X32.618 Y120.969 E24.85177
G1 X32.062 Y120.235 E24.8824
G1 X31.8 Y119.837 E24.89825
G1 X31.625 Y119.558 E24.9092
G1 X31.17 Y118.758 E24.93981
G1 X30.787 Y117.921 E24.97043
G1 X30.569 Y117.337 E24.99116
G1 X30.5 Y117.134 E24.99829
G1 X30.242 Y116.251 E25.02889
G1 X30.01 Y114.973 E25.07209
G1 X29.984 Y114.754 E25.07943
G1 X29.914 Y113.8 E25.11124
G1 X29.904 Y113.377 E25.12531
G1 X29.902 Y113.047 E25.13629
G1 X29.902 Y36.908 E27.66868
G1 X29.907 Y36.499 E27.68229
G1 X29.913 Y36.245 E27.69074
G1 X29.922 Y35.997 E27.69899
G1 X30.021 Y34.888 E27.73602
G1 X30.058 Y34.628 E27.74476
G1 X30.311 Y33.387 E27.78688
G1 X30.366 Y33.181 E27.79398
G1 X30.795 Y31.904 E27.83878
G1 X30.907 Y31.63 E27.84863
G1 X31.292 Y30.794 E27.87924
G1 X31.559 Y30.307 E27.89771
G1 X31.697 Y30.07 E27.90683
G1 X32.437 Y28.965 E27.95107
G1 X32.567 Y28.795 E27.95818
G1 X33.474 Y27.757 E28.00403
G0 F6000 X33.757 Y28.039
G1 F1200 X33.964 Y27.831 E28.01379
G1 X34.793 Y27.084 E28.05091
G1 X34.927 Y26.976 E28.05663
G1 X35.655 Y26.441 E28.08668
G1 X36.1 Y26.16 E28.10418
G1 X36.296 Y26.043 E28.11178
G1 X37.144 Y25.589 E28.14377
G1 X37.47 Y25.434 E28.15577
G1 X38.302 Y25.083 E28.18581
G1 X39.412 Y24.742 E28.22443
G1 X39.733 Y24.663 E28.23542
G1 X40.619 Y24.486 E28.26548
G1 X41.12 Y24.421 E28.28228
G1 X41.342 Y24.398 E28.2897
G1 X42.024 Y24.351 E28.31244
G1 X42.411 Y24.337 E28.32532
G1 X42.665 Y24.331 E28.33377
G1 X43.045 Y24.327 E28.34641
G1 X153.99 Y24.329 E32.03645
G1 X154.694 Y24.339 E32.05987
G1 X155.595 Y24.392 E32.08989
G1 X156.057 Y24.45 E32.10538
G1 X156.251 Y24.479 E32.1119
G1 X157.137 Y24.652 E32.14193
G1 X158.005 Y24.903 E32.17198
G1 X158.7 Y25.166 E32.1967
G1 X158.978 Y25.283 E32.20673
G1 X159.794 Y25.67 E32.23676
G1 X160.572 Y26.127 E32.26678
G1 X161.329 Y26.668 E32.29772
G1 X161.498 Y26.801 E32.30487
G1 X162.402 Y27.605 E32.34511
G1 X162.452 Y27.655 E32.34747
G1 X163.062 Y28.321 E32.3775
G1 X163.631 Y29.068 E32.40874
G1 X163.763 Y29.259 E32.41646
G1 X164.243 Y30.024 E32.4465
G1 X164.798 Y31.159 E32.48852
G1 X164.877 Y31.35 E32.49539
G1 X165.27 Y32.487 E32.5354
G1 X165.279 Y32.519 E32.53651
G1 X165.485 Y33.399 E32.56657
G1 X165.588 Y34.067 E32.58905
G1 X165.62 Y34.334 E32.59799
G1 X165.689 Y35.312 E32.6306
G1 X165.697 Y35.658 E32.64211
G1 X165.7 Y35.893 E32.64993
G1 X165.7 Y47.557 E33.03788
G1 X165.682 Y48.754 E33.07769
G1 X165.625 Y50.746 E33.14398
G1 X165.625 Y53.278 E33.22819
G1 X165.682 Y55.336 E33.29667
G1 X165.697 Y56.396 E33.33193
G1 X165.697 Y56.695 E33.34187
G1 X165.689 Y57.222 E33.3594
G1 X165.581 Y58.557 E33.40395
G1 X165.55 Y58.767 E33.41101
G1 X165.378 Y59.653 E33.44103
G1 X165.129 Y60.521 E33.47106
G1 X164.775 Y61.432 E33.50357
G1 X164.647 Y61.719 E33.51402
G1 X164.243 Y62.526 E33.54404
G1 X163.769 Y63.295 E33.57408
G1 X163.229 Y64.019 E33.60412
G1 X162.707 Y64.61 E33.63035
G1 X162.472 Y64.856 E33.64166
G1 X161.819 Y65.48 E33.67171
G1 X160.978 Y66.143 E33.70732
G1 X160.876 Y66.215 E33.71148
G1 X160.116 Y66.703 E33.74152
G1 X159.082 Y67.227 E33.78007
G1 X158.89 Y67.311 E33.78704
G1 X158.048 Y67.636 E33.81706
G1 X157.18 Y67.885 E33.84709
G1 X156.425 Y68.036 E33.8727
G1 X156.09 Y68.09 E33.88399
G1 X155.193 Y68.194 E33.91402
G1 X154.584 Y68.219 E33.9343
G1 X153.945 Y68.226 E33.95555
G1 X140.237 Y68.227 E34.41148
G1 X137.63 Y68.264 E34.4982
G1 X135.062 Y68.373 E34.58369
G1 X132.575 Y68.549 E34.66661
G1 X130.036 Y68.802 E34.75148
G1 X127.485 Y69.128 E34.83701
G1 X125 Y69.519 E34.92068
G1 X122.517 Y69.98 E35.00468
G1 X120.036 Y70.514 E35.08909
G1 X117.554 Y71.122 E35.17408
G1 X115.078 Y71.805 E35.25951
G1 X112.699 Y72.533 E35.34226
G1 X110.271 Y73.352 E35.42748
G1 X107.862 Y74.242 E35.5129
G1 X105.546 Y75.171 E35.59589
G1 X103.206 Y76.189 E35.68077
G1 X100.886 Y77.278 E35.76601
G1 X98.63 Y78.414 E35.85002
G1 X96.379 Y79.628 E35.93508
G1 X94.215 Y80.878 E36.0182
G1 X92.025 Y82.226 E36.10374
G1 X89.913 Y83.609 E36.1877
G1 X87.825 Y85.064 E36.27235
G1 X85.789 Y86.567 E36.35652
G1 X83.775 Y88.145 E36.44162
G1 X81.833 Y89.759 E36.5256
G1 X79.905 Y91.455 E36.61101
G1 X78.076 Y93.156 E36.69408
G1 X76.258 Y94.946 E36.77894
G1 X74.497 Y96.783 E36.86358
G1 X72.769 Y98.689 E36.94915
G1 X71.15 Y100.58 E37.03195
G1 X69.55 Y102.558 E37.11656
G1 X67.997 Y104.596 E37.20178
G1 X66.507 Y106.669 E37.28669
G1 X65.104 Y108.743 E37.36998
G1 X63.725 Y110.91 E37.45541
G1 X62.429 Y113.081 E37.5395
G1 X61.197 Y115.283 E37.62343
G1 X60.003 Y117.565 E37.70909
G1 X59.672 Y118.236 E37.73397
G1 X59.455 Y118.658 E37.74976
G1 X58.983 Y119.474 E37.78111
G1 X58.872 Y119.647 E37.78795
G1 X58.351 Y120.385 E37.81799
G1 X57.522 Y121.329 E37.85978
G1 X57.365 Y121.487 E37.86719
G1 X56.701 Y122.098 E37.8972
G1 X55.985 Y122.649 E37.92725
G1 X55.341 Y123.066 E37.95277
G1 X55.097 Y123.211 E37.96221
G1 X54.301 Y123.637 E37.99223
G1 X53.241 Y124.074 E38.03037
G1 X53.152 Y124.105 E38.0335
G1 X52.287 Y124.364 E38.06353
G1 X51.468 Y124.535 E38.09136
G1 X51.209 Y124.578 E38.10009
G1 X50.312 Y124.687 E38.13015
G1 X49.686 Y124.715 E38.15099
G1 X48.852 Y124.726 E38.17873
G1 X41.931 Y124.726 E38.40892
G1 X41.558 Y124.722 E38.42133
G1 X41.114 Y124.71 E38.4361
