;FLAVOR:Marlin
;TIME:10287
;Filament used: 7.59517m
;Layer height: 0.2
;MINX:82.753
;MINY:206.687
;MINZ:0.2
;MAXX:278.253
;MAXY:277.71
;MAXZ:5
;Generated with Cura_SteamEngine 4.10.0
M140 S60
M105
M190 S60
M104 S200
M105
M109 S200
M82 ;absolute extrusion mode
M201 X500.00 Y500.00 Z100.00 E5000.00 ;Setup machine max acceleration
M203 X500.00 Y500.00 Z10.00 E50.00 ;Setup machine max feedrate
M204 P500.00 R1000.00 T500.00 ;Setup Print/Retract/Travel acceleration
M205 X8.00 Y8.00 Z0.40 E5.00 ;Setup Jerk
M220 S100 ;Reset Feedrate
M221 S100 ;Reset Flowrate

G28 ;Home
G29 ;Auto bed Level

G92 E0 ;Reset Extruder
G1 Z2.0 F3000 ;Move Z Axis up
G1 X10.1 Y20 Z0.28 F5000.0 ;Move to start position
G1 X10.1 Y200.0 Z0.28 F1500.0 E15 ;Draw the first line
G1 X10.4 Y200.0 Z0.28 F5000.0 ;Move to side a little
G1 X10.4 Y20 Z0.28 F1500.0 E30 ;Draw the second line
G92 E0 ;Reset Extruder
G1 Z2.0 F3000 ;Move Z Axis up

G92 E0
G92 E0
G1 F2700 E-5
;LAYER_COUNT:25
;LAYER:0
M107
G0 F6000 X90.779 Y207.778 Z0.2
;TYPE:SKIRT
G1 F2700 E0
G1 F1200 X91.401 Y207.534 E0.02778
G1 X91.658 Y207.442 E0.03913
G1 X92.683 Y207.13 E0.08367
G1 X92.951 Y207.062 E0.09517
G1 X93.88 Y206.867 E0.13463
G1 X94.509 Y206.781 E0.16103
G1 X94.62 Y206.769 E0.16567
G1 X95.162 Y206.724 E0.18828
G1 X95.381 Y206.711 E0.1974
G1 X95.946 Y206.691 E0.22091
G1 X96.488 Y206.687 E0.24344
G1 X264.56 Y206.689 E7.23106
G1 X265.295 Y206.7 E7.26162
G1 X266.242 Y206.754 E7.30106
G1 X267.018 Y206.859 E7.33361
G1 X267.364 Y206.918 E7.34821
G1 X268.291 Y207.117 E7.38763
G1 X269.031 Y207.335 E7.4197
G1 X269.37 Y207.448 E7.43455
G1 X270.256 Y207.786 E7.47398
G1 X271.218 Y208.255 E7.51847
G1 X271.437 Y208.375 E7.52886
G1 X272.367 Y208.945 E7.57421
G1 X272.524 Y209.052 E7.58211
G1 X273.285 Y209.619 E7.62156
G1 X273.483 Y209.78 E7.63217
G1 X274.194 Y210.409 E7.67164
G1 X274.712 Y210.944 E7.7026
G1 X274.871 Y211.119 E7.71243
G1 X275.479 Y211.847 E7.75186
G1 X275.935 Y212.489 E7.7846
G1 X276.094 Y212.73 E7.7966
G1 X276.576 Y213.53 E7.83543
G1 X276.67 Y213.702 E7.84358
G1 X277.204 Y214.821 E7.89513
G1 X277.294 Y215.04 E7.90498
G1 X277.673 Y216.116 E7.95241
G1 X277.7 Y216.207 E7.95635
G1 X277.945 Y217.193 E7.99859
G1 X278.004 Y217.487 E8.01106
G1 X278.151 Y218.424 E8.05049
G1 X278.211 Y219.153 E8.0809
G1 X278.229 Y219.522 E8.09626
G1 X278.24 Y219.886 E8.1114
G1 X278.253 Y220.741 E8.14695
G1 X278.252 Y231.174 E8.58071
G1 X278.242 Y231.88 E8.61006
G1 X278.233 Y232.2 E8.62337
G1 X278.19 Y233.186 E8.6644
G1 X278.137 Y234.115 E8.70309
G1 X278.064 Y236.598 E8.80636
G1 X278.062 Y239.108 E8.91072
G1 X278.13 Y241.612 E9.01486
G1 X278.182 Y242.518 E9.05259
G1 X278.232 Y243.665 E9.10032
G1 X278.242 Y243.99 E9.11384
G1 X278.253 Y244.846 E9.14943
G1 X278.252 Y246.924 E9.23582
G1 X278.242 Y247.63 E9.26518
G1 X278.233 Y247.95 E9.27849
G1 X278.19 Y248.936 E9.31952
G1 X278.137 Y249.865 E9.35821
G1 X278.064 Y252.348 E9.46148
G1 X278.062 Y254.858 E9.56584
G1 X278.13 Y257.361 E9.66994
G1 X278.182 Y258.267 E9.70767
G1 X278.232 Y259.415 E9.75544
G1 X278.242 Y259.74 E9.76896
G1 X278.253 Y260.596 E9.80455
G1 X278.253 Y263.975 E9.94503
G1 X278.25 Y264.231 E9.95568
G1 X278.236 Y264.847 E9.98129
G1 X278.193 Y265.61 E10.01306
G1 X278.188 Y265.665 E10.01536
G1 X278.02 Y266.83 E10.0643
G1 X277.943 Y267.219 E10.08078
G1 X277.67 Y268.311 E10.12758
G1 X277.649 Y268.38 E10.13058
G1 X277.334 Y269.274 E10.16999
G1 X277.057 Y269.911 E10.19887
G1 X276.867 Y270.313 E10.21735
G1 X276.426 Y271.153 E10.2568
G1 X275.808 Y272.104 E10.30395
G1 X275.64 Y272.336 E10.31586
G1 X275.008 Y273.131 E10.35808
G1 X274.974 Y273.17 E10.36023
G1 X274.346 Y273.833 E10.3982
G1 X274.188 Y273.987 E10.40737
G1 X273.502 Y274.603 E10.4457
G1 X273.312 Y274.76 E10.45595
G1 X272.563 Y275.328 E10.49503
G1 X272.527 Y275.353 E10.49685
G1 X271.38 Y276.052 E10.5527
G1 X271.082 Y276.21 E10.56672
G1 X270.226 Y276.619 E10.60616
G1 X269.604 Y276.863 E10.63394
G1 X269.347 Y276.955 E10.64529
G1 X268.322 Y277.267 E10.68984
G1 X268.054 Y277.335 E10.70133
G1 X267.125 Y277.53 E10.7408
G1 X266.164 Y277.647 E10.78105
G1 X265.87 Y277.67 E10.79331
G1 X265.119 Y277.703 E10.82456
G1 X264.459 Y277.71 E10.852
G1 X96.445 Y277.708 E17.83721
G1 X95.71 Y277.697 E17.86777
G1 X94.628 Y277.628 E17.91285
G1 X94.458 Y277.609 E17.91996
G1 X93.521 Y277.464 E17.95938
G1 X92.92 Y277.328 E17.985
G1 X92.662 Y277.262 E17.99607
G1 X91.658 Y276.955 E18.03972
G1 X91.401 Y276.863 E18.05107
G1 X90.523 Y276.506 E18.09047
G1 X89.907 Y276.202 E18.11903
G1 X89.597 Y276.037 E18.13363
G1 X88.779 Y275.556 E18.17308
G1 X87.812 Y274.856 E18.22271
G1 X87.588 Y274.675 E18.23469
G1 X86.876 Y274.049 E18.2741
G1 X86.399 Y273.563 E18.30242
G1 X86.19 Y273.337 E18.31521
G1 X85.576 Y272.614 E18.35465
G1 X84.894 Y271.635 E18.40425
G1 X84.689 Y271.305 E18.42041
G1 X84.085 Y270.2 E18.47276
G1 X83.959 Y269.935 E18.48496
G1 X83.588 Y269.062 E18.5244
G1 X83.302 Y268.195 E18.56235
G1 X83.17 Y267.699 E18.58369
G1 X83.104 Y267.426 E18.59537
G1 X82.92 Y266.495 E18.63482
G1 X82.834 Y265.786 E18.66452
G1 X82.803 Y265.44 E18.67896
G1 X82.758 Y264.541 E18.71638
G1 X82.753 Y263.898 E18.74312
G1 X82.754 Y220.52 E20.54656
G1 X82.768 Y219.615 E20.58419
G1 X82.818 Y218.724 E20.6213
G1 X82.826 Y218.641 E20.62476
G1 X82.982 Y217.568 E20.66984
G1 X83.043 Y217.255 E20.6831
G1 X83.305 Y216.19 E20.7287
G1 X83.342 Y216.066 E20.73408
G1 X83.651 Y215.17 E20.77348
G1 X83.968 Y214.441 E20.80653
G1 X84.133 Y214.095 E20.82247
G1 X84.577 Y213.256 E20.86193
G1 X85.039 Y212.531 E20.89767
G1 X85.172 Y212.339 E20.90739
G1 X85.778 Y211.543 E20.94898
G1 X85.973 Y211.309 E20.96164
G1 X86.61 Y210.607 E21.00105
G1 X87.445 Y209.842 E21.04813
G1 X87.688 Y209.641 E21.06125
G1 X88.39 Y209.105 E21.09797
G1 X88.427 Y209.079 E21.09985
G1 X89.625 Y208.345 E21.15826
G1 X89.923 Y208.187 E21.17228
G1 X90.779 Y207.778 E21.21172
G0 F6000 X90.994 Y208.23
G1 F1200 X91.57 Y208.005 E21.23743
G1 X91.827 Y207.913 E21.24878
G1 X92.806 Y207.614 E21.29134
G1 X93.074 Y207.546 E21.30283
G1 X93.982 Y207.357 E21.34139
G1 X94.563 Y207.278 E21.36577
G1 X94.674 Y207.266 E21.37041
G1 X95.192 Y207.223 E21.39202
G1 X95.411 Y207.21 E21.40114
G1 X95.95 Y207.191 E21.42357
G1 X96.488 Y207.187 E21.44594
G1 X264.553 Y207.189 E28.43327
G1 X265.288 Y207.2 E28.46383
G1 X266.213 Y207.254 E28.50235
G1 X266.934 Y207.352 E28.5326
G1 X267.28 Y207.411 E28.54719
G1 X268.186 Y207.606 E28.58572
G1 X268.872 Y207.81 E28.61548
G1 X269.211 Y207.923 E28.63033
G1 X270.078 Y208.254 E28.66892
G1 X270.978 Y208.694 E28.71057
G1 X271.197 Y208.814 E28.72095
G1 X272.085 Y209.358 E28.76425
G1 X272.242 Y209.465 E28.77215
G1 X272.97 Y210.007 E28.80988
G1 X273.168 Y210.168 E28.82049
G1 X273.861 Y210.784 E28.85904
G1 X274.342 Y211.28 E28.88776
G1 X274.501 Y211.455 E28.89759
G1 X275.095 Y212.167 E28.93614
G1 X275.518 Y212.764 E28.96656
G1 X275.677 Y213.005 E28.97857
G1 X276.137 Y213.77 E29.01568
G1 X276.231 Y213.942 E29.02383
G1 X276.741 Y215.011 E29.07307
G1 X276.831 Y215.23 E29.08291
G1 X277.194 Y216.258 E29.12824
G1 X277.221 Y216.349 E29.13219
G1 X277.455 Y217.292 E29.17258
G1 X277.514 Y217.586 E29.18505
G1 X277.657 Y218.502 E29.22359
G1 X277.711 Y219.177 E29.25174
G1 X277.729 Y219.546 E29.2671
G1 X277.741 Y219.894 E29.28158
G1 X277.752 Y220.565 E29.30948
G1 X277.753 Y231.015 E29.74394
G1 X277.742 Y231.873 E29.77962
G1 X277.733 Y232.178 E29.7923
G1 X277.69 Y233.158 E29.83308
G1 X277.638 Y234.073 E29.87119
G1 X277.564 Y236.583 E29.97559
G1 X277.562 Y239.121 E30.0811
G1 X277.63 Y241.623 E30.18516
G1 X277.69 Y242.694 E30.22976
G1 X277.733 Y243.687 E30.27108
G1 X277.742 Y243.997 E30.28398
G1 X277.753 Y244.846 E30.31928
G1 X277.752 Y246.917 E30.40538
G1 X277.742 Y247.623 E30.43473
G1 X277.733 Y247.928 E30.44742
G1 X277.69 Y248.908 E30.4882
G1 X277.638 Y249.823 E30.52631
G1 X277.564 Y252.333 E30.63071
G1 X277.562 Y254.871 E30.73622
G1 X277.63 Y257.371 E30.8402
G1 X277.69 Y258.444 E30.88488
G1 X277.733 Y259.437 E30.9262
G1 X277.742 Y259.747 E30.9391
G1 X277.753 Y260.596 E30.9744
G1 X277.753 Y263.975 E31.11488
G1 X277.75 Y264.219 E31.12502
G1 X277.736 Y264.835 E31.15064
G1 X277.695 Y265.564 E31.181
G1 X277.69 Y265.619 E31.18329
G1 X277.529 Y266.733 E31.23009
G1 X277.452 Y267.122 E31.24658
G1 X277.191 Y268.165 E31.29128
G1 X277.17 Y268.234 E31.29427
G1 X276.862 Y269.108 E31.3328
G1 X276.605 Y269.698 E31.35956
G1 X276.415 Y270.1 E31.37804
G1 X275.983 Y270.92 E31.41658
G1 X275.403 Y271.811 E31.46078
G1 X275.235 Y272.043 E31.47268
G1 X274.631 Y272.802 E31.51301
G1 X274.597 Y272.841 E31.51516
G1 X273.997 Y273.475 E31.55145
G1 X273.839 Y273.629 E31.56063
G1 X273.184 Y274.218 E31.59725
G1 X272.994 Y274.375 E31.6075
G1 X272.278 Y274.918 E31.64486
G1 X272.242 Y274.943 E31.64668
G1 X271.146 Y275.611 E31.70004
G1 X270.848 Y275.769 E31.71407
G1 X270.011 Y276.167 E31.7526
G1 X269.435 Y276.392 E31.77831
G1 X269.178 Y276.484 E31.78966
G1 X268.199 Y276.783 E31.83221
G1 X267.931 Y276.851 E31.84371
G1 X267.023 Y277.04 E31.88227
G1 X266.125 Y277.148 E31.91987
G1 X265.831 Y277.171 E31.93213
G1 X265.114 Y277.203 E31.96197
G1 X264.459 Y277.21 E31.98921
G1 X96.452 Y277.208 E38.97412
G1 X95.717 Y277.197 E39.00469
G1 X94.684 Y277.131 E39.04772
G1 X94.514 Y277.112 E39.05483
G1 X93.598 Y276.97 E39.09337
G1 X93.044 Y276.844 E39.11699
G1 X92.786 Y276.778 E39.12806
G1 X91.827 Y276.484 E39.16976
G1 X91.57 Y276.392 E39.18111
G1 X90.711 Y276.042 E39.21968
G1 X90.142 Y275.761 E39.24606
G1 X89.832 Y275.596 E39.26066
G1 X89.033 Y275.125 E39.29922
G1 X88.127 Y274.467 E39.34577
G1 X87.903 Y274.286 E39.35775
G1 X87.207 Y273.673 E39.39631
G1 X86.767 Y273.224 E39.42244
G1 X86.558 Y272.998 E39.43524
G1 X85.958 Y272.291 E39.47379
G1 X85.319 Y271.372 E39.52033
G1 X85.114 Y271.042 E39.53648
G1 X84.537 Y269.985 E39.58655
G1 X84.411 Y269.72 E39.59875
G1 X84.049 Y268.866 E39.63731
G1 X83.783 Y268.057 E39.67272
G1 X83.656 Y267.581 E39.6932
G1 X83.59 Y267.308 E39.70487
G1 X83.411 Y266.398 E39.74343
G1 X83.332 Y265.741 E39.77094
G1 X83.301 Y265.395 E39.78539
G1 X83.258 Y264.536 E39.82115
G1 X83.253 Y263.898 E39.84767
G1 X83.254 Y220.52 E41.65112
G1 X83.268 Y219.623 E41.68842
G1 X83.316 Y218.772 E41.72385
G1 X83.324 Y218.689 E41.72732
G1 X83.473 Y217.664 E41.77038
G1 X83.534 Y217.351 E41.78364
G1 X83.784 Y216.333 E41.82722
G1 X83.821 Y216.209 E41.8326
G1 X84.124 Y215.333 E41.87114
G1 X84.419 Y214.656 E41.90184
G1 X84.584 Y214.31 E41.91778
G1 X85.019 Y213.491 E41.95633
G1 X85.45 Y212.816 E41.98963
G1 X85.583 Y212.624 E41.99934
G1 X86.162 Y211.863 E42.03909
G1 X86.357 Y211.629 E42.05176
G1 X86.98 Y210.943 E42.09028
G1 X87.763 Y210.228 E42.13437
G1 X88.006 Y210.027 E42.14748
G1 X88.677 Y209.514 E42.18259
G1 X88.714 Y209.488 E42.18447
G1 X89.859 Y208.786 E42.24031
G1 X90.157 Y208.628 E42.25434
G1 X90.994 Y208.23 E42.29287
G0 F6000 X91.209 Y208.682
G1 F1200 X91.738 Y208.476 E42.31647
G1 X91.995 Y208.384 E42.32782
G1 X92.929 Y208.099 E42.36842
G1 X93.197 Y208.031 E42.37991
G1 X94.084 Y207.847 E42.41758
G1 X94.616 Y207.775 E42.4399
G1 X94.727 Y207.763 E42.44454
G1 X95.222 Y207.722 E42.46519
G1 X95.441 Y207.709 E42.47431
G1 X95.955 Y207.691 E42.49569
G1 X96.488 Y207.687 E42.51785
G1 X264.545 Y207.689 E49.50485
G1 X265.28 Y207.7 E49.53541
G1 X266.184 Y207.754 E49.57306
G1 X266.85 Y207.845 E49.60101
G1 X267.196 Y207.904 E49.6156
G1 X268.081 Y208.095 E49.65324
G1 X268.714 Y208.284 E49.68071
G1 X269.053 Y208.397 E49.69556
G1 X269.899 Y208.721 E49.73323
G1 X270.737 Y209.132 E49.77203
G1 X270.956 Y209.252 E49.78241
G1 X271.804 Y209.771 E49.82375
G1 X271.961 Y209.878 E49.83165
G1 X272.655 Y210.395 E49.86763
G1 X272.853 Y210.556 E49.87824
G1 X273.529 Y211.158 E49.91587
G1 X273.972 Y211.616 E49.94236
G1 X274.131 Y211.791 E49.95219
G1 X274.71 Y212.488 E49.98986
G1 X275.101 Y213.039 E50.01795
G1 X275.26 Y213.28 E50.02996
G1 X275.698 Y214.009 E50.06532
G1 X275.792 Y214.181 E50.07346
G1 X276.279 Y215.201 E50.12046
G1 X276.369 Y215.42 E50.1303
G1 X276.715 Y216.4 E50.17351
G1 X276.742 Y216.491 E50.17746
G1 X276.965 Y217.39 E50.21596
G1 X277.024 Y217.684 E50.22843
G1 X277.162 Y218.579 E50.26608
G1 X277.212 Y219.202 E50.29207
G1 X277.23 Y219.571 E50.30742
G1 X277.241 Y219.902 E50.32119
G1 X277.253 Y220.741 E50.35608
G1 X277.252 Y231.16 E50.78925
G1 X277.242 Y231.866 E50.81861
G1 X277.234 Y232.157 E50.83071
G1 X277.191 Y233.129 E50.87116
G1 X277.14 Y234.028 E50.9086
G1 X277.064 Y236.604 E51.01574
G1 X277.062 Y239.134 E51.12092
G1 X277.131 Y241.663 E51.22611
G1 X277.19 Y242.716 E51.26995
G1 X277.233 Y243.709 E51.31128
G1 X277.242 Y244.004 E51.32355
G1 X277.253 Y244.846 E51.35856
G1 X277.252 Y246.91 E51.44437
G1 X277.242 Y247.616 E51.47372
G1 X277.234 Y247.907 E51.48583
G1 X277.191 Y248.879 E51.52628
G1 X277.14 Y249.778 E51.56371
G1 X277.064 Y252.354 E51.67086
G1 X277.062 Y254.884 E51.77604
G1 X277.131 Y257.414 E51.88127
G1 X277.19 Y258.466 E51.92507
G1 X277.233 Y259.459 E51.9664
G1 X277.242 Y259.754 E51.97867
G1 X277.253 Y260.596 E52.01367
G1 X277.253 Y263.975 E52.15416
G1 X277.25 Y264.208 E52.16385
G1 X277.236 Y264.824 E52.18946
G1 X277.197 Y265.519 E52.2184
G1 X277.192 Y265.574 E52.2207
G1 X277.039 Y266.636 E52.26531
G1 X276.962 Y267.025 E52.28179
G1 X276.713 Y268.019 E52.3244
G1 X276.692 Y268.088 E52.32739
G1 X276.39 Y268.942 E52.36505
G1 X276.153 Y269.484 E52.38965
G1 X275.963 Y269.886 E52.40813
G1 X275.54 Y270.687 E52.44579
G1 X274.998 Y271.518 E52.48704
G1 X274.83 Y271.75 E52.49895
G1 X274.254 Y272.474 E52.53742
G1 X274.22 Y272.513 E52.53957
G1 X273.648 Y273.117 E52.57415
G1 X273.49 Y273.271 E52.58332
G1 X272.865 Y273.832 E52.61824
G1 X272.675 Y273.989 E52.62849
G1 X271.993 Y274.507 E52.66409
G1 X271.957 Y274.532 E52.66592
G1 X270.911 Y275.169 E52.71683
G1 X270.613 Y275.327 E52.73086
G1 X269.796 Y275.715 E52.76846
G1 X269.267 Y275.921 E52.79206
G1 X269.01 Y276.013 E52.80341
G1 X268.076 Y276.298 E52.84401
G1 X267.808 Y276.366 E52.8555
G1 X266.921 Y276.55 E52.89317
G1 X266.086 Y276.65 E52.92813
G1 X265.792 Y276.673 E52.94039
G1 X265.108 Y276.703 E52.96886
G1 X264.459 Y276.71 E52.99584
G1 X96.46 Y276.708 E59.98043
G1 X95.725 Y276.697 E60.01099
G1 X94.74 Y276.635 E60.05202
G1 X94.57 Y276.616 E60.05913
G1 X93.675 Y276.475 E60.0968
G1 X93.168 Y276.359 E60.11842
G1 X92.91 Y276.293 E60.1295
G1 X91.995 Y276.013 E60.16928
G1 X91.738 Y275.921 E60.18063
G1 X90.9 Y275.579 E60.21826
G1 X90.377 Y275.319 E60.24254
G1 X90.067 Y275.154 E60.25714
G1 X89.287 Y274.694 E60.29479
G1 X88.441 Y274.079 E60.33827
G1 X88.217 Y273.898 E60.35024
G1 X87.539 Y273.298 E60.38788
G1 X87.134 Y272.884 E60.41196
G1 X86.925 Y272.658 E60.42476
G1 X86.34 Y271.967 E60.4624
G1 X85.743 Y271.108 E60.50589
G1 X85.538 Y270.778 E60.52205
G1 X84.988 Y269.77 E60.56979
G1 X84.862 Y269.505 E60.58198
G1 X84.51 Y268.671 E60.61962
G1 X84.263 Y267.92 E60.65249
G1 X84.142 Y267.464 E60.6721
G1 X84.076 Y267.191 E60.68378
G1 X83.902 Y266.302 E60.72144
G1 X83.83 Y265.697 E60.74677
G1 X83.799 Y265.351 E60.76121
G1 X83.758 Y264.531 E60.79535
G1 X83.753 Y263.898 E60.82167
G1 X83.755 Y220.348 E62.63227
G1 X83.767 Y219.631 E62.66208
G1 X83.813 Y218.82 E62.69585
G1 X83.821 Y218.737 E62.69932
G1 X83.963 Y217.759 E62.7404
G1 X84.024 Y217.446 E62.75366
G1 X84.263 Y216.476 E62.7952
G1 X84.3 Y216.352 E62.80058
G1 X84.597 Y215.497 E62.83821
G1 X84.87 Y214.871 E62.8666
G1 X85.035 Y214.525 E62.88254
G1 X85.461 Y213.726 E62.92018
G1 X85.861 Y213.1 E62.95107
G1 X85.994 Y212.908 E62.96078
G1 X86.546 Y212.183 E62.99866
G1 X86.741 Y211.949 E63.01133
G1 X87.35 Y211.28 E63.04894
G1 X88.082 Y210.613 E63.09011
G1 X88.325 Y210.412 E63.10322
G1 X88.965 Y209.924 E63.13668
G1 X89.002 Y209.898 E63.13856
G1 X90.094 Y209.228 E63.19183
G1 X90.392 Y209.07 E63.20585
G1 X91.209 Y208.682 E63.24345
G1 F2700 E58.24345
;MESH:Small enclosure, 3mm mains block.stl
G0 F6000 X115.691 Y237.949
G0 X112.927 Y236.532
G0 X113.674 Y244.03
G0 X114.062 Y245.548
G0 X114.674 Y246.993
G0 X115.486 Y248.322
G0 X116.494 Y249.523
G0 X117.676 Y250.565
G0 X118.424 Y251.046
G0 X123.975 Y254.449
;TYPE:WALL-INNER
G1 F2700 E63.24345
G1 F1200 X227.041 Y254.449 E67.52844
G1 X227.614 Y254.436 E67.55227
G1 X228.235 Y254.389 E67.57816
G1 X228.844 Y254.309 E67.6037
G1 X229.441 Y254.203 E67.6289
