;FLAVOR:Marlin
;TIME:19234
;Filament used: 17.3699m
;Layer height: 0.2
;MINX:29.871
;MINY:18.556
;MINZ:0.2
;MAXX:280.204
;MAXY:281.444
;MAXZ:11.4
;Generated with Cura_SteamEngine 4.11.0
M140 S60
M105
M190 S60
M104 S210
M105
M109 S210
M82 ;absolute extrusion mode
M201 X500.00 Y500.00 Z100.00 E5000.00 ;Setup machine max acceleration
M203 X500.00 Y500.00 Z10.00 E50.00 ;Setup machine max feedrate
M204 P500.00 R1000.00 T500.00 ;Setup Print/Retract/Travel acceleration
M205 X8.00 Y8.00 Z0.40 E5.00 ;Setup Jerk
M220 S100 ;Reset Feedrate
M221 S100 ;Reset Flowrate

G28 ;Home
G29 ;Auto bed Level

G92 E0 ;Reset Extruder
G1 Z2.0 F3000 ;Move Z Axis up
G1 X10.1 Y20 Z0.28 F5000.0 ;Move to start position
G1 X10.1 Y200.0 Z0.28 F1500.0 E15 ;Draw the first line
G1 X10.4 Y200.0 Z0.28 F5000.0 ;Move to side a little
G1 X10.4 Y20 Z0.28 F1500.0 E30 ;Draw the second line
G92 E0 ;Reset Extruder
G1 Z2.0 F3000 ;Move Z Axis up

G92 E0
G92 E0
G1 F2700 E-5
;LAYER_COUNT:58
;LAYER:0
M107
G0 F6000 X33.39 Y45.639 Z0.2
;TYPE:SKIRT
G1 F2700 E0
G1 F1200 X56.821 Y22.21 E1.37759
G1 X57.302 Y21.742 E1.4055
G1 X58.009 Y21.11 E1.44492
G1 X58.767 Y20.539 E1.48438
G1 X59.57 Y20.035 E1.52379
G1 X60.413 Y19.6 E1.56323
G1 X61.289 Y19.237 E1.60265
G1 X62.193 Y18.95 E1.64209
G1 X63.118 Y18.74 E1.68152
G1 X64.057 Y18.608 E1.72095
G1 X65.004 Y18.556 E1.76038
G1 X65.952 Y18.584 E1.79981
G1 X66.895 Y18.692 E1.83927
G1 X67.824 Y18.878 E1.87866
G1 X68.735 Y19.143 E1.9181
G1 X69.621 Y19.483 E1.95756
G1 X70.474 Y19.896 E1.99696
G1 X71.29 Y20.38 E2.0364
G1 X72.062 Y20.931 E2.07584
G1 X72.885 Y21.639 E2.12097
G1 X73.114 Y21.856 E2.13409
G1 X73.331 Y22.067 E2.14667
G1 X275.66 Y224.397 E14.04287
G1 X276.205 Y224.958 E14.07539
G1 X276.515 Y225.29 E14.09427
G1 X276.627 Y225.415 E14.10125
G1 X277.275 Y226.208 E14.14383
G1 X277.516 Y226.532 E14.16062
G1 X278.259 Y227.669 E14.21708
G1 X278.396 Y227.909 E14.22857
G1 X278.885 Y228.869 E14.27337
G1 X279.001 Y229.129 E14.2852
G1 X279.345 Y229.981 E14.3234
G1 X279.525 Y230.529 E14.34738
G1 X279.664 Y230.993 E14.36752
G1 X279.952 Y232.188 E14.41863
G1 X279.995 Y232.422 E14.42852
G1 X280.143 Y233.542 E14.47549
G1 X280.168 Y233.849 E14.48829
G1 X280.204 Y234.926 E14.53309
G1 X280.2 Y235.2 E14.54449
G1 X280.136 Y236.247 E14.5881
G1 X280.106 Y236.524 E14.59968
G1 X279.975 Y237.402 E14.63659
G1 X279.934 Y237.619 E14.64577
G1 X279.711 Y238.57 E14.68638
G1 X279.647 Y238.798 E14.69622
G1 X279.416 Y239.527 E14.72802
G1 X279.352 Y239.707 E14.73596
G1 X278.914 Y240.765 E14.78357
G1 X278.733 Y241.146 E14.8011
G1 X278.303 Y241.963 E14.83949
G1 X278.245 Y242.063 E14.8443
G1 X277.545 Y243.127 E14.89725
G1 X277.291 Y243.469 E14.91496
G1 X276.588 Y244.323 E14.96094
G1 X276.292 Y244.649 E14.97925
G1 X276.033 Y244.925 E14.99499
G1 X275.546 Y245.425 E15.02401
G1 X243.189 Y277.78 E16.92641
G1 X242.7 Y278.256 E16.95479
G1 X241.993 Y278.889 E16.99424
G1 X241.235 Y279.459 E17.03367
G1 X240.432 Y279.964 E17.07311
G1 X239.59 Y280.399 E17.11251
G1 X238.713 Y280.762 E17.15197
G1 X237.81 Y281.05 E17.19138
G1 X236.885 Y281.26 E17.23081
G1 X235.945 Y281.392 E17.27028
G1 X234.998 Y281.444 E17.30971
G1 X234.05 Y281.416 E17.34914
G1 X233.108 Y281.309 E17.38855
G1 X232.178 Y281.122 E17.42799
G1 X231.267 Y280.858 E17.46743
G1 X230.382 Y280.518 E17.50684
G1 X229.528 Y280.105 E17.54628
G1 X228.712 Y279.621 E17.58572
G1 X227.94 Y279.07 E17.62516
G1 X227.126 Y278.372 E17.66974
G1 X226.89 Y278.149 E17.68324
G1 X226.662 Y277.927 E17.69647
G1 X206.058 Y257.321 E18.90796
G1 X205.589 Y256.839 E18.93592
G1 X204.957 Y256.132 E18.97535
G1 X204.386 Y255.375 E19.01477
G1 X203.882 Y254.571 E19.05422
G1 X203.447 Y253.729 E19.09362
G1 X203.084 Y252.852 E19.13308
G1 X202.713 Y251.621 E19.18654
G1 X202.508 Y250.762 E19.22325
G1 X202.212 Y249.44 E19.27958
G1 X201.602 Y247.031 E19.38289
G1 X200.908 Y244.587 E19.48852
G1 X200.164 Y242.22 E19.59167
G1 X199.342 Y239.845 E19.69616
G1 X198.442 Y237.465 E19.80195
G1 X197.501 Y235.171 E19.90503
G1 X196.484 Y232.882 E20.00917
G1 X195.393 Y230.603 E20.11422
G1 X194.239 Y228.355 E20.21927
G1 X193.039 Y226.174 E20.32277
G1 X191.778 Y224.026 E20.42632
G1 X190.433 Y221.879 E20.53165
G1 X189.043 Y219.792 E20.6359
G1 X187.592 Y217.741 E20.74036
G1 X186.08 Y215.729 E20.84499
G1 X184.526 Y213.777 E20.94873
G1 X182.917 Y211.871 E21.05243
G1 X181.245 Y209.999 E21.15678
G1 X178.57 Y207.208 E21.31751
G1 X156.314 Y184.951 E22.6261
G1 X155.399 Y184.01 E22.68067
G1 X154.377 Y182.928 E22.74255
G1 X152.595 Y181.145 E22.84735
G1 X152.227 Y180.799 E22.86835
G1 X150.247 Y178.883 E22.9829
G1 X140.261 Y168.898 E23.57001
G1 X139.628 Y168.247 E23.60776
G1 X139.431 Y168.038 E23.61971
G1 X138.396 Y166.915 E23.6832
G1 X138.225 Y166.725 E23.69383
G1 X136.497 Y164.907 E23.79811
G1 X134.729 Y163.15 E23.90173
G1 X132.902 Y161.434 E24.00594
G1 X131.964 Y160.574 E24.05885
G1 X131.727 Y160.35 E24.07241
G1 X131.15 Y159.788 E24.1059
G1 X130.232 Y158.868 E24.15993
G1 X129.721 Y158.342 E24.19042
G1 X129.524 Y158.134 E24.20233
G1 X128.483 Y157.005 E24.26618
G1 X128.263 Y156.76 E24.27987
G1 X126.532 Y154.944 E24.38417
G1 X124.761 Y153.187 E24.48789
G1 X123.068 Y151.619 E24.58383
G1 X122.809 Y151.358 E24.59911
G1 X122.089 Y150.698 E24.63972
G1 X121.847 Y150.47 E24.65354
G1 X121.225 Y149.863 E24.68968
G1 X65.159 Y93.795 E27.9862
G1 X64.683 Y93.305 E28.0146
G1 X64.466 Y93.076 E28.02772
G1 X63.604 Y92.135 E28.08077
G1 X61.87 Y90.291 E28.18601
G1 X60.093 Y88.506 E28.29073
G1 X58.315 Y86.819 E28.39263
G1 X58.027 Y86.559 E28.40876
G1 X57.016 Y85.625 E28.46598
G1 X56.816 Y85.437 E28.47739
G1 X56.28 Y84.917 E28.50844
G1 X55.37 Y84.008 E28.56192
G1 X54.782 Y83.404 E28.59696
G1 X54.565 Y83.175 E28.61008
G1 X53.797 Y82.337 E28.65734
G1 X53.387 Y81.878 E28.68292
G1 X51.683 Y80.072 E28.78615
G1 X49.904 Y78.291 E28.89081
G1 X48.067 Y76.552 E28.99598
G1 X47.582 Y76.12 E29.02298
G1 X46.731 Y75.339 E29.071
G1 X46.507 Y75.127 E29.08383
G1 X45.826 Y74.465 E29.12331
G1 X33.554 Y62.189 E29.84498
G1 X33.056 Y61.677 E29.87467
G1 X32.423 Y60.97 E29.91412
G1 X31.853 Y60.212 E29.95355
G1 X31.349 Y59.409 E29.99297
G1 X30.914 Y58.566 E30.03241
G1 X30.552 Y57.689 E30.07185
G1 X30.264 Y56.785 E30.1113
G1 X30.054 Y55.86 E30.15074
G1 X29.923 Y54.921 E30.19015
G1 X29.871 Y53.974 E30.22958
G1 X29.899 Y53.026 E30.26901
G1 X30.007 Y52.084 E30.30843
G1 X30.194 Y51.154 E30.34787
G1 X30.458 Y50.243 E30.38731
G1 X30.799 Y49.358 E30.42674
G1 X31.212 Y48.504 E30.46618
G1 X31.696 Y47.688 E30.50562
G1 X32.247 Y46.916 E30.54505
G1 X32.929 Y46.122 E30.58857
G1 X33.154 Y45.883 E30.60222
G1 X33.39 Y45.639 E30.61633
G0 F6000 X33.744 Y45.993
G1 F1200 X57.169 Y22.568 E31.99363
G1 X57.65 Y22.1 E32.02153
G1 X58.342 Y21.483 E32.06008
G1 X59.085 Y20.928 E32.09863
G1 X59.872 Y20.438 E32.13718
G1 X60.699 Y20.018 E32.17574
G1 X61.559 Y19.672 E32.21428
G1 X62.445 Y19.4 E32.25281
G1 X63.352 Y19.206 E32.29137
G1 X64.272 Y19.091 E32.32992
G1 X65.198 Y19.055 E32.36845
G1 X66.124 Y19.1 E32.40699
G1 X67.043 Y19.224 E32.44555
G1 X67.948 Y19.426 E32.4841
G1 X68.832 Y19.706 E32.52265
G1 X69.688 Y20.061 E32.56118
G1 X70.511 Y20.489 E32.59974
G1 X71.294 Y20.986 E32.6383
G1 X72.031 Y21.548 E32.67683
G1 X72.541 Y22.002 E32.70522
G1 X72.77 Y22.219 E32.71834
G1 X72.977 Y22.421 E32.73036
G1 X275.302 Y224.745 E44.62627
G1 X275.847 Y225.306 E44.65878
G1 X276.142 Y225.623 E44.67679
G1 X276.254 Y225.748 E44.68377
G1 X276.873 Y226.506 E44.72445
G1 X277.114 Y226.83 E44.74124
G1 X277.825 Y227.917 E44.79524
G1 X277.962 Y228.157 E44.80673
G1 X278.429 Y229.075 E44.84955
G1 X278.545 Y229.336 E44.86143
G1 X278.881 Y230.168 E44.89873
G1 X279.046 Y230.672 E44.92078
G1 X279.185 Y231.136 E44.94092
G1 X279.46 Y232.278 E44.98975
G1 X279.503 Y232.512 E44.99964
G1 X279.645 Y233.582 E45.04452
G1 X279.67 Y233.889 E45.05733
G1 X279.704 Y234.919 E45.10017
G1 X279.7 Y235.193 E45.11156
G1 X279.639 Y236.193 E45.15322
G1 X279.609 Y236.47 E45.1648
G1 X279.484 Y237.309 E45.20007
G1 X279.443 Y237.526 E45.20925
G1 X279.23 Y238.435 E45.24806
G1 X279.166 Y238.663 E45.25791
G1 X278.945 Y239.359 E45.28827
G1 X278.881 Y239.539 E45.29621
G1 X278.462 Y240.551 E45.34175
G1 X278.281 Y240.932 E45.35929
G1 X277.87 Y241.712 E45.39594
G1 X277.812 Y241.812 E45.40075
G1 X277.143 Y242.829 E45.45136
G1 X276.889 Y243.171 E45.46907
G1 X276.218 Y243.987 E45.51299
G1 X275.922 Y244.313 E45.5313
G1 X275.674 Y244.577 E45.54636
G1 X275.192 Y245.071 E45.57505
G1 X242.84 Y277.422 E47.4772
G1 X242.351 Y277.898 E47.50557
G1 X241.66 Y278.516 E47.54411
G1 X240.917 Y279.071 E47.58267
G1 X240.13 Y279.561 E47.62121
G1 X239.303 Y279.981 E47.65977
G1 X238.444 Y280.328 E47.69829
G1 X237.557 Y280.599 E47.73685
G1 X236.651 Y280.794 E47.77538
G1 X235.731 Y280.909 E47.81393
G1 X234.804 Y280.945 E47.8525
G1 X233.878 Y280.901 E47.89104
G1 X232.959 Y280.777 E47.92959
G1 X232.055 Y280.574 E47.96811
G1 X231.171 Y280.295 E48.00665
G1 X230.314 Y279.94 E48.04522
G1 X229.491 Y279.512 E48.08378
G1 X228.708 Y279.016 E48.12232
G1 X227.971 Y278.454 E48.16085
G1 X227.47 Y278.009 E48.18871
G1 X227.234 Y277.786 E48.20221
G1 X227.016 Y277.573 E48.21488
G1 X206.416 Y256.973 E49.42608
G1 X205.947 Y256.491 E49.45404
G1 X205.33 Y255.799 E49.49259
G1 X204.775 Y255.057 E49.53111
G1 X204.285 Y254.269 E49.56969
G1 X203.866 Y253.442 E49.60823
G1 X203.519 Y252.583 E49.64675
G1 X203.199 Y251.504 E49.69354
G1 X202.996 Y250.653 E49.72991
G1 X202.696 Y249.312 E49.78705
G1 X202.087 Y246.909 E49.89011
G1 X201.388 Y244.447 E49.99651
G1 X200.632 Y242.043 E50.10128
G1 X199.816 Y239.683 E50.2051
G1 X198.918 Y237.309 E50.31063
G1 X197.954 Y234.959 E50.41623
G1 X196.938 Y232.673 E50.52023
G1 X195.842 Y230.382 E50.62582
G1 X194.682 Y228.123 E50.7314
G1 X193.468 Y225.916 E50.83612
G1 X192.201 Y223.759 E50.94012
G1 X190.868 Y221.63 E51.04456
G1 X189.462 Y219.52 E51.14997
G1 X187.987 Y217.436 E51.25612
G1 X186.48 Y215.429 E51.36046
G1 X184.912 Y213.46 E51.46511
G1 X183.285 Y211.533 E51.56996
G1 X181.612 Y209.659 E51.67441
G1 X178.907 Y206.837 E51.83693
G1 X156.673 Y184.602 E53.14423
G1 X155.647 Y183.545 E53.20547
G1 X154.741 Y182.585 E53.26035
G1 X152.953 Y180.796 E53.36551
G1 X152.574 Y180.439 E53.38716
G1 X150.468 Y178.399 E53.50906
G1 X140.499 Y168.427 E54.09528
G1 X139.987 Y167.899 E54.12586
G1 X139.798 Y167.7 E54.13727
G1 X138.768 Y166.58 E54.20053
G1 X138.606 Y166.4 E54.2106
G1 X136.857 Y164.561 E54.31611
G1 X135.053 Y162.767 E54.42189
G1 X133.339 Y161.157 E54.51965
G1 X132.302 Y160.206 E54.57815
G1 X132.076 Y159.992 E54.59109
G1 X131.504 Y159.434 E54.62432
G1 X130.59 Y158.52 E54.67806
G1 X130.079 Y157.994 E54.70854
G1 X129.891 Y157.795 E54.71993
G1 X128.854 Y156.67 E54.78354
G1 X128.624 Y156.415 E54.79781
G1 X126.893 Y154.598 E54.90215
G1 X125.099 Y152.818 E55.00722
G1 X123.408 Y151.252 E55.10304
G1 X123.152 Y150.994 E55.11815
G1 X122.427 Y150.329 E55.15905
G1 X122.196 Y150.111 E55.17226
G1 X121.579 Y149.509 E55.2081
G1 X65.517 Y93.446 E58.50436
G1 X65.041 Y92.956 E58.53276
G1 X64.835 Y92.738 E58.54523
G1 X63.972 Y91.796 E58.59834
G1 X62.217 Y89.931 E58.70481
G1 X60.456 Y88.161 E58.80862
G1 X58.654 Y86.451 E58.9119
G1 X58.366 Y86.192 E58.928
G1 X57.355 Y85.258 E58.98522
G1 X57.165 Y85.078 E58.99611
G1 X56.629 Y84.558 E59.02715
G1 X55.614 Y83.543 E59.08683
G1 X55.141 Y83.056 E59.11506
G1 X54.934 Y82.837 E59.12759
G1 X54.17 Y82.004 E59.17458
G1 X53.77 Y81.556 E59.19955
G1 X52.029 Y79.711 E59.30501
G1 X50.248 Y77.928 E59.40979
G1 X48.424 Y76.202 E59.51419
G1 X47.92 Y75.751 E59.54231
G1 X47.069 Y74.97 E59.59033
G1 X46.856 Y74.768 E59.60254
G1 X46.18 Y74.112 E59.6417
G1 X33.912 Y61.84 E60.36313
G1 X33.414 Y61.328 E60.39282
G1 X32.797 Y60.636 E60.43137
G1 X32.242 Y59.894 E60.46989
G1 X31.752 Y59.106 E60.50847
G1 X31.333 Y58.28 E60.54698
G1 X30.986 Y57.42 E60.58553
G1 X30.715 Y56.533 E60.62409
G1 X30.521 Y55.627 E60.66261
G1 X30.406 Y54.707 E60.70116
G1 X30.37 Y53.78 E60.73973
G1 X30.415 Y52.854 E60.77827
G1 X30.539 Y51.935 E60.81683
G1 X30.742 Y51.031 E60.85535
G1 X31.022 Y50.147 E60.8939
G1 X31.377 Y49.29 E60.93246
G1 X31.805 Y48.468 E60.97099
G1 X32.302 Y47.685 E61.00955
G1 X32.864 Y46.948 E61.04809
G1 X33.293 Y46.464 E61.07497
G1 X33.518 Y46.225 E61.08862
G1 X33.744 Y45.993 E61.10209
G0 F6000 X34.097 Y46.346
G1 F1200 X57.518 Y22.927 E62.47909
G1 X57.999 Y22.459 E62.50699
G1 X58.675 Y21.857 E62.54463
G1 X59.402 Y21.316 E62.5823
G1 X60.173 Y20.843 E62.61991
G1 X60.983 Y20.439 E62.65754
G1 X61.826 Y20.108 E62.69519
G1 X62.695 Y19.853 E62.73285
G1 X63.582 Y19.675 E62.77046
G1 X64.482 Y19.577 E62.8081
G1 X65.388 Y19.558 E62.84577
G1 X66.291 Y19.619 E62.8834
G1 X67.185 Y19.76 E62.92103
G1 X68.064 Y19.979 E62.95869
G1 X68.919 Y20.274 E62.99629
G1 X69.745 Y20.644 E63.03392
G1 X70.536 Y21.086 E63.07159
G1 X71.284 Y21.595 E63.10921
G1 X72.197 Y22.365 E63.15887
G1 X72.426 Y22.582 E63.17198
G1 X72.624 Y22.774 E63.18345
G1 X274.943 Y225.094 E75.07906
G1 X275.488 Y225.655 E75.11158
G1 X275.77 Y225.957 E75.12876
G1 X275.882 Y226.082 E75.13573
G1 X276.472 Y226.805 E75.17453
G1 X276.713 Y227.129 E75.19132
G1 X277.391 Y228.165 E75.24279
G1 X277.528 Y228.405 E75.25428
G1 X277.973 Y229.28 E75.2951
G1 X278.089 Y229.541 E75.30697
G1 X278.417 Y230.355 E75.34346
G1 X278.567 Y230.816 E75.36361
G1 X278.706 Y231.28 E75.38375
G1 X278.968 Y232.368 E75.43028
G1 X279.011 Y232.602 E75.44017
G1 X279.146 Y233.623 E75.48299
G1 X279.171 Y233.93 E75.49579
G1 X279.204 Y234.912 E75.53664
G1 X279.2 Y235.186 E75.54803
G1 X279.141 Y236.14 E75.58777
G1 X279.111 Y236.417 E75.59936
G1 X278.993 Y237.216 E75.63294
G1 X278.952 Y237.433 E75.64212
G1 X278.749 Y238.3 E75.67914
G1 X278.685 Y238.528 E75.68898
G1 X278.474 Y239.192 E75.71795
G1 X278.41 Y239.372 E75.72589
G1 X278.01 Y240.336 E75.76928
G1 X277.829 Y240.717 E75.78682
G1 X277.438 Y241.462 E75.8218
G1 X277.38 Y241.562 E75.82661
G1 X276.742 Y242.53 E75.87481
G1 X276.488 Y242.872 E75.89252
G1 X275.848 Y243.651 E75.93443
G1 X275.552 Y243.977 E75.95274
G1 X275.316 Y244.228 E75.96706
G1 X274.839 Y244.718 E75.99549
G1 X242.492 Y277.064 E77.89734
G1 X242.003 Y277.54 E77.92572
G1 X241.327 Y278.142 E77.96335
G1 X240.6 Y278.682 E78.001
G1 X239.829 Y279.156 E78.03863
G1 X239.019 Y279.56 E78.07626
G1 X238.176 Y279.891 E78.11391
G1 X237.307 Y280.147 E78.15158
G1 X236.42 Y280.325 E78.18919
G1 X235.52 Y280.423 E78.22683
G1 X234.615 Y280.442 E78.26446
G1 X233.712 Y280.381 E78.30209
G1 X232.817 Y280.241 E78.33975
G1 X231.939 Y280.022 E78.37737
G1 X231.083 Y279.726 E78.41503
G1 X230.257 Y279.357 E78.45264
G1 X229.466 Y278.915 E78.49031
G1 X228.718 Y278.406 E78.52793
G1 X227.813 Y277.645 E78.57709
G1 X227.577 Y277.422 E78.59059
G1 X227.369 Y277.22 E78.60264
G1 X206.775 Y256.624 E79.81355
G1 X206.306 Y256.142 E79.84151
G1 X205.704 Y255.466 E79.87914
G1 X205.164 Y254.739 E79.91679
G1 X204.69 Y253.968 E79.95442
G1 X204.286 Y253.158 E79.99205
G1 X203.955 Y252.315 E80.02971
G1 X203.685 Y251.388 E80.06985
G1 X203.484 Y250.544 E80.10592
G1 X203.188 Y249.218 E80.16241
G1 X202.565 Y246.763 E80.26771
G1 X201.866 Y244.298 E80.37423
G1 X201.114 Y241.909 E80.47836
G1 X200.274 Y239.48 E80.58521
G1 X199.382 Y237.121 E80.69007
G1 X198.419 Y234.775 E80.7955
G1 X197.392 Y232.463 E80.90068
G1 X196.284 Y230.147 E81.00742
G1 X195.132 Y227.905 E81.11221
G1 X193.905 Y225.674 E81.21807
G1 X192.624 Y223.493 E81.32323
G1 X191.282 Y221.348 E81.42842
G1 X189.866 Y219.223 E81.53459
G1 X188.408 Y217.164 E81.63948
G1 X186.884 Y215.134 E81.74501
G1 X185.284 Y213.125 E81.85179
G1 X183.668 Y211.211 E81.95594
G1 X181.979 Y209.319 E82.06138
G1 X179.292 Y206.516 E82.22281
G1 X157.031 Y184.254 E83.5317
G1 X156.01 Y183.202 E83.59265
G1 X155.088 Y182.225 E83.6485
G1 X153.295 Y180.431 E83.75395
G1 X152.922 Y180.08 E83.77525
G1 X150.942 Y178.164 E83.8898
G1 X140.968 Y168.19 E84.47623
G1 X140.346 Y167.55 E84.51333
G1 X140.166 Y167.361 E84.52418
G1 X139.139 Y166.245 E84.58724
G1 X138.967 Y166.054 E84.59792
G1 X137.219 Y164.216 E84.70338
G1 X135.412 Y162.419 E84.80933
G1 X133.608 Y160.725 E84.91222
G1 X132.64 Y159.837 E84.96683
G1 X132.424 Y159.633 E84.97918
G1 X131.857 Y159.081 E85.01208
G1 X130.949 Y158.171 E85.06553
G1 X130.438 Y157.645 E85.09602
G1 X130.259 Y157.456 E85.10684
