;FLAVOR:Marlin
;TIME:17808
;Filament used: 14.592m
;Layer height: 0.2
;MINX:78.75
;MINY:48.75
;MINZ:0.2
;MAXX:221.25
;MAXY:251.25
;MAXZ:5
;Generated with Cura_SteamEngine 4.11.0
M140 S60
M105
M190 S60
M104 S210
M105
M109 S210
M82 ;absolute extrusion mode
M201 X500.00 Y500.00 Z100.00 E5000.00 ;Setup machine max acceleration
M203 X500.00 Y500.00 Z10.00 E50.00 ;Setup machine max feedrate
M204 P500.00 R1000.00 T500.00 ;Setup Print/Retract/Travel acceleration
M205 X8.00 Y8.00 Z0.40 E5.00 ;Setup Jerk
M220 S100 ;Reset Feedrate
M221 S100 ;Reset Flowrate

G28 ;Home
G29 ;Auto bed Level

G92 E0 ;Reset Extruder
G1 Z2.0 F3000 ;Move Z Axis up
G1 X10.1 Y20 Z0.28 F5000.0 ;Move to start position
G1 X10.1 Y200.0 Z0.28 F1500.0 E15 ;Draw the first line
G1 X10.4 Y200.0 Z0.28 F5000.0 ;Move to side a little
G1 X10.4 Y20 Z0.28 F1500.0 E30 ;Draw the second line
G92 E0 ;Reset Extruder
G1 Z2.0 F3000 ;Move Z Axis up

G92 E0
G92 E0
G1 F2700 E-5
;LAYER_COUNT:25
;LAYER:0
M107
G0 F6000 X81.471 Y56.015 Z0.2
;TYPE:SKIRT
G1 F2700 E0
G1 F1200 X81.826 Y55.504 E0.02587
G1 X81.984 Y55.289 E0.03696
G1 X82.289 Y54.893 E0.05774
G1 X82.43 Y54.718 E0.06709
G1 X82.735 Y54.355 E0.0868
G1 X82.893 Y54.175 E0.09676
G1 X83.327 Y53.708 E0.12326
G1 X83.505 Y53.527 E0.13381
G1 X83.878 Y53.164 E0.15545
G1 X84.056 Y52.999 E0.16554
G1 X84.521 Y52.591 E0.19126
G1 X84.697 Y52.445 E0.20077
G1 X85.102 Y52.125 E0.22223
G1 X85.31 Y51.968 E0.23307
G1 X85.737 Y51.661 E0.25493
G1 X85.949 Y51.516 E0.26561
G1 X86.398 Y51.225 E0.28785
G1 X86.57 Y51.119 E0.29625
G1 X87.071 Y50.827 E0.32036
G1 X87.325 Y50.688 E0.3324
G1 X87.834 Y50.426 E0.3562
G1 X88.039 Y50.327 E0.36566
G1 X88.545 Y50.098 E0.38876
G1 X88.767 Y50.004 E0.39878
G1 X89.237 Y49.818 E0.41979
G1 X89.474 Y49.73 E0.4303
G1 X90.002 Y49.548 E0.45352
G1 X90.23 Y49.476 E0.46346
G1 X90.796 Y49.314 E0.48794
G1 X91.043 Y49.25 E0.49855
G1 X91.542 Y49.132 E0.51987
G1 X91.76 Y49.086 E0.52913
G1 X92.296 Y48.987 E0.55179
G1 X92.557 Y48.945 E0.56278
G1 X93.112 Y48.87 E0.58607
G1 X93.357 Y48.843 E0.59631
G1 X93.952 Y48.793 E0.62114
G1 X94.234 Y48.777 E0.63288
G1 X94.727 Y48.76 E0.65339
G1 X95.572 Y48.75 E0.68852
G1 X110.633 Y48.75 E1.31469
G1 X111.492 Y48.761 E1.3504
G1 X112.122 Y48.788 E1.37662
G1 X113.601 Y48.893 E1.43826
G1 X113.795 Y48.91 E1.44636
G1 X116.249 Y49.048 E1.54855
G1 X118.79 Y49.119 E1.65423
G1 X121.302 Y49.117 E1.75867
G1 X123.777 Y49.046 E1.86161
G1 X126.293 Y48.903 E1.96638
G1 X127.869 Y48.789 E2.03207
G1 X128.506 Y48.761 E2.05858
G1 X129.352 Y48.75 E2.09376
G1 X170.794 Y48.751 E3.81672
G1 X171.492 Y48.761 E3.84574
G1 X172.122 Y48.788 E3.87196
G1 X173.601 Y48.893 E3.9336
G1 X173.795 Y48.91 E3.9417
G1 X176.249 Y49.048 E4.04388
G1 X178.79 Y49.119 E4.14957
G1 X181.302 Y49.117 E4.254
G1 X183.777 Y49.046 E4.35694
G1 X186.293 Y48.903 E4.46172
G1 X187.869 Y48.789 E4.52741
G1 X188.506 Y48.761 E4.55392
G1 X189.352 Y48.75 E4.58909
G1 X204.569 Y48.751 E5.22174
G1 X205.15 Y48.758 E5.2459
G1 X205.453 Y48.766 E5.2585
G1 X205.76 Y48.778 E5.27128
G1 X206.318 Y48.813 E5.29452
G1 X206.554 Y48.834 E5.30437
G1 X207.124 Y48.9 E5.32823
G1 X207.38 Y48.936 E5.33897
G1 X207.872 Y49.016 E5.3597
G1 X208.103 Y49.059 E5.36947
G1 X208.72 Y49.192 E5.39571
G1 X208.965 Y49.252 E5.4062
G1 X209.435 Y49.378 E5.42643
G1 X209.665 Y49.445 E5.43639
G1 X210.206 Y49.617 E5.45999
G1 X210.428 Y49.694 E5.46976
G1 X210.942 Y49.887 E5.49258
G1 X211.183 Y49.984 E5.50338
G1 X211.676 Y50.196 E5.52569
G1 X211.896 Y50.297 E5.53576
G1 X212.374 Y50.53 E5.55787
G1 X212.6 Y50.647 E5.56845
G1 X213.251 Y51.012 E5.59948
G1 X213.749 Y51.329 E5.62402
G1 X214.356 Y51.738 E5.65445
G1 X215.071 Y52.262 E5.6913
G1 X215.232 Y52.39 E5.69986
G1 X215.705 Y52.788 E5.72556
G1 X215.876 Y52.94 E5.73507
G1 X216.267 Y53.304 E5.75728
G1 X216.446 Y53.479 E5.76769
G1 X216.846 Y53.89 E5.79153
G1 X217.015 Y54.073 E5.80189
G1 X217.373 Y54.48 E5.82442
G1 X217.523 Y54.659 E5.83413
G1 X217.884 Y55.114 E5.85828
G1 X217.936 Y55.183 E5.86187
G1 X218.315 Y55.717 E5.8891
G1 X218.7 Y56.295 E5.91797
G1 X219.193 Y57.108 E5.9575
G1 X219.297 Y57.297 E5.96647
G1 X219.574 Y57.834 E5.99159
G1 X219.669 Y58.031 E6.00068
G1 X219.907 Y58.558 E6.02472
G1 X220.01 Y58.803 E6.03577
G1 X220.167 Y59.197 E6.0534
G1 X220.251 Y59.42 E6.06331
G1 X220.463 Y60.036 E6.0904
G1 X220.536 Y60.27 E6.10059
G1 X220.692 Y60.821 E6.1244
G1 X220.757 Y61.074 E6.13526
G1 X220.856 Y61.492 E6.15312
G1 X220.903 Y61.709 E6.16235
G1 X221.027 Y62.376 E6.19055
G1 X221.066 Y62.629 E6.20119
G1 X221.126 Y63.081 E6.22015
G1 X221.154 Y63.329 E6.23053
G1 X221.207 Y63.949 E6.2564
G1 X221.223 Y64.229 E6.26806
G1 X221.24 Y64.726 E6.28873
G1 X221.25 Y65.571 E6.32387
G1 X221.249 Y234.572 E13.35011
G1 X221.242 Y235.139 E13.37369
G1 X221.235 Y235.422 E13.38546
G1 X221.223 Y235.742 E13.39877
G1 X221.187 Y236.313 E13.42256
G1 X221.166 Y236.55 E13.43245
G1 X221.1 Y237.124 E13.45647
G1 X221.064 Y237.38 E13.46722
G1 X220.985 Y237.867 E13.48773
G1 X220.941 Y238.104 E13.49775
G1 X220.81 Y238.715 E13.52373
G1 X220.751 Y238.957 E13.53409
G1 X220.628 Y239.416 E13.55384
G1 X220.567 Y239.627 E13.56297
G1 X220.433 Y240.061 E13.58186
G1 X220.407 Y240.139 E13.58528
G1 X220.118 Y240.91 E13.61951
G1 X219.842 Y241.572 E13.64933
G1 X219.358 Y242.586 E13.69604
G1 X219.222 Y242.838 E13.70795
G1 X218.67 Y243.755 E13.75245
G1 X218.297 Y244.312 E13.78032
G1 X217.708 Y245.112 E13.82162
G1 X217.575 Y245.277 E13.83043
G1 X217.239 Y245.675 E13.85208
G1 X217.069 Y245.867 E13.86275
G1 X216.696 Y246.268 E13.88551
G1 X216.531 Y246.437 E13.89533
G1 X216.136 Y246.822 E13.91827
G1 X215.954 Y246.991 E13.92859
G1 X215.492 Y247.397 E13.95416
G1 X215.308 Y247.55 E13.96411
G1 X214.903 Y247.871 E13.9856
G1 X214.714 Y248.014 E13.99545
G1 X214.244 Y248.351 E14.0195
G1 X213.995 Y248.52 E14.03201
G1 X213.576 Y248.791 E14.05275
G1 X213.412 Y248.892 E14.06076
G1 X212.93 Y249.173 E14.08396
G1 X212.697 Y249.301 E14.09501
G1 X212.193 Y249.562 E14.11861
G1 X211.987 Y249.662 E14.12813
G1 X211.45 Y249.905 E14.15263
G1 X211.225 Y250 E14.16279
G1 X210.732 Y250.195 E14.18483
G1 X210.49 Y250.284 E14.19555
G1 X209.965 Y250.462 E14.21859
G1 X209.738 Y250.533 E14.22848
G1 X209.189 Y250.69 E14.25222
G1 X208.933 Y250.756 E14.26321
G1 X208.454 Y250.868 E14.28367
G1 X208.232 Y250.915 E14.2931
G1 X207.681 Y251.017 E14.3164
G1 X207.45 Y251.054 E14.32612
G1 X206.858 Y251.133 E14.35095
G1 X206.594 Y251.161 E14.36199
G1 X206.079 Y251.204 E14.38348
G1 X205.795 Y251.221 E14.39531
G1 X205.269 Y251.24 E14.41719
G1 X204.428 Y251.25 E14.45216
G1 X95.431 Y251.249 E18.98372
G1 X94.851 Y251.242 E19.00784
G1 X94.565 Y251.235 E19.01973
G1 X94.245 Y251.223 E19.03305
G1 X93.639 Y251.184 E19.05829
G1 X93.421 Y251.164 E19.0674
G1 X92.883 Y251.101 E19.08992
G1 X92.634 Y251.066 E19.10037
G1 X92.199 Y250.997 E19.11868
G1 X91.95 Y250.952 E19.1292
G1 X91.254 Y250.803 E19.15879
G1 X91.011 Y250.743 E19.1692
G1 X90.527 Y250.612 E19.19005
G1 X90.276 Y250.538 E19.20092
G1 X89.748 Y250.368 E19.22399
G1 X89.559 Y250.302 E19.23231
G1 X89.037 Y250.105 E19.25551
G1 X88.766 Y249.995 E19.26767
G1 X88.259 Y249.775 E19.29064
G1 X88.063 Y249.684 E19.29963
G1 X87.691 Y249.502 E19.31684
G1 X87.489 Y249.399 E19.32627
G1 X86.869 Y249.058 E19.35569
G1 X86.624 Y248.913 E19.36753
G1 X86.146 Y248.614 E19.39097
G1 X85.948 Y248.483 E19.40084
G1 X85.557 Y248.212 E19.42062
G1 X85.372 Y248.078 E19.43011
G1 X84.967 Y247.771 E19.45124
G1 X84.786 Y247.627 E19.46086
G1 X84.313 Y247.229 E19.48656
G1 X84.114 Y247.052 E19.49763
G1 X83.708 Y246.672 E19.52075
G1 X83.54 Y246.507 E19.53054
G1 X83.171 Y246.128 E19.55253
G1 X82.994 Y245.937 E19.56336
G1 X82.604 Y245.492 E19.58796
G1 X82.454 Y245.312 E19.5977
G1 X82.096 Y244.86 E19.62167
G1 X82.048 Y244.796 E19.625
G1 X81.687 Y244.286 E19.65098
G1 X81.301 Y243.707 E19.67991
G1 X80.796 Y242.872 E19.72048
G1 X80.693 Y242.684 E19.72939
G1 X80.423 Y242.161 E19.75386
G1 X80.318 Y241.943 E19.76392
G1 X80.087 Y241.429 E19.78735
G1 X79.996 Y241.213 E19.79709
G1 X79.806 Y240.732 E19.81859
G1 X79.718 Y240.493 E19.82918
G1 X79.542 Y239.978 E19.85181
G1 X79.471 Y239.752 E19.86166
G1 X79.31 Y239.187 E19.88608
G1 X79.243 Y238.927 E19.89725
G1 X79.134 Y238.467 E19.9169
G1 X79.089 Y238.256 E19.92587
G1 X78.974 Y237.63 E19.95233
G1 X78.935 Y237.378 E19.96293
G1 X78.873 Y236.909 E19.9826
G1 X78.845 Y236.659 E19.99306
G1 X78.794 Y236.053 E20.01834
G1 X78.778 Y235.775 E20.02992
G1 X78.76 Y235.274 E20.05076
G1 X78.75 Y234.429 E20.0859
G1 X78.751 Y65.431 E27.11202
G1 X78.758 Y64.85 E27.13617
G1 X78.765 Y64.563 E27.14811
G1 X78.777 Y64.244 E27.16138
G1 X78.813 Y63.671 E27.18525
G1 X78.833 Y63.446 E27.19464
G1 X78.899 Y62.87 E27.21875
G1 X78.933 Y62.629 E27.22887
G1 X79.021 Y62.1 E27.25116
G1 X79.067 Y61.858 E27.2614
G1 X79.183 Y61.321 E27.28424
G1 X79.245 Y61.064 E27.29524
G1 X79.379 Y60.558 E27.317
G1 X79.441 Y60.345 E27.32622
G1 X79.607 Y59.824 E27.34895
G1 X79.689 Y59.586 E27.35942
G1 X79.895 Y59.035 E27.38388
G1 X79.992 Y58.795 E27.39464
G1 X80.206 Y58.3 E27.41706
G1 X80.301 Y58.094 E27.42649
G1 X80.528 Y57.629 E27.448
G1 X80.642 Y57.409 E27.4583
G1 X80.921 Y56.904 E27.48229
G1 X81.038 Y56.704 E27.49192
G1 X81.328 Y56.234 E27.51489
G1 X81.471 Y56.015 E27.52576
G0 F6000 X81.89 Y56.289
G1 F1200 X82.229 Y55.8 E27.5505
G1 X82.387 Y55.585 E27.56159
G1 X82.678 Y55.206 E27.58146
G1 X82.819 Y55.031 E27.5908
G1 X83.111 Y54.684 E27.60965
G1 X83.269 Y54.504 E27.61961
G1 X83.683 Y54.058 E27.64491
G1 X83.861 Y53.877 E27.65547
G1 X84.218 Y53.531 E27.67614
G1 X84.396 Y53.366 E27.68623
G1 X84.841 Y52.976 E27.71083
G1 X85.017 Y52.83 E27.72033
G1 X85.404 Y52.524 E27.74085
G1 X85.612 Y52.367 E27.75168
G1 X86.019 Y52.074 E27.77253
G1 X86.231 Y51.929 E27.78321
G1 X86.66 Y51.65 E27.80448
G1 X86.832 Y51.544 E27.81288
G1 X87.311 Y51.266 E27.83591
G1 X87.565 Y51.127 E27.84795
G1 X88.051 Y50.877 E27.87067
G1 X88.256 Y50.778 E27.88013
G1 X88.739 Y50.559 E27.90218
G1 X88.961 Y50.465 E27.91221
G1 X89.411 Y50.286 E27.93234
G1 X89.648 Y50.198 E27.94285
G1 X90.153 Y50.025 E27.96504
G1 X90.381 Y49.953 E27.97498
G1 X90.922 Y49.798 E27.99838
G1 X91.169 Y49.734 E28.00899
G1 X91.646 Y49.622 E28.02936
G1 X91.864 Y49.576 E28.03862
G1 X92.375 Y49.481 E28.06023
G1 X92.636 Y49.439 E28.07122
G1 X93.166 Y49.367 E28.09346
G1 X93.411 Y49.34 E28.10371
G1 X93.98 Y49.292 E28.12745
G1 X94.262 Y49.276 E28.13919
G1 X94.733 Y49.26 E28.15878
G1 X95.572 Y49.25 E28.19367
G1 X110.633 Y49.25 E28.81983
G1 X111.485 Y49.261 E28.85526
G1 X112.087 Y49.287 E28.88031
G1 X113.558 Y49.392 E28.94162
G1 X113.724 Y49.406 E28.94855
G1 X116.242 Y49.548 E29.0534
G1 X118.777 Y49.619 E29.15883
G1 X121.281 Y49.617 E29.26294
G1 X123.819 Y49.544 E29.3685
G1 X126.391 Y49.397 E29.47561
G1 X126.547 Y49.384 E29.48211
G1 X127.905 Y49.287 E29.53872
G1 X128.513 Y49.261 E29.56402
G1 X129.352 Y49.25 E29.5989
G1 X170.787 Y49.251 E31.32157
G1 X171.485 Y49.261 E31.35059
G1 X172.087 Y49.287 E31.37564
G1 X173.558 Y49.392 E31.43696
G1 X173.724 Y49.406 E31.44388
G1 X176.242 Y49.548 E31.54873
G1 X178.777 Y49.619 E31.65417
G1 X181.281 Y49.617 E31.75827
G1 X183.819 Y49.544 E31.86384
G1 X186.391 Y49.397 E31.97094
G1 X186.547 Y49.384 E31.97745
G1 X187.905 Y49.287 E32.03405
G1 X188.513 Y49.261 E32.05935
G1 X189.352 Y49.25 E32.09424
G1 X204.563 Y49.251 E32.72664
G1 X205.144 Y49.258 E32.75079
G1 X205.434 Y49.265 E32.76285
G1 X205.741 Y49.277 E32.77563
G1 X206.274 Y49.311 E32.79783
G1 X206.51 Y49.332 E32.80768
G1 X207.054 Y49.395 E32.83045
G1 X207.31 Y49.431 E32.8412
G1 X207.78 Y49.508 E32.861
G1 X208.011 Y49.551 E32.87077
G1 X208.601 Y49.678 E32.89586
G1 X208.846 Y49.738 E32.90635
G1 X209.296 Y49.858 E32.92571
G1 X209.526 Y49.925 E32.93567
G1 X210.042 Y50.09 E32.95819
G1 X210.264 Y50.167 E32.96796
G1 X210.755 Y50.35 E32.98975
G1 X210.996 Y50.447 E33.00055
G1 X211.467 Y50.65 E33.02187
G1 X211.687 Y50.751 E33.03193
G1 X212.144 Y50.974 E33.05308
G1 X212.37 Y51.091 E33.06366
G1 X212.994 Y51.441 E33.0934
G1 X213.47 Y51.744 E33.11686
G1 X214.077 Y52.153 E33.14729
G1 X214.76 Y52.653 E33.18248
G1 X214.921 Y52.781 E33.19103
G1 X215.373 Y53.161 E33.21558
G1 X215.544 Y53.313 E33.2251
G1 X215.917 Y53.661 E33.24631
G1 X216.096 Y53.836 E33.25671
G1 X216.478 Y54.23 E33.27953
G1 X216.647 Y54.413 E33.28988
G1 X216.989 Y54.801 E33.31139
G1 X217.139 Y54.98 E33.3211
G1 X217.485 Y55.415 E33.34421
G1 X217.537 Y55.484 E33.3478
G1 X217.899 Y55.995 E33.37383
G1 X218.284 Y56.573 E33.40271
G1 X218.755 Y57.349 E33.44045
G1 X218.859 Y57.538 E33.44942
G1 X219.124 Y58.052 E33.47346
G1 X219.219 Y58.249 E33.48255
G1 X219.446 Y58.752 E33.50549
G1 X219.549 Y58.997 E33.51654
G1 X219.699 Y59.374 E33.53341
G1 X219.783 Y59.597 E33.54332
G1 X219.985 Y60.185 E33.56917
G1 X220.058 Y60.419 E33.57936
G1 X220.208 Y60.945 E33.6021
G1 X220.273 Y61.198 E33.61296
G1 X220.367 Y61.597 E33.63
G1 X220.414 Y61.814 E33.63923
G1 X220.533 Y62.452 E33.66622
G1 X220.572 Y62.705 E33.67686
G1 X220.629 Y63.137 E33.69497
G1 X220.657 Y63.385 E33.70535
G1 X220.707 Y63.978 E33.73009
G1 X220.723 Y64.258 E33.74175
G1 X220.74 Y64.733 E33.76151
G1 X220.75 Y65.571 E33.79636
G1 X220.749 Y234.566 E40.82235
G1 X220.742 Y235.133 E40.84593
G1 X220.735 Y235.403 E40.85716
G1 X220.723 Y235.723 E40.87047
G1 X220.689 Y236.269 E40.89321
G1 X220.668 Y236.506 E40.9031
G1 X220.605 Y237.054 E40.92604
G1 X220.569 Y237.31 E40.93679
G1 X220.493 Y237.775 E40.95638
G1 X220.449 Y238.012 E40.9664
G1 X220.324 Y238.596 E40.99123
G1 X220.265 Y238.838 E41.00158
G1 X220.148 Y239.278 E41.02051
G1 X220.087 Y239.489 E41.02964
G1 X219.932 Y239.98 E41.05105
G1 X219.656 Y240.718 E41.08381
G1 X219.38 Y241.38 E41.11363
G1 X218.918 Y242.349 E41.15826
G1 X218.782 Y242.601 E41.17016
G1 X218.254 Y243.477 E41.21269
G1 X217.881 Y244.034 E41.24056
G1 X217.319 Y244.798 E41.27999
G1 X217.186 Y244.963 E41.2888
G1 X216.865 Y245.343 E41.30948
G1 X216.695 Y245.535 E41.32014
G1 X216.338 Y245.919 E41.34194
G1 X216.173 Y246.088 E41.35176
G1 X215.796 Y246.456 E41.37366
G1 X215.614 Y246.625 E41.38399
G1 X215.172 Y247.013 E41.40844
G1 X214.988 Y247.166 E41.41839
G1 X214.601 Y247.473 E41.43893
G1 X214.412 Y247.616 E41.44878
G1 X213.963 Y247.938 E41.47175
G1 X213.714 Y248.107 E41.48426
G1 X213.314 Y248.365 E41.50405
G1 X213.15 Y248.466 E41.51206
G1 X212.689 Y248.735 E41.53425
G1 X212.456 Y248.863 E41.5453
G1 X211.975 Y249.112 E41.56782
G1 X211.769 Y249.212 E41.57734
G1 X211.255 Y249.444 E41.60079
G1 X211.03 Y249.539 E41.61094
G1 X210.56 Y249.725 E41.63196
G1 X210.318 Y249.814 E41.64268
G1 X209.816 Y249.985 E41.66472
G1 X209.589 Y250.056 E41.67461
G1 X209.064 Y250.206 E41.69731
G1 X208.808 Y250.272 E41.7083
G1 X208.351 Y250.379 E41.72782
G1 X208.129 Y250.426 E41.73725
G1 X207.602 Y250.524 E41.75954
G1 X207.371 Y250.561 E41.76926
G1 X206.805 Y250.636 E41.793
G1 X206.541 Y250.664 E41.80404
G1 X206.049 Y250.705 E41.82457
G1 X205.765 Y250.722 E41.83639
G1 X205.262 Y250.74 E41.85732
G1 X204.428 Y250.75 E41.892
G1 X95.437 Y250.749 E46.42331
G1 X94.857 Y250.742 E46.44743
G1 X94.584 Y250.735 E46.45878
G1 X94.264 Y250.723 E46.4721
G1 X93.685 Y250.686 E46.49622
G1 X93.467 Y250.666 E46.50532
G1 X92.953 Y250.606 E46.52683
G1 X92.704 Y250.571 E46.53729
G1 X92.288 Y250.505 E46.5548
G1 X92.039 Y250.46 E46.56532
G1 X91.374 Y250.318 E46.59359
G1 X91.131 Y250.258 E46.604
G1 X90.668 Y250.132 E46.62395
G1 X90.417 Y250.058 E46.63483
G1 X89.913 Y249.896 E46.65684
G1 X89.724 Y249.83 E46.66516
G1 X89.225 Y249.642 E46.68733
G1 X88.954 Y249.532 E46.69949
G1 X88.47 Y249.321 E46.72144
G1 X88.274 Y249.23 E46.73042
G1 X87.918 Y249.057 E46.74688
G1 X87.716 Y248.954 E46.75631
G1 X87.124 Y248.628 E46.7844
G1 X86.879 Y248.483 E46.79624
G1 X86.422 Y248.197 E46.81865
G1 X86.224 Y248.066 E46.82852
G1 X85.85 Y247.807 E46.84744
G1 X85.665 Y247.673 E46.85693
G1 X85.278 Y247.379 E46.87714
G1 X85.097 Y247.235 E46.88676
G1 X84.646 Y246.855 E46.91128
G1 X84.447 Y246.678 E46.92235
G1 X84.058 Y246.316 E46.94444
G1 X83.89 Y246.151 E46.95423
G1 X83.538 Y245.788 E46.97525
G1 X83.361 Y245.597 E46.98608
G1 X82.988 Y245.172 E47.00959
G1 X82.838 Y244.992 E47.01933
G1 X82.496 Y244.56 E47.04224
G1 X82.448 Y244.496 E47.04556
G1 X82.103 Y244.009 E47.07038
G1 X81.717 Y243.43 E47.09931
G1 X81.234 Y242.632 E47.13809
