;FLAVOR:Marlin
;TIME:10173
;Filament used: 7.21406m
;Layer height: 0.2
;MINX:46.939
;MINY:170.068
;MINZ:0.2
;MAXX:252.439
;MAXY:241.091
;MAXZ:5
;Generated with Cura_SteamEngine 4.11.0
M140 S60
M105
M190 S60
M104 S210
M105
M109 S210
M82 ;absolute extrusion mode
M201 X500.00 Y500.00 Z100.00 E5000.00 ;Setup machine max acceleration
M203 X500.00 Y500.00 Z10.00 E50.00 ;Setup machine max feedrate
M204 P500.00 R1000.00 T500.00 ;Setup Print/Retract/Travel acceleration
M205 X8.00 Y8.00 Z0.40 E5.00 ;Setup Jerk
M220 S100 ;Reset Feedrate
M221 S100 ;Reset Flowrate

G28 ;Home
G29 ;Auto bed Level

G92 E0 ;Reset Extruder
G1 Z2.0 F3000 ;Move Z Axis up
G1 X10.1 Y20 Z0.28 F5000.0 ;Move to start position
G1 X10.1 Y200.0 Z0.28 F1500.0 E15 ;Draw the first line
G1 X10.4 Y200.0 Z0.28 F5000.0 ;Move to side a little
G1 X10.4 Y20 Z0.28 F1500.0 E30 ;Draw the second line
G92 E0 ;Reset Extruder
G1 Z2.0 F3000 ;Move Z Axis up

G92 E0
G92 E0
G1 F2700 E-5
;LAYER_COUNT:25
;LAYER:0
M107
G0 F6000 X55.893 Y170.807 Z0.2
;TYPE:SKIRT
G1 F2700 E0
G1 F1200 X56.826 Y170.524 E0.04053
G1 X57.139 Y170.444 E0.05397
G1 X58.067 Y170.248 E0.0934
G1 X59.106 Y170.124 E0.1369
G1 X59.38 Y170.104 E0.14832
G1 X60.073 Y170.075 E0.17716
G1 X60.734 Y170.068 E0.20464
G1 X238.746 Y170.07 E7.60552
G1 X239.481 Y170.081 E7.63608
G1 X240.859 Y170.187 E7.69354
G1 X241.104 Y170.221 E7.70383
G1 X242.402 Y170.479 E7.75885
G1 X242.601 Y170.531 E7.7674
G1 X243.577 Y170.834 E7.80989
G1 X243.818 Y170.921 E7.82054
G1 X244.696 Y171.281 E7.85999
G1 X245.369 Y171.618 E7.89128
G1 X245.588 Y171.737 E7.90165
G1 X246.512 Y172.298 E7.94659
G1 X246.669 Y172.404 E7.95446
G1 X247.506 Y173.028 E7.99787
G1 X247.728 Y173.21 E8.0098
G1 X248.436 Y173.842 E8.04926
G1 X248.932 Y174.355 E8.07893
G1 X249.077 Y174.515 E8.0879
G1 X249.788 Y175.383 E8.13455
G1 X249.822 Y175.429 E8.13693
G1 X250.44 Y176.359 E8.18335
G1 X250.658 Y176.725 E8.20106
G1 X251.109 Y177.56 E8.24052
G1 X251.555 Y178.608 E8.28787
G1 X251.661 Y178.897 E8.30067
G1 X252.016 Y180.055 E8.35103
G1 X252.068 Y180.264 E8.35998
G1 X252.258 Y181.193 E8.3994
G1 X252.385 Y182.382 E8.44912
G1 X252.416 Y182.964 E8.47335
G1 X252.431 Y183.388 E8.49099
G1 X252.439 Y184.014 E8.51701
G1 X252.438 Y194.556 E8.9553
G1 X252.428 Y195.261 E8.98461
G1 X252.419 Y195.579 E8.99784
G1 X252.376 Y196.567 E9.03895
G1 X252.323 Y197.496 E9.07764
G1 X252.25 Y199.979 E9.18092
G1 X252.248 Y202.49 E9.28531
G1 X252.316 Y204.993 E9.38941
G1 X252.368 Y205.899 E9.42714
G1 X252.418 Y207.046 E9.47487
G1 X252.428 Y207.371 E9.48839
G1 X252.439 Y208.228 E9.52403
G1 X252.438 Y210.305 E9.61038
G1 X252.428 Y211.01 E9.63969
G1 X252.419 Y211.324 E9.65275
G1 X252.376 Y212.304 E9.69353
G1 X252.322 Y213.234 E9.73226
G1 X252.25 Y215.735 E9.83629
G1 X252.248 Y218.247 E9.94072
G1 X252.318 Y220.773 E10.04578
G1 X252.374 Y221.786 E10.08796
G1 X252.418 Y222.791 E10.12978
G1 X252.428 Y223.121 E10.14351
G1 X252.439 Y223.978 E10.17914
G1 X252.438 Y227.216 E10.31376
G1 X252.429 Y227.84 E10.33971
G1 X252.416 Y228.237 E10.35622
G1 X252.395 Y228.659 E10.37379
G1 X252.308 Y229.604 E10.41325
G1 X252.209 Y230.211 E10.43881
G1 X252.162 Y230.457 E10.44923
G1 X251.938 Y231.406 E10.48977
G1 X251.925 Y231.452 E10.49175
G1 X251.583 Y232.472 E10.53648
G1 X251.446 Y232.824 E10.55218
G1 X251.065 Y233.693 E10.59163
G1 X250.696 Y234.385 E10.62424
G1 X250.594 Y234.561 E10.6327
G1 X249.949 Y235.55 E10.68178
G1 X249.798 Y235.757 E10.69244
G1 X248.924 Y236.814 E10.74946
G1 X248.793 Y236.954 E10.75743
G1 X248.116 Y237.618 E10.79686
G1 X247.717 Y237.961 E10.81873
G1 X247.471 Y238.163 E10.83196
G1 X246.871 Y238.624 E10.86342
G1 X246.836 Y238.649 E10.86521
G1 X246.042 Y239.167 E10.90462
G1 X245.553 Y239.441 E10.92793
G1 X245.254 Y239.599 E10.94199
G1 X244.398 Y240.006 E10.9814
G1 X243.778 Y240.248 E11.00907
G1 X243.436 Y240.37 E11.02416
G1 X242.53 Y240.651 E11.0636
G1 X241.676 Y240.841 E11.09997
G1 X241.539 Y240.866 E11.10576
G1 X240.706 Y240.986 E11.14075
G1 X240.461 Y241.012 E11.151
G1 X239.676 Y241.068 E11.18371
G1 X239.312 Y241.081 E11.19886
G1 X239.037 Y241.087 E11.21029
G1 X238.645 Y241.091 E11.22659
G1 X60.64 Y241.089 E18.62718
G1 X59.937 Y241.079 E18.65641
G1 X58.99 Y241.025 E18.69585
G1 X58.425 Y240.955 E18.71952
G1 X58.099 Y240.906 E18.73322
G1 X57.168 Y240.726 E18.77264
G1 X56.593 Y240.573 E18.79738
G1 X56.301 Y240.487 E18.81004
G1 X55.403 Y240.181 E18.84948
G1 X54.624 Y239.843 E18.88478
G1 X54.346 Y239.71 E18.8976
G1 X53.508 Y239.265 E18.93704
G1 X52.987 Y238.94 E18.96257
G1 X52.744 Y238.779 E18.97469
G1 X51.632 Y237.939 E19.03263
G1 X51.477 Y237.806 E19.04112
G1 X50.784 Y237.158 E19.08057
G1 X50.13 Y236.434 E19.12113
G1 X49.897 Y236.152 E19.13634
G1 X49.194 Y235.203 E19.18544
G1 X49.07 Y235.016 E19.19477
G1 X48.641 Y234.314 E19.22897
G1 X48.614 Y234.266 E19.23126
G1 X48.026 Y233.057 E19.28716
G1 X47.922 Y232.806 E19.29845
G1 X47.596 Y231.916 E19.33786
G1 X47.399 Y231.222 E19.36785
G1 X47.298 Y230.817 E19.38521
G1 X47.108 Y229.888 E19.42463
G1 X47.027 Y229.288 E19.4498
G1 X47.019 Y229.213 E19.45294
G1 X46.974 Y228.65 E19.47642
G1 X46.962 Y228.436 E19.48533
G1 X46.945 Y227.929 E19.50642
G1 X46.939 Y227.35 E19.53049
G1 X46.941 Y183.761 E21.34271
G1 X46.952 Y183.022 E21.37344
G1 X47.006 Y182.075 E21.41288
G1 X47.064 Y181.598 E21.43285
G1 X47.105 Y181.311 E21.44491
G1 X47.314 Y180.231 E21.49064
G1 X47.325 Y180.186 E21.49257
G1 X47.659 Y179.071 E21.54096
G1 X47.768 Y178.766 E21.55442
G1 X48.185 Y177.756 E21.59985
G1 X48.308 Y177.495 E21.61185
G1 X48.749 Y176.655 E21.65129
G1 X49.264 Y175.847 E21.69113
G1 X49.387 Y175.671 E21.70005
G1 X50.271 Y174.562 E21.75902
G1 X50.483 Y174.328 E21.77214
G1 X51.149 Y173.652 E21.8116
G1 X51.638 Y173.222 E21.83867
G1 X51.849 Y173.047 E21.85007
G1 X52.834 Y172.317 E21.90104
G1 X52.984 Y172.218 E21.90851
G1 X53.797 Y171.729 E21.94796
G1 X54.343 Y171.451 E21.97343
G1 X54.597 Y171.33 E21.98513
G1 X55.716 Y170.869 E22.03544
G1 X55.893 Y170.807 E22.04324
G0 F6000 X56.058 Y171.278
G1 F1200 X56.95 Y171.009 E22.08197
G1 X57.263 Y170.929 E22.0954
G1 X58.17 Y170.738 E22.13394
G1 X59.142 Y170.623 E22.17463
G1 X59.416 Y170.603 E22.18605
G1 X60.078 Y170.575 E22.2136
G1 X60.734 Y170.568 E22.24088
G1 X238.739 Y170.57 E29.64147
G1 X239.474 Y170.581 E29.67203
G1 X240.791 Y170.682 E29.72694
G1 X241.036 Y170.716 E29.73723
G1 X242.276 Y170.963 E29.78979
G1 X242.475 Y171.015 E29.79834
G1 X243.407 Y171.305 E29.83892
G1 X243.648 Y171.392 E29.84958
G1 X244.506 Y171.744 E29.88813
G1 X245.131 Y172.057 E29.91719
G1 X245.35 Y172.176 E29.92756
G1 X246.232 Y172.713 E29.97049
G1 X246.389 Y172.819 E29.97836
G1 X247.189 Y173.415 E30.01984
G1 X247.411 Y173.597 E30.03177
G1 X248.102 Y174.215 E30.07031
G1 X248.562 Y174.691 E30.09784
G1 X248.707 Y174.851 E30.10681
G1 X249.386 Y175.68 E30.15136
G1 X249.42 Y175.726 E30.15374
G1 X250.011 Y176.615 E30.19812
G1 X250.229 Y176.981 E30.21584
G1 X250.668 Y177.797 E30.25436
G1 X251.086 Y178.78 E30.29877
G1 X251.192 Y179.069 E30.31157
G1 X251.531 Y180.175 E30.35966
G1 X251.583 Y180.384 E30.36861
G1 X251.768 Y181.293 E30.40718
G1 X251.886 Y182.408 E30.4538
G1 X251.917 Y182.99 E30.47803
G1 X251.931 Y183.396 E30.49492
G1 X251.939 Y184.014 E30.52061
G1 X251.938 Y194.548 E30.95856
G1 X251.928 Y195.253 E30.98788
G1 X251.919 Y195.558 E31.00056
G1 X251.876 Y196.539 E31.04139
G1 X251.824 Y197.454 E31.07949
G1 X251.75 Y199.964 E31.18389
G1 X251.748 Y202.503 E31.28945
G1 X251.816 Y205.003 E31.39343
G1 X251.876 Y206.075 E31.43806
G1 X251.919 Y207.068 E31.47939
G1 X251.928 Y207.378 E31.49228
G1 X251.939 Y208.228 E31.52762
G1 X251.938 Y210.297 E31.61364
G1 X251.928 Y211.002 E31.64296
G1 X251.919 Y211.303 E31.65548
G1 X251.877 Y212.275 E31.69592
G1 X251.822 Y213.225 E31.73549
G1 X251.75 Y215.721 E31.8393
G1 X251.748 Y218.26 E31.94486
G1 X251.818 Y220.781 E32.04971
G1 X251.875 Y221.808 E32.09248
G1 X251.919 Y222.813 E32.1343
G1 X251.928 Y223.128 E32.1474
G1 X251.939 Y223.978 E32.18274
G1 X251.938 Y227.209 E32.31707
G1 X251.929 Y227.833 E32.34302
G1 X251.917 Y228.212 E32.35878
G1 X251.896 Y228.634 E32.37635
G1 X251.81 Y229.557 E32.41489
G1 X251.718 Y230.117 E32.43848
G1 X251.671 Y230.363 E32.44889
G1 X251.457 Y231.27 E32.48764
G1 X251.444 Y231.316 E32.48963
G1 X251.117 Y232.291 E32.53238
G1 X250.98 Y232.643 E32.54808
G1 X250.607 Y233.492 E32.58664
G1 X250.263 Y234.134 E32.61692
G1 X250.161 Y234.31 E32.62538
G1 X249.545 Y235.255 E32.67228
G1 X249.394 Y235.462 E32.68293
G1 X248.559 Y236.472 E32.73741
G1 X248.428 Y236.612 E32.74538
G1 X247.765 Y237.261 E32.78396
G1 X247.4 Y237.575 E32.80397
G1 X247.154 Y237.777 E32.81721
G1 X246.545 Y238.242 E32.84906
G1 X245.768 Y238.747 E32.88759
G1 X245.319 Y238.999 E32.909
G1 X245.02 Y239.157 E32.92306
G1 X244.183 Y239.554 E32.96157
G1 X243.61 Y239.777 E32.98713
G1 X243.268 Y239.899 E33.00223
G1 X242.382 Y240.173 E33.04079
G1 X241.586 Y240.349 E33.07468
G1 X241.449 Y240.374 E33.08047
G1 X240.653 Y240.489 E33.11391
G1 X240.408 Y240.515 E33.12415
G1 X239.658 Y240.568 E33.15541
G1 X239.294 Y240.581 E33.17055
G1 X239.032 Y240.587 E33.18145
G1 X238.645 Y240.591 E33.19754
G1 X60.647 Y240.589 E40.59783
G1 X59.944 Y240.579 E40.62707
G1 X59.018 Y240.526 E40.66563
G1 X58.499 Y240.461 E40.68737
G1 X58.173 Y240.412 E40.70108
G1 X57.263 Y240.234 E40.73963
G1 X56.734 Y240.093 E40.76239
G1 X56.442 Y240.007 E40.77505
G1 X55.565 Y239.707 E40.81358
G1 X54.84 Y239.392 E40.84645
G1 X54.562 Y239.259 E40.85926
G1 X53.743 Y238.824 E40.89781
G1 X53.264 Y238.524 E40.92131
G1 X53.021 Y238.363 E40.93343
G1 X51.958 Y237.559 E40.98884
G1 X51.803 Y237.426 E40.99733
G1 X51.126 Y236.793 E41.03587
G1 X50.516 Y236.115 E41.07378
G1 X50.283 Y235.833 E41.08899
G1 X49.611 Y234.927 E41.13589
G1 X49.487 Y234.74 E41.14522
G1 X49.077 Y234.069 E41.17791
G1 X49.05 Y234.021 E41.1802
G1 X48.488 Y232.866 E41.2336
G1 X48.384 Y232.615 E41.2449
G1 X48.066 Y231.744 E41.28345
G1 X47.884 Y231.101 E41.31123
G1 X47.783 Y230.696 E41.32858
G1 X47.598 Y229.788 E41.36711
G1 X47.525 Y229.235 E41.3903
G1 X47.517 Y229.16 E41.39344
G1 X47.473 Y228.622 E41.41588
G1 X47.461 Y228.408 E41.42479
G1 X47.445 Y227.924 E41.44492
G1 X47.439 Y227.35 E41.46879
G1 X47.441 Y183.768 E43.28072
G1 X47.452 Y183.029 E43.31145
G1 X47.559 Y181.669 E43.36816
G1 X47.6 Y181.382 E43.38022
G1 X47.799 Y180.349 E43.42395
G1 X47.81 Y180.304 E43.42588
G1 X48.13 Y179.239 E43.47211
G1 X48.239 Y178.934 E43.48558
G1 X48.638 Y177.969 E43.52899
G1 X48.761 Y177.708 E43.54099
G1 X49.192 Y176.887 E43.57954
G1 X49.674 Y176.133 E43.61674
G1 X49.797 Y175.957 E43.62567
G1 X50.641 Y174.897 E43.682
G1 X50.853 Y174.663 E43.69513
G1 X51.505 Y174.004 E43.73367
G1 X51.957 Y173.607 E43.75868
G1 X52.168 Y173.432 E43.77008
G1 X53.109 Y172.734 E43.81879
G1 X53.259 Y172.635 E43.82626
G1 X54.055 Y172.158 E43.86484
G1 X54.558 Y171.902 E43.88831
G1 X54.812 Y171.781 E43.90001
G1 X55.881 Y171.34 E43.94808
G1 X56.058 Y171.278 E43.95588
G0 F6000 X56.223 Y171.75
G1 F1200 X57.074 Y171.493 E43.99284
G1 X57.387 Y171.413 E44.00627
G1 X58.273 Y171.228 E44.0439
G1 X59.179 Y171.121 E44.08183
G1 X59.453 Y171.101 E44.09325
G1 X60.084 Y171.075 E44.11951
G1 X60.734 Y171.068 E44.14653
G1 X238.731 Y171.07 E51.54679
G1 X239.466 Y171.081 E51.57735
G1 X240.722 Y171.177 E51.62972
G1 X240.967 Y171.211 E51.64
G1 X242.149 Y171.447 E51.69012
G1 X242.348 Y171.499 E51.69867
G1 X243.237 Y171.775 E51.73737
G1 X243.478 Y171.862 E51.74802
G1 X244.315 Y172.207 E51.78566
G1 X244.892 Y172.497 E51.81251
G1 X245.111 Y172.616 E51.82287
G1 X245.953 Y173.127 E51.86382
G1 X246.11 Y173.233 E51.87169
G1 X246.872 Y173.801 E51.91121
G1 X247.094 Y173.983 E51.92314
G1 X247.769 Y174.588 E51.96083
G1 X248.191 Y175.027 E51.98614
G1 X248.336 Y175.187 E51.99512
G1 X248.984 Y175.977 E52.0376
G1 X249.018 Y176.023 E52.03998
G1 X249.581 Y176.871 E52.0823
G1 X249.799 Y177.237 E52.10001
G1 X250.228 Y178.034 E52.13764
G1 X250.616 Y178.952 E52.17907
G1 X250.722 Y179.241 E52.19187
G1 X251.046 Y180.296 E52.23776
G1 X251.098 Y180.505 E52.24671
G1 X251.277 Y181.393 E52.28437
G1 X251.386 Y182.435 E52.32793
G1 X251.417 Y183.017 E52.35216
G1 X251.431 Y183.403 E52.36822
G1 X251.439 Y184.014 E52.39362
G1 X251.438 Y194.541 E52.83129
G1 X251.428 Y195.246 E52.8606
G1 X251.42 Y195.537 E52.8727
G1 X251.377 Y196.51 E52.91319
G1 X251.326 Y197.409 E52.95063
G1 X251.25 Y199.985 E53.05777
G1 X251.248 Y202.516 E53.163
G1 X251.317 Y205.044 E53.26814
G1 X251.376 Y206.097 E53.31199
G1 X251.419 Y207.09 E53.35331
G1 X251.428 Y207.386 E53.36562
G1 X251.439 Y208.228 E53.40063
G1 X251.438 Y210.29 E53.48636
G1 X251.428 Y210.995 E53.51567
G1 X251.42 Y211.281 E53.52757
G1 X251.378 Y212.246 E53.56773
G1 X251.324 Y213.181 E53.60667
G1 X251.25 Y215.741 E53.71314
G1 X251.248 Y218.274 E53.81845
G1 X251.318 Y220.789 E53.92305
G1 X251.375 Y221.83 E53.9664
G1 X251.419 Y222.835 E54.00822
G1 X251.428 Y223.136 E54.02074
G1 X251.439 Y223.978 E54.05575
G1 X251.438 Y227.202 E54.18979
G1 X251.429 Y227.826 E54.21574
G1 X251.417 Y228.187 E54.23075
G1 X251.396 Y228.609 E54.24832
G1 X251.311 Y229.511 E54.28599
G1 X251.227 Y230.024 E54.3076
G1 X251.18 Y230.27 E54.31801
G1 X250.976 Y231.134 E54.35492
G1 X250.963 Y231.18 E54.35691
G1 X250.651 Y232.11 E54.39769
G1 X250.514 Y232.462 E54.41339
G1 X250.149 Y233.29 E54.45101
G1 X249.83 Y233.884 E54.47904
G1 X249.728 Y234.06 E54.4875
G1 X249.141 Y234.961 E54.53221
G1 X248.99 Y235.168 E54.54286
G1 X248.193 Y236.13 E54.5948
G1 X248.062 Y236.27 E54.60277
G1 X247.083 Y237.189 E54.6586
G1 X246.837 Y237.391 E54.67183
G1 X246.255 Y237.835 E54.70226
G1 X245.495 Y238.328 E54.73993
G1 X245.086 Y238.557 E54.75942
G1 X244.787 Y238.715 E54.77348
G1 X243.969 Y239.102 E54.8111
G1 X243.442 Y239.306 E54.83459
G1 X243.1 Y239.428 E54.84969
G1 X242.235 Y239.694 E54.88731
G1 X241.496 Y239.857 E54.91878
G1 X241.359 Y239.882 E54.92457
G1 X240.601 Y239.992 E54.95641
G1 X240.356 Y240.018 E54.96665
G1 X239.64 Y240.068 E54.99649
G1 X239.276 Y240.081 E55.01164
G1 X239.026 Y240.087 E55.02203
G1 X238.645 Y240.091 E55.03787
G1 X60.654 Y240.089 E62.43788
G1 X59.951 Y240.079 E62.46711
G1 X59.047 Y240.026 E62.50476
G1 X58.573 Y239.966 E62.52462
G1 X58.247 Y239.917 E62.53833
G1 X57.359 Y239.743 E62.57595
G1 X56.875 Y239.613 E62.59678
G1 X56.583 Y239.527 E62.60944
G1 X55.727 Y239.234 E62.64706
G1 X55.055 Y238.941 E62.67753
G1 X54.777 Y238.808 E62.69035
G1 X53.979 Y238.382 E62.72796
G1 X53.54 Y238.107 E62.74949
G1 X53.297 Y237.946 E62.76161
G1 X52.283 Y237.18 E62.81445
G1 X52.128 Y237.047 E62.82294
G1 X51.468 Y236.428 E62.86056
G1 X50.901 Y235.797 E62.89583
G1 X50.668 Y235.515 E62.91103
G1 X50.027 Y234.651 E62.95576
G1 X49.903 Y234.464 E62.96509
G1 X49.512 Y233.824 E62.99627
G1 X49.485 Y233.776 E62.99856
G1 X48.95 Y232.675 E63.04945
G1 X48.846 Y232.424 E63.06075
G1 X48.536 Y231.573 E63.0984
G1 X48.37 Y230.98 E63.124
G1 X48.269 Y230.575 E63.14136
G1 X48.089 Y229.688 E63.17899
G1 X48.022 Y229.182 E63.20021
G1 X48.014 Y229.107 E63.20334
G1 X47.972 Y228.594 E63.22474
G1 X47.96 Y228.38 E63.23365
G1 X47.945 Y227.918 E63.25287
G1 X47.939 Y227.35 E63.27649
G1 X47.941 Y183.775 E65.08813
G1 X47.952 Y183.036 E65.11885
G1 X48.054 Y181.739 E65.17294
G1 X48.095 Y181.452 E65.185
G1 X48.285 Y180.468 E65.22666
G1 X48.296 Y180.423 E65.22859
G1 X48.601 Y179.408 E65.27265
G1 X48.71 Y179.103 E65.28612
G1 X49.09 Y178.182 E65.32754
G1 X49.213 Y177.921 E65.33953
G1 X49.635 Y177.12 E65.37717
G1 X50.083 Y176.419 E65.41176
G1 X50.206 Y176.243 E65.42069
G1 X51.012 Y175.233 E65.47441
G1 X51.224 Y174.999 E65.48754
G1 X51.861 Y174.356 E65.52517
G1 X52.277 Y173.991 E65.54818
G1 X52.488 Y173.816 E65.55957
G1 X53.385 Y173.151 E65.606
G1 X53.535 Y173.052 E65.61347
G1 X54.312 Y172.587 E65.65112
G1 X54.773 Y172.353 E65.67261
G1 X55.027 Y172.232 E65.68431
G1 X56.046 Y171.812 E65.73013
G1 X56.223 Y171.75 E65.73793
G1 F2700 E60.73793
;MESH:Small enclosure, 3mm mains block-V2.stl
G0 F6000 X88.198 Y196.243
G0 X88.162 Y194.138
G0 X201.702 Y195.103
G0 X203.266 Y195.298
G0 X204.775 Y195.722
G0 X206.195 Y196.362
G0 X207.523 Y197.218
G0 X208.69 Y198.248
G0 X209.699 Y199.448
G0 X210.517 Y200.784
G0 X211.129 Y202.229
G0 X211.517 Y203.748
G0 X211.675 Y205.307
G0 X211.598 Y206.873
G0 X211.289 Y208.411
